;FLAVOR:Marlin
;TIME:15918
;Filament used: 8.70216m
;Layer height: 0.1
;Generated with Cura_SteamEngine 3.3.1
M190 S60
M104 S220
M109 S220
M82 ;absolute extrusion mode
G28 ;Home
G1 Z15.0 F6000 ;Move the platform down 15mm
;Prime the extruder
G92 E0
G1 F200 E3
G92 E0
G92 E0
G1 F2400 E-5
;LAYER_COUNT:80
;LAYER:0
M107
M204 S5000
M205 X30 Y30
G0 F3600 X70.413 Y111.217 Z0.2
M204 S500
M205 X20 Y20
;TYPE:SKIRT
G1 F2400 E0
G1 F1800 X71.05 Y110.891 E0.0238
G1 X71.719 Y110.638 E0.04759
G1 X72.412 Y110.461 E0.07138
G1 X73.121 Y110.363 E0.09518
G1 X73.643 Y110.342 E0.11256
G1 X226.355 Y110.341 E5.19178
G1 X227.069 Y110.381 E5.21557
G1 X227.774 Y110.5 E5.23935
G1 X228.462 Y110.698 E5.26316
G1 X229.123 Y110.971 E5.28694
G1 X229.75 Y111.315 E5.31073
G1 X230.334 Y111.728 E5.33452
G1 X230.868 Y112.203 E5.35829
G1 X231.346 Y112.735 E5.38208
G1 X231.762 Y113.317 E5.40587
G1 X232.111 Y113.942 E5.42968
G1 X232.387 Y114.602 E5.45348
G1 X232.588 Y115.288 E5.47725
G1 X232.711 Y115.993 E5.50105
G1 X232.755 Y116.707 E5.52485
G1 X232.719 Y117.421 E5.54863
G1 X232.603 Y118.127 E5.57242
G1 X232.409 Y118.815 E5.5962
G1 X232.14 Y119.478 E5.61999
G1 X231.897 Y119.941 E5.63739
G1 X193.489 Y186.459 E8.19211
G1 X193.098 Y187.058 E8.2159
G1 X192.642 Y187.609 E8.23969
G1 X192.127 Y188.105 E8.26347
G1 X191.56 Y188.542 E8.28728
G1 X190.948 Y188.912 E8.31106
G1 X190.299 Y189.211 E8.33483
G1 X189.62 Y189.437 E8.35863
G1 X188.92 Y189.585 E8.38243
G1 X187.947 Y189.659 E8.41488
G1 X112.048 Y189.659 E10.93929
G1 X111.334 Y189.619 E10.96308
G1 X110.629 Y189.5 E10.98686
G1 X109.941 Y189.302 E11.01067
G1 X109.28 Y189.029 E11.03446
G1 X108.653 Y188.685 E11.05824
G1 X108.069 Y188.272 E11.08203
G1 X107.535 Y187.797 E11.10581
G1 X107.056 Y187.265 E11.12962
G1 X106.505 Y186.459 E11.16209
G1 X68.1 Y119.942 E13.71673
G1 X67.778 Y119.304 E13.7405
G1 X67.529 Y118.633 E13.7643
G1 X67.356 Y117.939 E13.78809
G1 X67.262 Y117.23 E13.81188
G1 X67.247 Y116.515 E13.83567
G1 X67.312 Y115.803 E13.85945
G1 X67.457 Y115.102 E13.88326
G1 X67.678 Y114.422 E13.90704
G1 X67.974 Y113.771 E13.93082
G1 X68.341 Y113.157 E13.95461
G1 X68.774 Y112.588 E13.9784
G1 X69.268 Y112.071 E14.00218
G1 X69.817 Y111.612 E14.02598
G1 X70.413 Y111.217 E14.04976
M204 S5000
M205 X30 Y30
G0 F3600 X70.885 Y111.413
M204 S500
M205 X20 Y20
G1 F1800 X71.517 Y111.131 E14.07278
G1 X72.178 Y110.924 E14.09582
G1 X72.858 Y110.794 E14.11884
G1 X73.643 Y110.742 E14.14501
G1 X226.355 Y110.741 E19.22423
G1 X227.046 Y110.781 E19.24725
G1 X227.729 Y110.9 E19.27031
G1 X228.392 Y111.097 E19.29332
G1 X229.029 Y111.37 E19.31637
G1 X229.63 Y111.714 E19.3394
G1 X230.188 Y112.125 E19.36245
G1 X230.694 Y112.597 E19.38546
G1 X231.143 Y113.125 E19.40852
G1 X231.528 Y113.7 E19.43153
G1 X231.843 Y114.317 E19.45457
G1 X232.086 Y114.965 E19.47759
G1 X232.253 Y115.637 E19.50062
G1 X232.341 Y116.324 E19.52366
G1 X232.349 Y117.017 E19.54671
G1 X232.277 Y117.706 E19.56975
G1 X232.126 Y118.382 E19.59279
G1 X231.899 Y119.036 E19.61581
G1 X231.551 Y119.741 E19.64196
G1 X193.143 Y186.259 E22.19668
G1 X192.763 Y186.838 E22.21972
G1 X192.318 Y187.369 E22.24276
G1 X191.816 Y187.845 E22.26577
G1 X191.261 Y188.261 E22.28884
G1 X190.663 Y188.609 E22.31185
G1 X190.028 Y188.886 E22.33489
G1 X189.366 Y189.089 E22.35792
G1 X188.685 Y189.213 E22.38095
G1 X187.947 Y189.259 E22.40554
G1 X112.048 Y189.259 E24.92995
G1 X111.357 Y189.219 E24.95297
G1 X110.674 Y189.1 E24.97603
G1 X110.011 Y188.902 E24.99904
G1 X109.374 Y188.63 E25.02208
G1 X108.773 Y188.286 E25.04511
G1 X108.215 Y187.875 E25.06816
G1 X107.709 Y187.403 E25.09118
G1 X107.26 Y186.875 E25.11423
G1 X106.852 Y186.259 E25.13881
G1 X68.447 Y119.742 E27.69345
G1 X68.136 Y119.123 E27.71649
G1 X67.898 Y118.473 E27.73951
G1 X67.737 Y117.799 E27.76256
G1 X67.654 Y117.112 E27.78558
G1 X67.652 Y116.419 E27.80862
G1 X67.729 Y115.731 E27.83165
G1 X67.885 Y115.056 E27.85469
G1 X68.117 Y114.404 E27.87771
G1 X68.423 Y113.783 E27.90074
G1 X68.799 Y113.201 E27.92378
G1 X69.24 Y112.667 E27.94682
G1 X69.738 Y112.186 E27.96984
G1 X70.289 Y111.767 E27.99287
G1 X70.885 Y111.413 E28.01592
M204 S5000
M205 X30 Y30
G0 F3600 X70.762 Y111.94
M204 S500
M205 X20 Y20
G1 F1800 X71.355 Y111.631 E28.03816
G1 X71.981 Y111.394 E28.06043
G1 X72.631 Y111.234 E28.08269
G1 X73.295 Y111.153 E28.10494
G1 X73.643 Y111.142 E28.11652
G1 X226.355 Y111.141 E33.19574
G1 X227.023 Y111.181 E33.218
G1 X227.681 Y111.3 E33.24024
G1 X228.32 Y111.497 E33.26248
G1 X228.932 Y111.769 E33.28476
G1 X229.506 Y112.112 E33.307
G1 X230.036 Y112.521 E33.32926
G1 X230.513 Y112.99 E33.35151
G1 X230.931 Y113.512 E33.37375
G1 X231.283 Y114.081 E33.39601
G1 X231.565 Y114.688 E33.41827
G1 X231.773 Y115.324 E33.44052
G1 X231.903 Y115.98 E33.46277
G1 X231.954 Y116.647 E33.48502
G1 X231.925 Y117.315 E33.50726
G1 X231.817 Y117.976 E33.52953
G1 X231.631 Y118.618 E33.55176
G1 X231.369 Y119.234 E33.57403
G1 X231.205 Y119.541 E33.5856
G1 X192.797 Y186.059 E36.14032
G1 X192.428 Y186.618 E36.1626
G1 X191.996 Y187.128 E36.18483
G1 X191.505 Y187.583 E36.2071
G1 X190.964 Y187.977 E36.22936
G1 X190.38 Y188.303 E36.2516
G1 X189.761 Y188.557 E36.27386
G1 X189.116 Y188.736 E36.29612
G1 X188.455 Y188.836 E36.31835
G1 X187.947 Y188.859 E36.33527
G1 X112.048 Y188.859 E38.85968
G1 X111.38 Y188.819 E38.88194
G1 X110.722 Y188.7 E38.90418
G1 X110.082 Y188.503 E38.92645
G1 X109.471 Y188.231 E38.94869
G1 X108.897 Y187.888 E38.97093
G1 X108.367 Y187.479 E38.9932
G1 X107.89 Y187.01 E39.01545
G1 X107.472 Y186.488 E39.03769
G1 X107.198 Y186.059 E39.05462
G1 X68.793 Y119.542 E41.60926
G1 X68.494 Y118.944 E41.6315
G1 X68.268 Y118.314 E41.65376
G1 X68.119 Y117.662 E41.67601
G1 X68.049 Y116.996 E41.69828
G1 X68.058 Y116.327 E41.72053
G1 X68.148 Y115.664 E41.74279
G1 X68.315 Y115.017 E41.76501
G1 X68.559 Y114.394 E41.78727
G1 X68.875 Y113.804 E41.80953
G1 X69.26 Y113.257 E41.83177
G1 X69.707 Y112.759 E41.85403
G1 X70.21 Y112.318 E41.87628
G1 X70.762 Y111.94 E41.89853
M204 S5000
M205 X30 Y30
G0 F3600 X71.234 Y112.134
M204 S500
M205 X20 Y20
G1 F1800 X71.823 Y111.871 E41.91999
G1 X72.439 Y111.683 E41.94141
G1 X73.075 Y111.573 E41.96288
G1 X73.643 Y111.542 E41.9818
G1 X226.355 Y111.541 E47.06102
G1 X226.998 Y111.581 E47.08244
G1 X227.632 Y111.7 E47.1039
G1 X228.246 Y111.897 E47.12535
G1 X228.831 Y112.168 E47.14679
G1 X229.378 Y112.51 E47.16825
G1 X229.878 Y112.916 E47.18967
G1 X230.324 Y113.381 E47.2111
G1 X230.709 Y113.898 E47.23254
G1 X231.028 Y114.459 E47.254
G1 X231.274 Y115.055 E47.27545
G1 X231.445 Y115.676 E47.29687
G1 X231.537 Y116.314 E47.31831
G1 X231.55 Y116.959 E47.33977
G1 X231.484 Y117.6 E47.3612
G1 X231.338 Y118.228 E47.38265
G1 X231.116 Y118.833 E47.40408
G1 X230.858 Y119.341 E47.42303
G1 X192.45 Y185.859 E49.97775
G1 X192.094 Y186.396 E49.99918
G1 X191.674 Y186.885 E50.02062
G1 X191.196 Y187.319 E50.04209
G1 X190.669 Y187.69 E50.06353
G1 X190.1 Y187.992 E50.08495
G1 X189.498 Y188.222 E50.10639
G1 X188.872 Y188.376 E50.12783
G1 X187.947 Y188.459 E50.15872
G1 X112.048 Y188.459 E52.68313
G1 X111.405 Y188.419 E52.70456
G1 X110.771 Y188.3 E52.72601
G1 X110.157 Y188.103 E52.74746
G1 X109.572 Y187.832 E52.7689
G1 X109.025 Y187.49 E52.79036
G1 X108.525 Y187.084 E52.81178
G1 X108.079 Y186.619 E52.83321
G1 X107.545 Y185.859 E52.86411
G1 X69.14 Y119.342 E55.41875
G1 X68.853 Y118.765 E55.44018
G1 X68.639 Y118.157 E55.46162
G1 X68.503 Y117.527 E55.48306
G1 X68.445 Y116.884 E55.50453
G1 X68.467 Y116.24 E55.52596
G1 X68.569 Y115.604 E55.54739
G1 X68.749 Y114.985 E55.56883
G1 X69.004 Y114.392 E55.5903
G1 X69.33 Y113.837 E55.6117
G1 X69.723 Y113.325 E55.63317
G1 X70.176 Y112.866 E55.65462
G1 X70.682 Y112.467 E55.67605
G1 X71.234 Y112.134 E55.69749
M204 S5000
M205 X30 Y30
G1 F2400 E50.69749
G0 F3600 X74.682 Y116.066
G0 X74.682 Y117.341
G0 X144.873 Y152.997
G0 X144.908 Y152.904
M204 S500
M205 X20 Y20
;TYPE:WALL-INNER
G1 F2400 E55.69749
G1 F1800 X145.389 Y153.04 E55.71412
G1 X145.885 Y153.1 E55.73074
G1 X146.383 Y153.077 E55.74732
G1 X146.871 Y152.976 E55.76389
G1 X147.339 Y152.798 E55.78055
G1 X147.771 Y152.546 E55.79718
G1 X148.155 Y152.23 E55.81372
G1 X148.485 Y151.857 E55.83029
G1 X148.751 Y151.433 E55.84693
G1 X148.944 Y150.974 E55.86349
G1 X149.063 Y150.487 E55.88017
G1 X149.101 Y149.99 E55.89675
G1 X149.06 Y149.493 E55.91333
G1 X148.938 Y149.009 E55.92994
G1 X148.742 Y148.551 E55.9465
G1 X148.474 Y148.129 E55.96313
G1 X148.141 Y147.756 E55.97976
G1 X147.754 Y147.443 E55.99632
G1 X147.322 Y147.194 E56.0129
G1 X146.854 Y147.018 E56.02953
G1 X146.363 Y146.92 E56.04618
G1 X145.865 Y146.902 E56.06276
G1 X145.372 Y146.964 E56.07929
G1 X144.891 Y147.103 E56.09594
G1 X144.441 Y147.319 E56.11254
G1 X144.033 Y147.603 E56.12907
G1 X143.672 Y147.95 E56.14573
G1 X143.373 Y148.351 E56.16236
G1 X143.143 Y148.793 E56.17894
G1 X142.987 Y149.266 E56.1955
G1 X142.908 Y149.76 E56.21214
G1 X142.909 Y150.258 E56.22871
G1 X142.991 Y150.752 E56.24536
G1 X143.152 Y151.225 E56.26198
G1 X143.384 Y151.665 E56.27852
G1 X143.684 Y152.063 E56.2951
G1 X144.046 Y152.409 E56.31176
G1 X144.457 Y152.69 E56.32832
G1 X144.908 Y152.904 E56.34492
M204 S5000
M205 X30 Y30
G0 F3600 X144.873 Y152.997
G0 X145.691 Y153.111
G0 X152.873 Y152.997
G0 X152.908 Y152.904
M204 S500
M205 X20 Y20
G1 F1800 X153.389 Y153.04 E56.36154
G1 X153.885 Y153.1 E56.37816
G1 X154.383 Y153.077 E56.39474
G1 X154.871 Y152.976 E56.41132
G1 X155.339 Y152.798 E56.42797
G1 X155.771 Y152.546 E56.44461
G1 X156.155 Y152.23 E56.46115
G1 X156.485 Y151.857 E56.47771
G1 X156.751 Y151.433 E56.49436
G1 X156.944 Y150.974 E56.51092
G1 X157.063 Y150.487 E56.52759
G1 X157.101 Y149.99 E56.54417
G1 X157.06 Y149.493 E56.56076
G1 X156.938 Y149.009 E56.57736
G1 X156.742 Y148.551 E56.59393
G1 X156.474 Y148.129 E56.61056
G1 X156.141 Y147.756 E56.62719
G1 X155.754 Y147.443 E56.64374
G1 X155.322 Y147.194 E56.66033
G1 X154.854 Y147.018 E56.67696
G1 X154.363 Y146.92 E56.69361
G1 X153.865 Y146.902 E56.71018
G1 X153.372 Y146.964 E56.72671
G1 X152.891 Y147.103 E56.74336
G1 X152.441 Y147.319 E56.75996
G1 X152.033 Y147.603 E56.7765
G1 X151.672 Y147.95 E56.79315
G1 X151.373 Y148.351 E56.80979
G1 X151.143 Y148.793 E56.82636
G1 X150.987 Y149.266 E56.84293
G1 X150.908 Y149.76 E56.85957
G1 X150.909 Y150.258 E56.87613
G1 X150.991 Y150.752 E56.89279
G1 X151.152 Y151.225 E56.9094
G1 X151.384 Y151.665 E56.92595
G1 X151.684 Y152.063 E56.94252
G1 X152.046 Y152.409 E56.95918
G1 X152.457 Y152.69 E56.97574
G1 X152.908 Y152.904 E56.99234
M204 S5000
M205 X30 Y30
G0 F3600 X152.873 Y152.997
G0 X187.562 Y182.583
G0 X187.612 Y182.669
M204 S500
M205 X20 Y20
G1 F1800 X112.388 Y182.669 E59.4943
G1 X74.665 Y117.331 E62.00364
G1 X225.335 Y117.331 E67.01495
G1 X187.612 Y182.669 E69.52429
M204 S5000
M205 X30 Y30
G0 F3600 X187.843 Y183.069
M204 S500
M205 X20 Y20
;TYPE:WALL-OUTER
G1 F1800 X112.157 Y183.069 E72.04161
G1 X73.973 Y116.931 E74.58166
G1 X226.027 Y116.931 E79.639
G1 X187.843 Y183.069 E82.17905
M204 S5000
M205 X30 Y30
G0 F3600 X187.643 Y183.069
G0 X187.562 Y182.583
G0 X151.655 Y152.089
G0 X151.351 Y151.686
G0 X151.116 Y151.24
G0 X150.953 Y150.761
G0 X150.87 Y150.261
G0 X150.869 Y149.757
G0 X150.949 Y149.257
G0 X151.107 Y148.778
G0 X151.34 Y148.33
G0 X151.643 Y147.924
G0 X151.849 Y147.726
G0 X152.819 Y147.027
G0 X153.034 Y147.478
M204 S500
M205 X20 Y20
G1 F1800 X152.643 Y147.666 E82.19348
G1 X152.287 Y147.913 E82.20789
G1 X151.973 Y148.215 E82.22238
G1 X151.713 Y148.564 E82.23686
G1 X151.513 Y148.949 E82.25129
G1 X151.377 Y149.361 E82.26572
G1 X151.308 Y149.791 E82.2802
G1 X151.309 Y150.225 E82.29464
G1 X151.38 Y150.654 E82.3091
G1 X151.52 Y151.066 E82.32357
G1 X151.723 Y151.45 E82.33802
G1 X151.984 Y151.796 E82.35243
G1 X152.299 Y152.097 E82.36692
G1 X152.657 Y152.342 E82.38135
G1 X153.049 Y152.528 E82.39578
G1 X153.468 Y152.647 E82.41027
G1 X153.9 Y152.699 E82.42474
G1 X154.333 Y152.679 E82.43916
G1 X154.759 Y152.591 E82.45363
G1 X155.166 Y152.436 E82.46811
G1 X155.541 Y152.217 E82.48256
G1 X155.876 Y151.941 E82.49699
G1 X156.164 Y151.616 E82.51144
G1 X156.395 Y151.248 E82.52589
G1 X156.563 Y150.848 E82.54032
G1 X156.667 Y150.424 E82.55484
G1 X156.7 Y149.991 E82.56928
G1 X156.664 Y149.559 E82.5837
G1 X156.558 Y149.137 E82.59817
G1 X156.387 Y148.738 E82.61261
G1 X156.154 Y148.371 E82.62707
G1 X155.864 Y148.047 E82.64153
G1 X155.527 Y147.774 E82.65596
G1 X155.151 Y147.557 E82.67039
G1 X154.744 Y147.404 E82.68486
G1 X154.316 Y147.319 E82.69937
G1 X153.883 Y147.303 E82.71378
G1 X153.453 Y147.357 E82.7282
G1 X153.034 Y147.478 E82.7427
M204 S5000
M205 X30 Y30
G0 F3600 X152.854 Y147.564
G0 X152.639 Y147.113
G0 X149.099 Y149.487
G0 X149.141 Y149.99
G0 X149.102 Y150.493
G0 X148.981 Y150.986
G0 X148.786 Y151.451
G0 X148.517 Y151.88
G0 X148.182 Y152.258
G0 X147.793 Y152.578
G0 X147.356 Y152.834
G0 X146.882 Y153.014
G0 X146.387 Y153.116
G0 X145.884 Y153.139
G0 X145.382 Y153.079
G0 X144.894 Y152.941
G0 X144.438 Y152.724
G0 X144.021 Y152.44
G0 X143.655 Y152.089
G0 X143.351 Y151.686
G0 X143.116 Y151.24
G0 X142.953 Y150.761
G0 X142.87 Y150.261
G0 X142.869 Y149.757
G0 X142.949 Y149.257
G0 X143.107 Y148.778
G0 X143.34 Y148.33
G0 X143.643 Y147.924
G0 X143.849 Y147.726
G0 X144.819 Y147.027
G0 X145.034 Y147.478
M204 S500
M205 X20 Y20
G1 F1800 X144.643 Y147.666 E82.75713
G1 X144.287 Y147.913 E82.77154
G1 X143.973 Y148.215 E82.78603
G1 X143.713 Y148.564 E82.80051
G1 X143.513 Y148.949 E82.81494
G1 X143.377 Y149.361 E82.82937
G1 X143.308 Y149.791 E82.84385
G1 X143.309 Y150.225 E82.85829
G1 X143.38 Y150.654 E82.87275
G1 X143.52 Y151.066 E82.88722
G1 X143.723 Y151.45 E82.90167
G1 X143.984 Y151.796 E82.91608
G1 X144.299 Y152.097 E82.93058
G1 X144.657 Y152.342 E82.945
G1 X145.049 Y152.528 E82.95944
G1 X145.468 Y152.647 E82.97392
G1 X145.9 Y152.699 E82.98839
G1 X146.333 Y152.679 E83.00281
G1 X146.759 Y152.591 E83.01728
G1 X147.166 Y152.436 E83.03177
G1 X147.541 Y152.217 E83.04621
G1 X147.876 Y151.941 E83.06065
G1 X148.164 Y151.616 E83.07509
G1 X148.395 Y151.248 E83.08954
G1 X148.563 Y150.848 E83.10397
G1 X148.667 Y150.424 E83.11849
G1 X148.7 Y149.991 E83.13293
G1 X148.664 Y149.559 E83.14735
G1 X148.558 Y149.137 E83.16182
G1 X148.387 Y148.738 E83.17626
G1 X148.154 Y148.371 E83.19072
G1 X147.864 Y148.047 E83.20518
G1 X147.527 Y147.774 E83.21961
G1 X147.151 Y147.557 E83.23405
G1 X146.744 Y147.404 E83.24851
G1 X146.316 Y147.319 E83.26302
G1 X145.883 Y147.303 E83.27743
G1 X145.453 Y147.357 E83.29185
G1 X145.034 Y147.478 E83.30635
M204 S5000
M205 X30 Y30
G0 F3600 X144.854 Y147.564
G0 X144.639 Y147.113
G0 X144.751 Y146.737
M204 S500
M205 X20 Y20
;TYPE:SKIN
G1 F1800 X144.244 Y146.981 E83.32507
G1 X143.785 Y147.301 E83.34368
G1 X143.379 Y147.691 E83.3624
G1 X143.042 Y148.143 E83.38115
G1 X142.782 Y148.641 E83.39984
G1 X142.607 Y149.174 E83.4185
G1 X142.518 Y149.729 E83.43719
G1 X142.519 Y150.291 E83.45589
G1 X142.611 Y150.848 E83.47466
G1 X142.793 Y151.379 E83.49333
G1 X143.054 Y151.875 E83.51197
G1 X143.392 Y152.323 E83.53064
G1 X143.8 Y152.713 E83.54941
G1 X144.262 Y153.029 E83.56803
G1 X144.77 Y153.27 E83.58673
G1 X145.313 Y153.424 E83.6055
G1 X145.871 Y153.492 E83.6242
G1 X146.432 Y153.465 E83.64288
G1 X146.98 Y153.352 E83.66149
G1 X147.508 Y153.151 E83.68028
G1 X147.995 Y152.867 E83.69903
G1 X148.426 Y152.511 E83.71762
G1 X148.799 Y152.091 E83.73631
G1 X149.098 Y151.614 E83.75503
G1 X149.316 Y151.097 E83.77369
G1 X149.449 Y150.549 E83.79245
G1 X149.493 Y149.988 E83.81116
G1 X149.446 Y149.429 E83.82982
G1 X149.309 Y148.884 E83.84851
G1 X149.089 Y148.368 E83.86717
G1 X148.786 Y147.893 E83.88591
G1 X148.41 Y147.473 E83.90466
G1 X147.976 Y147.121 E83.92324
G1 X147.489 Y146.841 E83.94193
G1 X146.961 Y146.642 E83.9607
G1 X146.408 Y146.532 E83.97945
G1 X145.847 Y146.512 E83.99812
G1 X145.294 Y146.581 E84.01666
G1 X144.751 Y146.737 E84.03545
M204 S5000
M205 X30 Y30
G0 F3600 X146.367 Y146.881
G0 X146.864 Y146.98
G0 X147.248 Y147.124
G0 X150.607 Y149.174
M204 S500
M205 X20 Y20
G1 F1800 X150.518 Y149.729 E84.05414
G1 X150.519 Y150.291 E84.07283
G1 X150.611 Y150.848 E84.09161
G1 X150.793 Y151.379 E84.11028
G1 X151.054 Y151.875 E84.12892
G1 X151.392 Y152.323 E84.14759
G1 X151.8 Y152.713 E84.16636
G1 X152.262 Y153.029 E84.18498
