;FLAVOR:Marlin
;TIME:15923
;Filament used: 8.69205m
;Layer height: 0.1
;Generated with Cura_SteamEngine 3.3.1
M190 S60
M104 S220
M109 S220
M82 ;absolute extrusion mode
G28 ;Home
G1 Z15.0 F6000 ;Move the platform down 15mm
;Prime the extruder
G92 E0
G1 F200 E3
G92 E0
G92 E0
G1 F2400 E-5
;LAYER_COUNT:80
;LAYER:0
M107
M204 S5000
M205 X30 Y30
G0 F3600 X70.413 Y111.217 Z0.2
M204 S500
M205 X20 Y20
;TYPE:SKIRT
G1 F2400 E0
G1 F1800 X71.05 Y110.891 E0.0238
G1 X71.719 Y110.638 E0.04759
G1 X72.412 Y110.461 E0.07138
G1 X73.121 Y110.363 E0.09518
G1 X73.643 Y110.342 E0.11256
G1 X226.355 Y110.341 E5.19178
G1 X227.069 Y110.381 E5.21557
G1 X227.774 Y110.5 E5.23935
G1 X228.462 Y110.698 E5.26316
G1 X229.123 Y110.971 E5.28694
G1 X229.75 Y111.315 E5.31073
G1 X230.334 Y111.728 E5.33452
G1 X230.868 Y112.203 E5.35829
G1 X231.346 Y112.735 E5.38208
G1 X231.762 Y113.317 E5.40587
G1 X232.111 Y113.942 E5.42968
G1 X232.387 Y114.602 E5.45348
G1 X232.588 Y115.288 E5.47725
G1 X232.711 Y115.993 E5.50105
G1 X232.755 Y116.707 E5.52485
G1 X232.719 Y117.421 E5.54863
G1 X232.603 Y118.127 E5.57242
G1 X232.409 Y118.815 E5.5962
G1 X232.14 Y119.478 E5.61999
G1 X231.897 Y119.941 E5.63739
G1 X193.489 Y186.459 E8.19211
G1 X193.098 Y187.058 E8.2159
G1 X192.642 Y187.609 E8.23969
G1 X192.127 Y188.105 E8.26347
G1 X191.56 Y188.542 E8.28728
G1 X190.948 Y188.912 E8.31106
G1 X190.299 Y189.211 E8.33483
G1 X189.62 Y189.437 E8.35863
G1 X188.92 Y189.585 E8.38243
G1 X187.947 Y189.659 E8.41488
G1 X112.048 Y189.659 E10.93929
G1 X111.334 Y189.619 E10.96308
G1 X110.629 Y189.5 E10.98686
G1 X109.941 Y189.302 E11.01067
G1 X109.28 Y189.029 E11.03446
G1 X108.653 Y188.685 E11.05824
G1 X108.069 Y188.272 E11.08203
G1 X107.535 Y187.797 E11.10581
G1 X107.056 Y187.265 E11.12962
G1 X106.505 Y186.459 E11.16209
G1 X68.1 Y119.942 E13.71673
G1 X67.778 Y119.304 E13.7405
G1 X67.529 Y118.633 E13.7643
G1 X67.356 Y117.939 E13.78809
G1 X67.262 Y117.23 E13.81188
G1 X67.247 Y116.515 E13.83567
G1 X67.312 Y115.803 E13.85945
G1 X67.457 Y115.102 E13.88326
G1 X67.678 Y114.422 E13.90704
G1 X67.974 Y113.771 E13.93082
G1 X68.341 Y113.157 E13.95461
G1 X68.774 Y112.588 E13.9784
G1 X69.268 Y112.071 E14.00218
G1 X69.817 Y111.612 E14.02598
G1 X70.413 Y111.217 E14.04976
M204 S5000
M205 X30 Y30
G0 F3600 X70.885 Y111.413
M204 S500
M205 X20 Y20
G1 F1800 X71.517 Y111.131 E14.07278
G1 X72.178 Y110.924 E14.09582
G1 X72.858 Y110.794 E14.11884
G1 X73.643 Y110.742 E14.14501
G1 X226.355 Y110.741 E19.22423
G1 X227.046 Y110.781 E19.24725
G1 X227.729 Y110.9 E19.27031
G1 X228.392 Y111.097 E19.29332
G1 X229.029 Y111.37 E19.31637
G1 X229.63 Y111.714 E19.3394
G1 X230.188 Y112.125 E19.36245
G1 X230.694 Y112.597 E19.38546
G1 X231.143 Y113.125 E19.40852
G1 X231.528 Y113.7 E19.43153
G1 X231.843 Y114.317 E19.45457
G1 X232.086 Y114.965 E19.47759
G1 X232.253 Y115.637 E19.50062
G1 X232.341 Y116.324 E19.52366
G1 X232.349 Y117.017 E19.54671
G1 X232.277 Y117.706 E19.56975
G1 X232.126 Y118.382 E19.59279
G1 X231.899 Y119.036 E19.61581
G1 X231.551 Y119.741 E19.64196
G1 X193.143 Y186.259 E22.19668
G1 X192.763 Y186.838 E22.21972
G1 X192.318 Y187.369 E22.24276
G1 X191.816 Y187.845 E22.26577
G1 X191.261 Y188.261 E22.28884
G1 X190.663 Y188.609 E22.31185
G1 X190.028 Y188.886 E22.33489
G1 X189.366 Y189.089 E22.35792
G1 X188.685 Y189.213 E22.38095
G1 X187.947 Y189.259 E22.40554
G1 X112.048 Y189.259 E24.92995
G1 X111.357 Y189.219 E24.95297
G1 X110.674 Y189.1 E24.97603
G1 X110.011 Y188.902 E24.99904
G1 X109.374 Y188.63 E25.02208
G1 X108.773 Y188.286 E25.04511
G1 X108.215 Y187.875 E25.06816
G1 X107.709 Y187.403 E25.09118
G1 X107.26 Y186.875 E25.11423
G1 X106.852 Y186.259 E25.13881
G1 X68.447 Y119.742 E27.69345
G1 X68.136 Y119.123 E27.71649
G1 X67.898 Y118.473 E27.73951
G1 X67.737 Y117.799 E27.76256
G1 X67.654 Y117.112 E27.78558
G1 X67.652 Y116.419 E27.80862
G1 X67.729 Y115.731 E27.83165
G1 X67.885 Y115.056 E27.85469
G1 X68.117 Y114.404 E27.87771
G1 X68.423 Y113.783 E27.90074
G1 X68.799 Y113.201 E27.92378
G1 X69.24 Y112.667 E27.94682
G1 X69.738 Y112.186 E27.96984
G1 X70.289 Y111.767 E27.99287
G1 X70.885 Y111.413 E28.01592
M204 S5000
M205 X30 Y30
G0 F3600 X70.762 Y111.94
M204 S500
M205 X20 Y20
G1 F1800 X71.355 Y111.631 E28.03816
G1 X71.981 Y111.394 E28.06043
G1 X72.631 Y111.234 E28.08269
G1 X73.295 Y111.153 E28.10494
G1 X73.643 Y111.142 E28.11652
G1 X226.355 Y111.141 E33.19574
G1 X227.023 Y111.181 E33.218
G1 X227.681 Y111.3 E33.24024
G1 X228.32 Y111.497 E33.26248
G1 X228.932 Y111.769 E33.28476
G1 X229.506 Y112.112 E33.307
G1 X230.036 Y112.521 E33.32926
G1 X230.513 Y112.99 E33.35151
G1 X230.931 Y113.512 E33.37375
G1 X231.283 Y114.081 E33.39601
G1 X231.565 Y114.688 E33.41827
G1 X231.773 Y115.324 E33.44052
G1 X231.903 Y115.98 E33.46277
G1 X231.954 Y116.647 E33.48502
G1 X231.925 Y117.315 E33.50726
G1 X231.817 Y117.976 E33.52953
G1 X231.631 Y118.618 E33.55176
G1 X231.369 Y119.234 E33.57403
G1 X231.205 Y119.541 E33.5856
G1 X192.797 Y186.059 E36.14032
G1 X192.428 Y186.618 E36.1626
G1 X191.996 Y187.128 E36.18483
G1 X191.505 Y187.583 E36.2071
G1 X190.964 Y187.977 E36.22936
G1 X190.38 Y188.303 E36.2516
G1 X189.761 Y188.557 E36.27386
G1 X189.116 Y188.736 E36.29612
G1 X188.455 Y188.836 E36.31835
G1 X187.947 Y188.859 E36.33527
G1 X112.048 Y188.859 E38.85968
G1 X111.38 Y188.819 E38.88194
G1 X110.722 Y188.7 E38.90418
G1 X110.082 Y188.503 E38.92645
G1 X109.471 Y188.231 E38.94869
G1 X108.897 Y187.888 E38.97093
G1 X108.367 Y187.479 E38.9932
G1 X107.89 Y187.01 E39.01545
G1 X107.472 Y186.488 E39.03769
G1 X107.198 Y186.059 E39.05462
G1 X68.793 Y119.542 E41.60926
G1 X68.494 Y118.944 E41.6315
G1 X68.268 Y118.314 E41.65376
G1 X68.119 Y117.662 E41.67601
G1 X68.049 Y116.996 E41.69828
G1 X68.058 Y116.327 E41.72053
G1 X68.148 Y115.664 E41.74279
G1 X68.315 Y115.017 E41.76501
G1 X68.559 Y114.394 E41.78727
G1 X68.875 Y113.804 E41.80953
G1 X69.26 Y113.257 E41.83177
G1 X69.707 Y112.759 E41.85403
G1 X70.21 Y112.318 E41.87628
G1 X70.762 Y111.94 E41.89853
M204 S5000
M205 X30 Y30
G0 F3600 X71.234 Y112.134
M204 S500
M205 X20 Y20
G1 F1800 X71.823 Y111.871 E41.91999
G1 X72.439 Y111.683 E41.94141
G1 X73.075 Y111.573 E41.96288
G1 X73.643 Y111.542 E41.9818
G1 X226.355 Y111.541 E47.06102
G1 X226.998 Y111.581 E47.08244
G1 X227.632 Y111.7 E47.1039
G1 X228.246 Y111.897 E47.12535
G1 X228.831 Y112.168 E47.14679
G1 X229.378 Y112.51 E47.16825
G1 X229.878 Y112.916 E47.18967
G1 X230.324 Y113.381 E47.2111
G1 X230.709 Y113.898 E47.23254
G1 X231.028 Y114.459 E47.254
G1 X231.274 Y115.055 E47.27545
G1 X231.445 Y115.676 E47.29687
G1 X231.537 Y116.314 E47.31831
G1 X231.55 Y116.959 E47.33977
G1 X231.484 Y117.6 E47.3612
G1 X231.338 Y118.228 E47.38265
G1 X231.116 Y118.833 E47.40408
G1 X230.858 Y119.341 E47.42303
G1 X192.45 Y185.859 E49.97775
G1 X192.094 Y186.396 E49.99918
G1 X191.674 Y186.885 E50.02062
G1 X191.196 Y187.319 E50.04209
G1 X190.669 Y187.69 E50.06353
G1 X190.1 Y187.992 E50.08495
G1 X189.498 Y188.222 E50.10639
G1 X188.872 Y188.376 E50.12783
G1 X187.947 Y188.459 E50.15872
G1 X112.048 Y188.459 E52.68313
G1 X111.405 Y188.419 E52.70456
G1 X110.771 Y188.3 E52.72601
G1 X110.157 Y188.103 E52.74746
G1 X109.572 Y187.832 E52.7689
G1 X109.025 Y187.49 E52.79036
G1 X108.525 Y187.084 E52.81178
G1 X108.079 Y186.619 E52.83321
G1 X107.545 Y185.859 E52.86411
G1 X69.14 Y119.342 E55.41875
G1 X68.853 Y118.765 E55.44018
G1 X68.639 Y118.157 E55.46162
G1 X68.503 Y117.527 E55.48306
G1 X68.445 Y116.884 E55.50453
G1 X68.467 Y116.24 E55.52596
G1 X68.569 Y115.604 E55.54739
G1 X68.749 Y114.985 E55.56883
G1 X69.004 Y114.392 E55.5903
G1 X69.33 Y113.837 E55.6117
G1 X69.723 Y113.325 E55.63317
G1 X70.176 Y112.866 E55.65462
G1 X70.682 Y112.467 E55.67605
G1 X71.234 Y112.134 E55.69749
M204 S5000
M205 X30 Y30
G1 F2400 E50.69749
G0 F3600 X74.682 Y116.066
G0 X74.682 Y117.341
G0 X145.873 Y152.997
G0 X145.908 Y152.904
M204 S500
M205 X20 Y20
;TYPE:WALL-INNER
G1 F2400 E55.69749
G1 F1800 X146.389 Y153.04 E55.71412
G1 X146.885 Y153.1 E55.73074
G1 X147.383 Y153.077 E55.74732
G1 X147.871 Y152.976 E55.76389
G1 X148.339 Y152.798 E55.78055
G1 X148.771 Y152.546 E55.79718
G1 X149.155 Y152.23 E55.81372
G1 X149.485 Y151.857 E55.83029
G1 X149.751 Y151.433 E55.84693
G1 X149.84 Y151.221 E55.85458
G1 X149.885 Y151.113 E55.85847
G1 X149.944 Y150.974 E55.86349
G1 X149.995 Y150.764 E55.87068
G1 X150.053 Y150.936
G1 X150.152 Y151.225 E55.87236
G1 X150.206 Y151.328 E55.87574
G1 X150.384 Y151.665 E55.88842
G1 X150.684 Y152.063 E55.90499
G1 X151.046 Y152.409 E55.92165
G1 X151.457 Y152.69 E55.93821
G1 X151.908 Y152.904 E55.95481
G1 X152.389 Y153.04 E55.97144
G1 X152.885 Y153.1 E55.98805
G1 X153.383 Y153.077 E56.00463
G1 X153.871 Y152.976 E56.02121
G1 X154.339 Y152.798 E56.03786
G1 X154.771 Y152.546 E56.0545
G1 X155.155 Y152.23 E56.07104
G1 X155.485 Y151.857 E56.0876
G1 X155.751 Y151.433 E56.10425
G1 X155.944 Y150.974 E56.12081
G1 X156.063 Y150.487 E56.13749
G1 X156.101 Y149.99 E56.15406
G1 X156.06 Y149.493 E56.17065
G1 X155.938 Y149.009 E56.18725
G1 X155.742 Y148.551 E56.20382
G1 X155.474 Y148.129 E56.22045
G1 X155.141 Y147.756 E56.23708
G1 X154.754 Y147.443 E56.25363
G1 X154.322 Y147.194 E56.27022
G1 X153.854 Y147.018 E56.28685
G1 X153.363 Y146.92 E56.3035
G1 X152.865 Y146.902 E56.32008
G1 X152.372 Y146.964 E56.3366
G1 X151.891 Y147.103 E56.35325
G1 X151.441 Y147.319 E56.36986
G1 X151.033 Y147.603 E56.38639
G1 X150.672 Y147.95 E56.40304
G1 X150.373 Y148.351 E56.41968
G1 X150.204 Y148.675 E56.43184
G1 X150.143 Y148.793 E56.43625
G1 X150.059 Y149.048 E56.44518
G1 X149.996 Y149.239 E56.45187
G1 X149.938 Y149.009
G1 X149.892 Y148.902
G1 X149.84 Y148.779 E56.45568
G1 X149.742 Y148.551 E56.46393
G1 X149.474 Y148.129 E56.48056
G1 X149.141 Y147.756 E56.49719
G1 X148.754 Y147.443 E56.51374
G1 X148.322 Y147.194 E56.53033
G1 X147.854 Y147.018 E56.54696
G1 X147.363 Y146.92 E56.56361
G1 X146.865 Y146.902 E56.58018
G1 X146.372 Y146.964 E56.59671
G1 X145.891 Y147.103 E56.61336
G1 X145.441 Y147.319 E56.62996
G1 X145.033 Y147.603 E56.6465
G1 X144.672 Y147.95 E56.66315
G1 X144.373 Y148.351 E56.67979
G1 X144.143 Y148.793 E56.69636
G1 X143.987 Y149.266 E56.71293
G1 X143.908 Y149.76 E56.72957
G1 X143.909 Y150.258 E56.74613
G1 X143.991 Y150.752 E56.76279
G1 X144.152 Y151.225 E56.7794
G1 X144.384 Y151.665 E56.79595
G1 X144.684 Y152.063 E56.81253
G1 X145.046 Y152.409 E56.82918
G1 X145.457 Y152.69 E56.84574
G1 X145.908 Y152.904 E56.86234
M204 S5000
M205 X30 Y30
G0 F3600 X145.873 Y152.997
G0 X187.562 Y182.583
G0 X187.612 Y182.669
M204 S500
M205 X20 Y20
G1 F1800 X112.388 Y182.669 E59.3643
G1 X74.665 Y117.331 E61.87364
G1 X225.335 Y117.331 E66.88495
G1 X187.612 Y182.669 E69.39429
M204 S5000
M205 X30 Y30
G0 F3600 X187.843 Y183.069
M204 S500
M205 X20 Y20
;TYPE:WALL-OUTER
G1 F1800 X112.157 Y183.069 E71.91161
G1 X73.973 Y116.931 E74.45166
G1 X226.027 Y116.931 E79.509
G1 X187.843 Y183.069 E82.04905
M204 S5000
M205 X30 Y30
G0 F3600 X187.643 Y183.069
G0 X187.562 Y182.583
G0 X145.021 Y152.44
G0 X144.655 Y152.089
G0 X144.351 Y151.686
G0 X144.116 Y151.24
G0 X143.953 Y150.761
G0 X143.87 Y150.261
G0 X143.869 Y149.757
G0 X143.949 Y149.257
G0 X144.107 Y148.778
G0 X144.34 Y148.33
G0 X144.643 Y147.924
G0 X145.008 Y147.573
G0 X145.421 Y147.285
G0 X145.877 Y147.066
G0 X146.364 Y146.925
G0 X146.647 Y146.891
G0 X151.819 Y147.027
G0 X152.034 Y147.478
M204 S500
M205 X20 Y20
G1 F1800 X151.643 Y147.666 E82.06348
G1 X151.287 Y147.913 E82.07789
G1 X150.973 Y148.215 E82.09238
G1 X150.713 Y148.564 E82.10686
G1 X150.513 Y148.949 E82.12129
G1 X150.377 Y149.361 E82.13572
G1 X150.308 Y149.791 E82.1502
G1 X150.309 Y150.225 E82.16464
G1 X150.38 Y150.654 E82.1791
G1 X150.52 Y151.066 E82.19357
G1 X150.723 Y151.45 E82.20802
G1 X150.984 Y151.796 E82.22243
G1 X151.299 Y152.097 E82.23692
G1 X151.657 Y152.342 E82.25135
G1 X152.049 Y152.528 E82.26578
G1 X152.468 Y152.647 E82.28027
G1 X152.9 Y152.699 E82.29474
G1 X153.333 Y152.679 E82.30916
G1 X153.759 Y152.591 E82.32363
G1 X154.166 Y152.436 E82.33811
G1 X154.541 Y152.217 E82.35256
G1 X154.876 Y151.941 E82.36699
G1 X155.164 Y151.616 E82.38144
G1 X155.395 Y151.248 E82.39589
G1 X155.563 Y150.848 E82.41032
G1 X155.667 Y150.424 E82.42484
G1 X155.7 Y149.991 E82.43928
G1 X155.664 Y149.559 E82.4537
G1 X155.558 Y149.137 E82.46817
G1 X155.387 Y148.738 E82.48261
G1 X155.154 Y148.371 E82.49707
G1 X154.864 Y148.047 E82.51153
G1 X154.527 Y147.774 E82.52596
G1 X154.151 Y147.557 E82.5404
G1 X153.744 Y147.404 E82.55486
G1 X153.316 Y147.319 E82.56937
G1 X152.883 Y147.303 E82.58378
G1 X152.453 Y147.357 E82.5982
G1 X152.034 Y147.478 E82.6127
M204 S5000
M205 X30 Y30
G0 F3600 X151.854 Y147.564
G0 X151.639 Y147.113
G0 X146.864 Y146.863
G0 X145.819 Y147.027
G0 X146.034 Y147.478
M204 S500
M205 X20 Y20
G1 F1800 X145.643 Y147.666 E82.62713
G1 X145.287 Y147.913 E82.64154
G1 X144.973 Y148.215 E82.65603
G1 X144.713 Y148.564 E82.67051
G1 X144.513 Y148.949 E82.68494
G1 X144.377 Y149.361 E82.69937
G1 X144.308 Y149.791 E82.71385
G1 X144.309 Y150.225 E82.72829
G1 X144.38 Y150.654 E82.74275
G1 X144.52 Y151.066 E82.75722
G1 X144.723 Y151.45 E82.77167
G1 X144.984 Y151.796 E82.78609
G1 X145.299 Y152.097 E82.80058
G1 X145.657 Y152.342 E82.81501
G1 X146.049 Y152.528 E82.82944
G1 X146.468 Y152.647 E82.84392
G1 X146.9 Y152.699 E82.8584
G1 X147.333 Y152.679 E82.87281
G1 X147.759 Y152.591 E82.88728
G1 X148.166 Y152.436 E82.90177
G1 X148.541 Y152.217 E82.91621
G1 X148.876 Y151.941 E82.93065
G1 X149.164 Y151.616 E82.94509
G1 X149.395 Y151.248 E82.95954
G1 X149.563 Y150.848 E82.97397
G1 X149.667 Y150.424 E82.98849
G1 X149.7 Y149.991 E83.00293
G1 X149.664 Y149.559 E83.01735
G1 X149.558 Y149.137 E83.03182
G1 X149.387 Y148.738 E83.04626
G1 X149.154 Y148.371 E83.06072
G1 X148.864 Y148.047 E83.07518
G1 X148.527 Y147.774 E83.08961
G1 X148.151 Y147.557 E83.10405
G1 X147.744 Y147.404 E83.11851
G1 X147.316 Y147.319 E83.13302
G1 X146.883 Y147.303 E83.14743
G1 X146.453 Y147.357 E83.16185
G1 X146.034 Y147.478 E83.17635
M204 S5000
M205 X30 Y30
G0 F3600 X145.854 Y147.564
G0 X145.639 Y147.113
G0 X145.751 Y146.737
M204 S500
M205 X20 Y20
;TYPE:SKIN
G1 F1800 X145.244 Y146.981 E83.19507
G1 X144.785 Y147.301 E83.21368
G1 X144.379 Y147.691 E83.2324
G1 X144.042 Y148.143 E83.25115
G1 X143.782 Y148.641 E83.26984
G1 X143.607 Y149.174 E83.2885
G1 X143.518 Y149.729 E83.30719
G1 X143.519 Y150.291 E83.32589
G1 X143.611 Y150.848 E83.34466
G1 X143.793 Y151.379 E83.36333
G1 X144.054 Y151.875 E83.38197
G1 X144.392 Y152.323 E83.40064
G1 X144.8 Y152.713 E83.41941
G1 X145.262 Y153.029 E83.43803
G1 X145.77 Y153.27 E83.45673
G1 X146.313 Y153.424 E83.4755
G1 X146.871 Y153.492 E83.4942
G1 X147.432 Y153.465 E83.51288
G1 X147.98 Y153.352 E83.53149
G1 X148.508 Y153.151 E83.55028
G1 X148.995 Y152.867 E83.56903
G1 X149.426 Y152.511 E83.58762
G1 X149.799 Y152.091 E83.60631
G1 X149.999 Y151.771 E83.61886
G1 X150.054 Y151.875 E83.62277
G1 X150.392 Y152.323 E83.64144
G1 X150.8 Y152.713 E83.66021
G1 X151.262 Y153.029 E83.67883
G1 X151.77 Y153.27 E83.69753
G1 X152.313 Y153.424 E83.7163
G1 X152.871 Y153.492 E83.735
G1 X153.432 Y153.465 E83.75368
G1 X153.98 Y153.352 E83.77229
G1 X154.508 Y153.151 E83.79108
G1 X154.995 Y152.867 E83.80983
G1 X155.426 Y152.511 E83.82842
G1 X155.799 Y152.091 E83.8471
G1 X156.098 Y151.614 E83.86583
G1 X156.316 Y151.097 E83.88449
G1 X156.449 Y150.549 E83.90325
G1 X156.493 Y149.988 E83.92196
G1 X156.446 Y149.429 E83.94062
G1 X156.309 Y148.884 E83.95931
G1 X156.089 Y148.368 E83.97797
G1 X155.786 Y147.893 E83.99671
G1 X155.41 Y147.473 E84.01546
G1 X154.976 Y147.121 E84.03404
G1 X154.489 Y146.841 E84.05273
G1 X153.961 Y146.642 E84.07149
G1 X153.408 Y146.532 E84.09025
G1 X152.847 Y146.512 E84.10892
G1 X152.294 Y146.581 E84.12745
G1 X151.751 Y146.737 E84.14624
G1 X151.244 Y146.981 E84.16496
G1 X150.785 Y147.301 E84.18357
G1 X150.379 Y147.691 E84.20229
G1 X150.042 Y148.143 E84.22104
G1 X149.999 Y148.226 E84.22415
G1 X149.786 Y147.893 E84.2373
G1 X149.41 Y147.473 E84.25605
G1 X148.976 Y147.121 E84.27464
G1 X148.489 Y146.841 E84.29332
G1 X147.961 Y146.642 E84.31209
G1 X147.408 Y146.532 E84.33084
G1 X146.847 Y146.512 E84.34951
G1 X146.294 Y146.581 E84.36805
G1 X145.751 Y146.737 E84.38684
M204 S5000
M205 X30 Y30
G0 F3600 X112.613 Y182.279
M204 S500
