;FLAVOR:Marlin
;TIME:30153
;Filament used: 16.9395m
;Layer height: 0.1
;Generated with Cura_SteamEngine 3.3.1
M190 S60
M104 S220
M109 S220
M82 ;absolute extrusion mode
G28 ;Home
G1 Z15.0 F6000 ;Move the platform down 15mm
;Prime the extruder
G92 E0
G1 F200 E3
G92 E0
G92 E0
G1 F2400 E-5
;LAYER_COUNT:80
;LAYER:0
M107
M204 S5000
M205 X30 Y30
G0 F3600 X106.896 Y80.467 Z0.2
M204 S500
M205 X20 Y20
;TYPE:SKIRT
G1 F2400 E0
G1 F1800 X107.352 Y79.916 E0.02379
G1 X107.867 Y79.419 E0.04759
G1 X108.434 Y78.983 E0.07138
G1 X109.046 Y78.612 E0.09519
G1 X109.695 Y78.313 E0.11895
G1 X110.374 Y78.088 E0.14274
G1 X111.074 Y77.939 E0.16655
G1 X112.047 Y77.865 E0.199
G1 X187.952 Y77.865 E2.72361
G1 X188.666 Y77.905 E2.7474
G1 X189.371 Y78.024 E2.77118
G1 X190.059 Y78.222 E2.79499
G1 X190.72 Y78.495 E2.81878
G1 X191.347 Y78.839 E2.84256
G1 X191.931 Y79.252 E2.86635
G1 X192.465 Y79.727 E2.89012
G1 X192.944 Y80.259 E2.91393
G1 X193.495 Y81.065 E2.94641
G1 X231.447 Y146.799 E5.47096
G1 X231.769 Y147.437 E5.49473
G1 X232.018 Y148.108 E5.51854
G1 X232.191 Y148.802 E5.54232
G1 X232.285 Y149.511 E5.56611
G1 X232.3 Y150.226 E5.5899
G1 X232.235 Y150.938 E5.61368
G1 X232.09 Y151.639 E5.63749
G1 X231.869 Y152.319 E5.66127
G1 X231.447 Y153.199 E5.69373
G1 X193.495 Y218.935 E8.21834
G1 X193.103 Y219.533 E8.24212
G1 X192.647 Y220.084 E8.26591
G1 X192.132 Y220.581 E8.28972
G1 X191.565 Y221.017 E8.3135
G1 X190.953 Y221.388 E8.33731
G1 X190.304 Y221.687 E8.36107
G1 X189.625 Y221.912 E8.38487
G1 X188.925 Y222.061 E8.40867
G1 X187.952 Y222.135 E8.44112
G1 X112.048 Y222.135 E10.9657
G1 X111.334 Y222.095 E10.98949
G1 X110.629 Y221.976 E11.01327
G1 X109.941 Y221.778 E11.03708
G1 X109.28 Y221.505 E11.06087
G1 X108.653 Y221.161 E11.08465
G1 X108.069 Y220.748 E11.10844
G1 X107.535 Y220.273 E11.13221
G1 X107.056 Y219.741 E11.15602
G1 X106.505 Y218.935 E11.1885
G1 X68.553 Y153.201 E13.71305
G1 X68.231 Y152.563 E13.73682
G1 X67.982 Y151.892 E13.76062
G1 X67.809 Y151.198 E13.78441
G1 X67.715 Y150.489 E13.8082
G1 X67.7 Y149.774 E13.83199
G1 X67.765 Y149.062 E13.85577
G1 X67.91 Y148.361 E13.87958
G1 X68.131 Y147.681 E13.90336
G1 X68.553 Y146.801 E13.93582
G1 X106.504 Y81.065 E16.46041
G1 X106.896 Y80.467 E16.48419
M204 S5000
M205 X30 Y30
G0 F3600 X107.231 Y80.686
M204 S500
M205 X20 Y20
G1 F1800 X107.676 Y80.155 E16.50724
G1 X108.178 Y79.679 E16.53025
G1 X108.732 Y79.264 E16.55327
G1 X109.331 Y78.915 E16.57633
G1 X109.965 Y78.638 E16.59934
G1 X110.628 Y78.435 E16.6224
G1 X111.309 Y78.311 E16.64542
G1 X112.047 Y78.265 E16.67002
G1 X187.952 Y78.265 E19.19463
G1 X188.643 Y78.305 E19.21765
G1 X189.326 Y78.424 E19.24071
G1 X189.989 Y78.622 E19.26372
G1 X190.626 Y78.894 E19.28676
G1 X191.227 Y79.238 E19.30979
G1 X191.785 Y79.649 E19.33284
G1 X192.291 Y80.121 E19.35586
G1 X192.74 Y80.649 E19.37891
G1 X193.148 Y81.265 E19.40348
G1 X231.1 Y146.999 E21.92804
G1 X231.411 Y147.618 E21.95108
G1 X231.649 Y148.268 E21.9741
G1 X231.81 Y148.942 E21.99715
G1 X231.893 Y149.629 E22.02017
G1 X231.895 Y150.322 E22.04321
G1 X231.818 Y151.01 E22.06624
G1 X231.662 Y151.685 E22.08928
G1 X231.43 Y152.337 E22.1123
G1 X231.1 Y152.999 E22.1369
G1 X193.148 Y218.735 E24.66151
G1 X192.768 Y219.314 E24.68455
G1 X192.323 Y219.845 E24.70759
G1 X191.821 Y220.321 E24.7306
G1 X191.267 Y220.736 E24.75362
G1 X190.668 Y221.085 E24.77668
G1 X190.034 Y221.362 E24.79969
G1 X189.371 Y221.565 E24.82276
G1 X188.69 Y221.689 E24.84578
G1 X187.952 Y221.735 E24.87037
G1 X112.048 Y221.735 E27.39495
G1 X111.357 Y221.695 E27.41797
G1 X110.674 Y221.576 E27.44103
G1 X110.011 Y221.378 E27.46404
G1 X109.374 Y221.106 E27.48708
G1 X108.773 Y220.762 E27.51011
G1 X108.215 Y220.351 E27.53316
G1 X107.709 Y219.879 E27.55618
G1 X107.26 Y219.351 E27.57923
G1 X106.852 Y218.735 E27.6038
G1 X68.9 Y153.001 E30.12836
G1 X68.589 Y152.382 E30.1514
G1 X68.351 Y151.732 E30.17442
G1 X68.19 Y151.058 E30.19747
G1 X68.107 Y150.371 E30.22049
G1 X68.105 Y149.678 E30.24354
G1 X68.182 Y148.99 E30.26656
G1 X68.338 Y148.315 E30.2896
G1 X68.57 Y147.663 E30.31262
G1 X68.9 Y147.001 E30.33722
G1 X106.851 Y81.265 E32.86182
G1 X107.231 Y80.686 E32.88485
M204 S5000
M205 X30 Y30
G0 F3600 X107.566 Y80.907
M204 S500
M205 X20 Y20
G1 F1800 X107.998 Y80.396 E32.90711
G1 X108.488 Y79.941 E32.92935
G1 X109.03 Y79.547 E32.95164
G1 X109.614 Y79.221 E32.97388
G1 X110.233 Y78.967 E32.99614
G1 X110.877 Y78.789 E33.01836
G1 X111.539 Y78.688 E33.04063
G1 X112.047 Y78.665 E33.05754
G1 X187.952 Y78.665 E35.58216
G1 X188.62 Y78.705 E35.60441
G1 X189.278 Y78.824 E35.62665
G1 X189.918 Y79.021 E35.64893
G1 X190.529 Y79.293 E35.67117
G1 X191.103 Y79.636 E35.69341
G1 X191.633 Y80.045 E35.71568
G1 X192.11 Y80.514 E35.73793
G1 X192.528 Y81.036 E35.76017
G1 X192.802 Y81.465 E35.7771
G1 X230.754 Y147.199 E38.30165
G1 X231.053 Y147.797 E38.32389
G1 X231.279 Y148.427 E38.34615
G1 X231.428 Y149.079 E38.3684
G1 X231.498 Y149.745 E38.39067
G1 X231.489 Y150.414 E38.41292
G1 X231.399 Y151.077 E38.43518
G1 X231.232 Y151.724 E38.4574
G1 X230.988 Y152.347 E38.47965
G1 X230.754 Y152.799 E38.49658
G1 X192.802 Y218.535 E41.0212
G1 X192.433 Y219.093 E41.04345
G1 X192.001 Y219.604 E41.0657
G1 X191.51 Y220.059 E41.08797
G1 X190.969 Y220.453 E41.11023
G1 X190.385 Y220.779 E41.13247
G1 X189.766 Y221.033 E41.15472
G1 X189.122 Y221.211 E41.17695
G1 X188.46 Y221.312 E41.19922
G1 X187.952 Y221.335 E41.21613
G1 X112.048 Y221.335 E43.74071
G1 X111.38 Y221.295 E43.76297
G1 X110.722 Y221.176 E43.78521
G1 X110.082 Y220.979 E43.80748
G1 X109.471 Y220.707 E43.82973
G1 X108.897 Y220.364 E43.85197
G1 X108.367 Y219.955 E43.87423
G1 X107.89 Y219.486 E43.89648
G1 X107.472 Y218.964 E43.91872
G1 X107.198 Y218.535 E43.93565
G1 X69.246 Y152.801 E46.46021
G1 X68.947 Y152.203 E46.48245
G1 X68.721 Y151.573 E46.50471
G1 X68.572 Y150.921 E46.52695
G1 X68.502 Y150.255 E46.54923
G1 X68.511 Y149.586 E46.57148
G1 X68.601 Y148.923 E46.59373
G1 X68.768 Y148.276 E46.61596
G1 X69.012 Y147.653 E46.63821
G1 X69.246 Y147.201 E46.65514
G1 X107.197 Y81.465 E49.17973
G1 X107.566 Y80.907 E49.20198
M204 S5000
M205 X30 Y30
G0 F3600 X107.9 Y81.128
M204 S500
M205 X20 Y20
G1 F1800 X108.32 Y80.639 E49.22342
G1 X108.797 Y80.205 E49.24487
G1 X109.325 Y79.835 E49.26632
G1 X109.894 Y79.532 E49.28776
G1 X110.496 Y79.302 E49.30919
G1 X111.122 Y79.148 E49.33063
G1 X112.047 Y79.065 E49.36152
G1 X187.952 Y79.065 E51.88613
G1 X188.595 Y79.105 E51.90756
G1 X189.229 Y79.224 E51.92902
G1 X189.843 Y79.421 E51.95046
G1 X190.428 Y79.692 E51.97191
G1 X190.975 Y80.034 E51.99336
G1 X191.475 Y80.44 E52.01479
G1 X191.921 Y80.905 E52.03622
G1 X192.455 Y81.665 E52.06711
G1 X230.407 Y147.399 E54.59166
G1 X230.694 Y147.976 E54.6131
G1 X230.908 Y148.584 E54.63454
G1 X231.044 Y149.215 E54.65601
G1 X231.102 Y149.857 E54.67745
G1 X231.08 Y150.501 E54.69888
G1 X230.978 Y151.137 E54.7203
G1 X230.798 Y151.757 E54.74177
G1 X230.407 Y152.599 E54.77265
G1 X192.455 Y218.335 E57.29726
G1 X192.099 Y218.872 E57.31869
G1 X191.679 Y219.361 E57.34013
G1 X191.202 Y219.795 E57.36158
G1 X190.674 Y220.165 E57.38303
G1 X190.105 Y220.468 E57.40447
G1 X189.503 Y220.698 E57.4259
G1 X188.877 Y220.852 E57.44734
G1 X187.952 Y220.935 E57.47823
G1 X112.048 Y220.935 E60.00281
G1 X111.405 Y220.895 E60.02424
G1 X110.771 Y220.776 E60.04569
G1 X110.157 Y220.579 E60.06714
G1 X109.572 Y220.308 E60.08858
G1 X109.025 Y219.966 E60.11004
G1 X108.525 Y219.56 E60.13146
G1 X108.079 Y219.095 E60.15289
G1 X107.545 Y218.335 E60.18378
G1 X69.593 Y152.601 E62.70834
G1 X69.306 Y152.024 E62.72977
G1 X69.092 Y151.416 E62.75121
G1 X68.956 Y150.785 E62.77268
G1 X68.898 Y150.143 E62.79412
G1 X68.92 Y149.499 E62.81555
G1 X69.022 Y148.863 E62.83698
G1 X69.202 Y148.243 E62.85845
G1 X69.593 Y147.401 E62.88933
G1 X107.544 Y81.665 E65.41392
G1 X107.9 Y81.128 E65.43535
M204 S5000
M205 X30 Y30
G1 F2400 E60.43535
G0 F3600 X111.288 Y84.231
G0 X112.398 Y84.872
G0 X149.988 Y148.915
G0 X150.082 Y148.949
M204 S500
M205 X20 Y20
;TYPE:WALL-INNER
G1 F2400 E65.43535
G1 F1800 X150.076 Y148.973 E65.43617
G1 X150 Y149.257 E65.44595
G1 X149.928 Y148.99
G1 X149.911 Y148.93
G1 X149.808 Y148.71 E65.45403
G1 X149.681 Y148.44 E65.46396
G1 X149.369 Y147.998 E65.48195
G1 X148.986 Y147.617 E65.49992
G1 X148.543 Y147.31 E65.51784
G1 X148.051 Y147.082 E65.53588
G1 X147.529 Y146.943 E65.55385
G1 X146.99 Y146.899 E65.57183
G1 X146.452 Y146.947 E65.5898
G1 X145.93 Y147.089 E65.60779
G1 X145.44 Y147.319 E65.6258
G1 X144.998 Y147.631 E65.64379
G1 X144.617 Y148.014 E65.66176
G1 X144.31 Y148.457 E65.67968
G1 X144.082 Y148.949 E65.69772
G1 X143.943 Y149.471 E65.71569
G1 X143.899 Y150.01 E65.73367
G1 X143.947 Y150.548 E65.75164
G1 X144.089 Y151.07 E65.76963
G1 X144.319 Y151.56 E65.78764
G1 X144.631 Y152.002 E65.80563
G1 X145.014 Y152.383 E65.8236
G1 X145.457 Y152.69 E65.84152
G1 X145.949 Y152.918 E65.85956
G1 X146.471 Y153.057 E65.87753
G1 X147.01 Y153.101 E65.89551
G1 X147.548 Y153.053 E65.91348
G1 X148.07 Y152.911 E65.93147
G1 X148.56 Y152.681 E65.94947
G1 X149.002 Y152.369 E65.96747
G1 X149.383 Y151.986 E65.98544
G1 X149.69 Y151.543 E66.00336
G1 X149.816 Y151.272 E66.0133
G1 X149.918 Y151.051 E66.0214
G1 X149.924 Y151.027 E66.02222
G1 X150 Y150.743 E66.032
G1 X150.072 Y151.01
G1 X150.089 Y151.07
G1 X150.192 Y151.29 E66.03798
G1 X150.319 Y151.56 E66.04791
G1 X150.631 Y152.002 E66.0659
G1 X151.014 Y152.383 E66.08387
G1 X151.457 Y152.69 E66.1018
G1 X151.949 Y152.918 E66.11983
G1 X152.471 Y153.057 E66.1378
G1 X153.01 Y153.101 E66.15578
G1 X153.548 Y153.053 E66.17375
G1 X154.07 Y152.911 E66.19174
G1 X154.56 Y152.681 E66.20975
G1 X155.002 Y152.369 E66.22774
G1 X155.383 Y151.986 E66.24571
G1 X155.69 Y151.543 E66.26364
G1 X155.918 Y151.051 E66.28167
G1 X156.057 Y150.529 E66.29964
G1 X156.101 Y149.99 E66.31762
G1 X156.053 Y149.452 E66.33559
G1 X155.911 Y148.93 E66.35358
G1 X155.681 Y148.44 E66.37159
G1 X155.369 Y147.998 E66.38958
G1 X154.986 Y147.617 E66.40755
G1 X154.543 Y147.31 E66.42548
G1 X154.051 Y147.082 E66.44351
G1 X153.529 Y146.943 E66.46148
G1 X152.99 Y146.899 E66.47946
G1 X152.452 Y146.947 E66.49743
G1 X151.93 Y147.089 E66.51542
G1 X151.44 Y147.319 E66.53343
G1 X150.998 Y147.631 E66.55142
G1 X150.617 Y148.014 E66.56939
G1 X150.31 Y148.457 E66.58732
G1 X150.184 Y148.728 E66.59726
G1 X150.082 Y148.949 E66.6014
M204 S5000
M205 X30 Y30
G0 F3600 X149.988 Y148.915
G0 X150.587 Y147.989
G0 X150.973 Y147.601
G0 X151.42 Y147.285
G0 X151.917 Y147.052
G0 X152.445 Y146.908
G0 X152.753 Y146.881
G0 X225.124 Y150
G0 X225.224 Y150
M204 S500
M205 X20 Y20
G1 F1800 X187.612 Y215.145 E69.10334
G1 X112.388 Y215.145 E71.6053
G1 X74.776 Y150 E74.10723
G1 X112.388 Y84.855 E76.60917
G1 X187.612 Y84.855 E79.11113
G1 X225.224 Y150 E81.61306
M204 S5000
M205 X30 Y30
G0 F3600 X225.685 Y150
M204 S500
M205 X20 Y20
;TYPE:WALL-OUTER
G1 F1800 X187.843 Y215.545 E84.13034
G1 X112.157 Y215.545 E86.64767
G1 X74.315 Y150 E89.16495
G1 X112.157 Y84.455 E91.68223
G1 X187.843 Y84.455 E94.19956
G1 X225.685 Y150 E96.71684
M204 S5000
M205 X30 Y30
G0 F3600 X225.585 Y150.173
G0 X225.124 Y150
G0 X152.393 Y146.86
G0 X152.523 Y147.342
M204 S500
M205 X20 Y20
G1 F1800 X152.069 Y147.466 E96.73249
G1 X151.642 Y147.666 E96.74817
G1 X151.257 Y147.938 E96.76385
G1 X150.926 Y148.271 E96.77947
G1 X150.658 Y148.657 E96.7951
G1 X150.46 Y149.085 E96.81078
G1 X150.339 Y149.54 E96.82644
G1 X150.3 Y150.009 E96.8421
G1 X150.342 Y150.477 E96.85772
G1 X150.466 Y150.931 E96.87338
G1 X150.666 Y151.358 E96.88906
G1 X150.938 Y151.743 E96.90474
G1 X151.271 Y152.074 E96.92035
G1 X151.657 Y152.342 E96.93598
G1 X152.085 Y152.54 E96.95167
G1 X152.54 Y152.661 E96.96733
G1 X153.009 Y152.7 E96.98298
G1 X153.477 Y152.658 E96.99861
G1 X153.931 Y152.534 E97.01426
G1 X154.358 Y152.334 E97.02995
G1 X154.743 Y152.062 E97.04562
G1 X155.074 Y151.729 E97.06124
G1 X155.342 Y151.343 E97.07687
G1 X155.54 Y150.915 E97.09255
G1 X155.661 Y150.46 E97.10821
G1 X155.7 Y149.991 E97.12387
G1 X155.658 Y149.523 E97.13949
G1 X155.534 Y149.069 E97.15515
G1 X155.334 Y148.642 E97.17083
G1 X155.062 Y148.257 E97.18651
G1 X154.729 Y147.926 E97.20213
G1 X154.343 Y147.658 E97.21776
G1 X153.915 Y147.46 E97.23344
G1 X153.46 Y147.339 E97.2491
G1 X152.991 Y147.3 E97.26475
G1 X152.523 Y147.342 E97.28038
M204 S5000
M205 X30 Y30
G0 F3600 X152.33 Y147.394
G0 X152.199 Y146.912
G0 X146.393 Y146.86
G0 X146.523 Y147.342
M204 S500
M205 X20 Y20
G1 F1800 X146.069 Y147.466 E97.29603
G1 X145.642 Y147.666 E97.31172
G1 X145.257 Y147.938 E97.32739
G1 X144.926 Y148.271 E97.34301
G1 X144.658 Y148.657 E97.35864
G1 X144.46 Y149.085 E97.37433
G1 X144.339 Y149.54 E97.38998
G1 X144.3 Y150.009 E97.40564
G1 X144.342 Y150.477 E97.42127
G1 X144.466 Y150.931 E97.43692
G1 X144.666 Y151.358 E97.4526
G1 X144.938 Y151.743 E97.46828
G1 X145.271 Y152.074 E97.4839
G1 X145.657 Y152.342 E97.49953
G1 X146.085 Y152.54 E97.51521
G1 X146.54 Y152.661 E97.53087
G1 X147.009 Y152.7 E97.54652
G1 X147.477 Y152.658 E97.56215
G1 X147.931 Y152.534 E97.5778
G1 X148.358 Y152.334 E97.59349
G1 X148.743 Y152.062 E97.60917
G1 X149.074 Y151.729 E97.62478
G1 X149.342 Y151.343 E97.64041
G1 X149.54 Y150.915 E97.6561
G1 X149.661 Y150.46 E97.67176
G1 X149.7 Y149.991 E97.68741
G1 X149.658 Y149.523 E97.70304
G1 X149.534 Y149.069 E97.71869
G1 X149.334 Y148.642 E97.73437
G1 X149.062 Y148.257 E97.75005
G1 X148.729 Y147.926 E97.76567
G1 X148.343 Y147.658 E97.7813
G1 X147.915 Y147.46 E97.79698
G1 X147.46 Y147.339 E97.81264
G1 X146.991 Y147.3 E97.82829
G1 X146.523 Y147.342 E97.84392
M204 S5000
M205 X30 Y30
G0 F3600 X146.33 Y147.394
G0 X146.199 Y146.912
G0 X146.383 Y146.561
M204 S500
M205 X20 Y20
;TYPE:SKIN
G1 F1800 X145.795 Y146.722 E97.8642
G1 X145.243 Y146.98 E97.88447
G1 X144.745 Y147.332 E97.90475
G1 X144.316 Y147.764 E97.925
G1 X143.971 Y148.262 E97.94515
G1 X143.714 Y148.816 E97.96546
G1 X143.557 Y149.405 E97.98573
G1 X143.507 Y150.012 E98.00599
G1 X143.561 Y150.617 E98.02619
G1 X143.722 Y151.205 E98.04647
G1 X143.98 Y151.757 E98.06674
G1 X144.332 Y152.255 E98.08702
G1 X144.764 Y152.684 E98.10727
G1 X145.262 Y153.029 E98.12742
G1 X145.816 Y153.286 E98.14773
G1 X146.405 Y153.443 E98.16801
G1 X147.012 Y153.493 E98.18826
G1 X147.617 Y153.439 E98.20847
G1 X148.205 Y153.278 E98.22874
G1 X148.757 Y153.02 E98.24901
G1 X149.255 Y152.668 E98.26929
G1 X149.684 Y152.236 E98.28954
G1 X149.998 Y151.783 E98.30787
G1 X150.332 Y152.255 E98.32711
G1 X150.764 Y152.684 E98.34736
G1 X151.262 Y153.029 E98.36751
G1 X151.816 Y153.286 E98.38782
G1 X152.405 Y153.443 E98.40809
G1 X153.012 Y153.493 E98.42835
G1 X153.617 Y153.439 E98.44855
G1 X154.205 Y153.278 E98.46883
G1 X154.757 Y153.02 E98.48909
G1 X155.255 Y152.668 E98.50938
G1 X155.684 Y152.236 E98.52963
G1 X156.029 Y151.738 E98.54978
G1 X156.286 Y151.184 E98.57009
G1 X156.443 Y150.595 E98.59036
G1 X156.493 Y149.988 E98.61062
G1 X156.439 Y149.383 E98.63082
G1 X156.278 Y148.795 E98.6511
G1 X156.02 Y148.243 E98.67137
G1 X155.668 Y147.745 E98.69165
G1 X155.236 Y147.316 E98.7119
G1 X154.738 Y146.971 E98.73205
G1 X154.184 Y146.714 E98.75236
G1 X153.595 Y146.557 E98.77264
G1 X152.988 Y146.507 E98.79289
G1 X152.383 Y146.561 E98.8131
G1 X151.795 Y146.722 E98.83337
G1 X151.243 Y146.98 E98.85364
G1 X150.745 Y147.332 E98.87392
G1 X150.316 Y147.764 E98.89417
G1 X150.002 Y148.217 E98.9125
G1 X149.668 Y147.745 E98.93174
G1 X149.236 Y147.316 E98.95199
G1 X148.738 Y146.971 E98.97214
G1 X148.184 Y146.714 E98.99245
G1 X147.595 Y146.557 E99.01272
G1 X146.988 Y146.507 E99.03298
G1 X146.383 Y146.561 E99.05318
M204 S5000
M205 X30 Y30
G0 F3600 X112.613 Y85.245
M204 S500
M205 X20 Y20
G1 F1800 X187.387 Y85.245 E101.54017
G1 X224.773 Y150 E104.02712
G1 X187.387 Y214.755 E106.51406
G1 X112.613 Y214.755 E109.00105
G1 X75.227 Y150 E111.488
G1 X112.613 Y85.245 E113.97494
M204 S5000
M205 X30 Y30
G0 F3600 X168.795 Y117.788
M204 S500
M205 X20 Y20
G1 F1800 X168.483 Y117.645 E113.98635
G1 X168.712 Y117.645 E113.99397
G1 X168.795 Y117.788 E113.99947
M204 S5000
M205 X30 Y30
G0 F3600 X168.943 Y117.245
M204 S500
M205 X20 Y20
G1 F1800 X169.769 Y118.676 E114.05442
G1 X166.652 Y117.245 E114.1685
G1 X168.943 Y117.245 E114.2447
M204 S5000
M205 X30 Y30
G0 F3600 X169.173 Y116.845
M204 S500
M205 X20 Y20
