;FLAVOR:Marlin
;TIME:20434
;Filament used: 11.3368m
;Layer height: 0.1
;Generated with Cura_SteamEngine 3.3.1
M190 S60
M104 S220
M109 S220
M82 ;absolute extrusion mode
G28 ;Home
G1 Z15.0 F6000 ;Move the platform down 15mm
;Prime the extruder
G92 E0
G1 F200 E3
G92 E0
G92 E0
G1 F2400 E-5
;LAYER_COUNT:80
;LAYER:0
M107
M204 S5000
M205 X30 Y30
G0 F3600 X53.336 Y9.576 Z0.2
M204 S500
M205 X20 Y20
;TYPE:SKIRT
G1 F2400 E0
G1 F1800 X53.595 Y8.909 E0.0238
G1 X53.926 Y8.275 E0.04759
G1 X54.326 Y7.682 E0.07138
G1 X54.79 Y7.138 E0.09516
G1 X55.311 Y6.648 E0.11895
G1 X55.884 Y6.22 E0.14273
G1 X56.501 Y5.859 E0.16651
G1 X57.155 Y5.568 E0.19032
G1 X57.837 Y5.353 E0.2141
G1 X58.539 Y5.214 E0.2379
G1 X59.422 Y5.153 E0.26734
G1 X135.552 Y5.143 E2.79944
G1 X136.266 Y5.183 E2.82322
G1 X136.972 Y5.302 E2.84703
G1 X137.659 Y5.499 E2.87081
G1 X138.32 Y5.772 E2.89459
G1 X138.947 Y6.117 E2.91839
G1 X139.531 Y6.53 E2.94218
G1 X140.066 Y7.005 E2.96598
G1 X140.544 Y7.537 E2.98977
G1 X140.96 Y8.119 E3.01356
G1 X141.308 Y8.743 E3.03733
G1 X141.639 Y9.564 E3.06677
G1 X165.176 Y81.966 E5.59892
G1 X165.359 Y82.658 E5.62273
G1 X165.464 Y83.365 E5.6465
G1 X165.489 Y84.08 E5.67029
G1 X165.434 Y84.793 E5.69408
G1 X165.299 Y85.496 E5.71789
G1 X165.087 Y86.179 E5.74167
G1 X164.801 Y86.834 E5.76545
G1 X164.443 Y87.454 E5.78926
G1 X164.018 Y88.029 E5.81304
G1 X163.531 Y88.553 E5.83683
G1 X162.852 Y89.122 E5.8663
G1 X101.267 Y133.878 E8.3984
G1 X100.666 Y134.266 E8.42219
G1 X100.026 Y134.584 E8.44596
G1 X99.353 Y134.828 E8.46977
G1 X98.658 Y134.996 E8.49355
G1 X97.949 Y135.086 E8.51732
G1 X97.233 Y135.095 E8.54114
G1 X96.522 Y135.025 E8.5649
G1 X95.822 Y134.876 E8.58871
G1 X95.143 Y134.649 E8.61252
G1 X94.494 Y134.349 E8.6363
G1 X93.744 Y133.879 E8.66574
G1 X32.146 Y89.14 E11.19786
G1 X31.592 Y88.688 E11.22164
G1 X31.091 Y88.177 E11.24544
G1 X30.651 Y87.614 E11.2692
G1 X30.276 Y87.004 E11.29302
G1 X29.972 Y86.357 E11.3168
G1 X29.742 Y85.68 E11.34058
G1 X29.589 Y84.981 E11.36438
G1 X29.514 Y84.27 E11.38816
G1 X29.52 Y83.554 E11.41197
G1 X29.605 Y82.844 E11.43575
G1 X29.82 Y81.985 E11.46521
G1 X53.336 Y9.576 E13.99736
M204 S5000
M205 X30 Y30
G0 F3600 X53.716 Y9.7
M204 S500
M205 X20 Y20
G1 F1800 X53.968 Y9.054 E14.02043
G1 X54.292 Y8.443 E14.04343
G1 X54.685 Y7.872 E14.06648
G1 X55.141 Y7.351 E14.08951
G1 X55.653 Y6.885 E14.11254
G1 X56.216 Y6.482 E14.13557
G1 X56.822 Y6.146 E14.15861
G1 X57.462 Y5.882 E14.18164
G1 X58.129 Y5.694 E14.20469
G1 X58.813 Y5.584 E14.22773
G1 X59.422 Y5.553 E14.24801
G1 X135.552 Y5.543 E16.78011
G1 X136.244 Y5.583 E16.80316
G1 X136.926 Y5.702 E16.82619
G1 X137.59 Y5.899 E16.84922
G1 X138.226 Y6.172 E16.87224
G1 X138.828 Y6.515 E16.89529
G1 X139.385 Y6.926 E16.91831
G1 X139.892 Y7.399 E16.94137
G1 X140.34 Y7.926 E16.96438
G1 X140.725 Y8.502 E16.98742
G1 X141.041 Y9.118 E17.01045
G1 X141.259 Y9.688 E17.03075
G1 X164.796 Y82.09 E19.5629
G1 X164.972 Y82.76 E19.58594
G1 X165.069 Y83.446 E19.60898
G1 X165.087 Y84.138 E19.63201
G1 X165.025 Y84.828 E19.65505
G1 X164.884 Y85.506 E19.67808
G1 X164.665 Y86.163 E19.70111
G1 X164.372 Y86.79 E19.72413
G1 X164.009 Y87.38 E19.74717
G1 X163.581 Y87.924 E19.7702
G1 X163.092 Y88.415 E19.79324
G1 X162.617 Y88.799 E19.81356
G1 X101.032 Y133.555 E22.34566
G1 X100.45 Y133.929 E22.36867
G1 X99.828 Y134.233 E22.3917
G1 X99.175 Y134.464 E22.41474
G1 X98.499 Y134.618 E22.4378
G1 X97.811 Y134.693 E22.46081
G1 X97.118 Y134.689 E22.48386
G1 X96.431 Y134.604 E22.50689
G1 X95.758 Y134.441 E22.52992
G1 X95.108 Y134.201 E22.55296
G1 X94.49 Y133.889 E22.57599
G1 X93.979 Y133.556 E22.59628
G1 X32.381 Y88.817 E25.1284
G1 X31.845 Y88.378 E25.15144
G1 X31.363 Y87.881 E25.17447
G1 X30.942 Y87.331 E25.1975
G1 X30.587 Y86.736 E25.22055
G1 X30.303 Y86.105 E25.24356
G1 X30.093 Y85.445 E25.2666
G1 X29.961 Y84.765 E25.28964
G1 X29.908 Y84.074 E25.31269
G1 X29.935 Y83.382 E25.33572
G1 X30.042 Y82.698 E25.35875
G1 X30.2 Y82.109 E25.37903
G1 X53.716 Y9.7 E27.91119
M204 S5000
M205 X30 Y30
G0 F3600 X54.097 Y9.823
M204 S500
M205 X20 Y20
G1 F1800 X54.341 Y9.2 E27.93344
G1 X54.658 Y8.611 E27.95569
G1 X55.043 Y8.064 E27.97794
G1 X55.49 Y7.566 E28.00019
G1 X55.994 Y7.126 E28.02245
G1 X56.546 Y6.748 E28.0447
G1 X57.14 Y6.44 E28.06695
G1 X57.766 Y6.204 E28.0892
G1 X58.415 Y6.044 E28.11144
G1 X59.08 Y5.964 E28.13371
G1 X59.422 Y5.953 E28.14509
G1 X135.552 Y5.943 E30.67719
G1 X136.22 Y5.983 E30.69945
G1 X136.878 Y6.102 E30.72169
G1 X137.518 Y6.299 E30.74396
G1 X138.129 Y6.571 E30.7662
G1 X138.704 Y6.913 E30.78845
G1 X139.233 Y7.322 E30.8107
G1 X139.71 Y7.791 E30.83294
G1 X140.128 Y8.314 E30.85521
G1 X140.481 Y8.883 E30.87748
G1 X140.763 Y9.489 E30.89971
G1 X140.879 Y9.812 E30.91113
G1 X164.416 Y82.214 E33.44328
G1 X164.584 Y82.861 E33.46551
G1 X164.674 Y83.524 E33.48777
G1 X164.685 Y84.193 E33.51002
G1 X164.615 Y84.858 E33.53226
G1 X164.467 Y85.511 E33.55453
G1 X164.242 Y86.141 E33.57678
G1 X163.943 Y86.74 E33.59905
G1 X163.575 Y87.298 E33.62128
G1 X163.143 Y87.809 E33.64354
G1 X162.653 Y88.265 E33.6658
G1 X162.382 Y88.475 E33.6772
G1 X100.797 Y133.231 E36.2093
G1 X100.233 Y133.591 E36.23156
G1 X99.631 Y133.882 E36.2538
G1 X98.998 Y134.098 E36.27604
G1 X98.343 Y134.238 E36.29832
G1 X97.677 Y134.298 E36.32056
G1 X97.008 Y134.279 E36.34282
G1 X96.347 Y134.18 E36.36505
G1 X95.702 Y134.003 E36.3873
G1 X95.082 Y133.75 E36.40957
G1 X94.497 Y133.425 E36.43183
G1 X94.214 Y133.232 E36.44322
G1 X32.616 Y88.493 E38.97534
G1 X32.099 Y88.068 E38.9976
G1 X31.637 Y87.585 E39.01983
G1 X31.235 Y87.05 E39.04209
G1 X30.9 Y86.471 E39.06434
G1 X30.637 Y85.856 E39.08658
G1 X30.449 Y85.214 E39.10883
G1 X30.338 Y84.554 E39.13109
G1 X30.308 Y83.885 E39.15337
G1 X30.357 Y83.218 E39.17561
G1 X30.485 Y82.561 E39.19787
G1 X30.581 Y82.232 E39.20927
G1 X54.097 Y9.823 E41.74143
M204 S5000
M205 X30 Y30
G0 F3600 X54.477 Y9.947
M204 S500
M205 X20 Y20
G1 F1800 X54.714 Y9.347 E41.76289
G1 X55.023 Y8.781 E41.78433
G1 X55.4 Y8.258 E41.80578
G1 X55.839 Y7.786 E41.82722
G1 X56.332 Y7.371 E41.84865
G1 X56.873 Y7.021 E41.87008
G1 X57.454 Y6.74 E41.89155
G1 X58.064 Y6.534 E41.91296
G1 X58.696 Y6.404 E41.93442
G1 X59.422 Y6.353 E41.95863
G1 X135.552 Y6.343 E44.49072
G1 X136.196 Y6.383 E44.51218
G1 X136.829 Y6.502 E44.53361
G1 X137.443 Y6.699 E44.55505
G1 X138.028 Y6.97 E44.5765
G1 X138.575 Y7.311 E44.59794
G1 X139.075 Y7.718 E44.61938
G1 X139.522 Y8.183 E44.64083
G1 X139.907 Y8.7 E44.66227
G1 X140.225 Y9.26 E44.68369
G1 X140.498 Y9.935 E44.70791
G1 X164.035 Y82.337 E47.24006
G1 X164.196 Y82.962 E47.26153
G1 X164.279 Y83.601 E47.28296
G1 X164.281 Y84.246 E47.30441
G1 X164.204 Y84.886 E47.32585
G1 X164.048 Y85.511 E47.34728
G1 X163.817 Y86.113 E47.36872
G1 X163.512 Y86.681 E47.39016
G1 X163.139 Y87.207 E47.41161
G1 X162.705 Y87.683 E47.43304
G1 X162.147 Y88.152 E47.45728
G1 X100.562 Y132.908 E49.98938
G1 X100.018 Y133.253 E50.01081
G1 X99.435 Y133.529 E50.03226
G1 X98.823 Y133.731 E50.0537
G1 X98.191 Y133.856 E50.07512
G1 X97.547 Y133.901 E50.0966
G1 X96.904 Y133.866 E50.11801
G1 X96.269 Y133.752 E50.13947
G1 X95.654 Y133.56 E50.1609
G1 X95.067 Y133.294 E50.18233
G1 X94.449 Y132.908 E50.20657
G1 X32.851 Y88.169 E52.73869
G1 X32.354 Y87.759 E52.76012
G1 X31.912 Y87.29 E52.78155
G1 X31.53 Y86.77 E52.80301
G1 X31.217 Y86.207 E52.82444
G1 X30.975 Y85.609 E52.84589
G1 X30.809 Y84.986 E52.86734
G1 X30.721 Y84.348 E52.88876
G1 X30.713 Y83.703 E52.91021
G1 X30.785 Y83.062 E52.93167
G1 X30.961 Y82.356 E52.95587
G1 X54.477 Y9.947 E55.48802
M204 S5000
M205 X30 Y30
G1 F2400 E50.48802
G0 F3600 X58.649 Y11.753
G0 X59.866 Y12.149
G0 X90.841 Y71.611
G0 X91.47 Y72.414
G0 X91.533 Y72.337
M204 S500
M205 X20 Y20
;TYPE:WALL-INNER
G1 F2400 E55.48802
G1 F1800 X91.946 Y72.62 E55.50468
G1 X92.395 Y72.834 E55.52122
G1 X92.876 Y72.973 E55.53787
G1 X93.371 Y73.032 E55.55445
G1 X93.869 Y73.012 E55.57103
G1 X94.359 Y72.912 E55.58766
G1 X94.825 Y72.736 E55.60423
G1 X95.258 Y72.486 E55.62086
G1 X95.644 Y72.17 E55.63745
G1 X95.975 Y71.797 E55.65404
G1 X96.242 Y71.375 E55.67065
G1 X96.438 Y70.916 E55.68725
G1 X96.557 Y70.431 E55.70386
G1 X96.598 Y69.933 E55.72048
G1 X96.557 Y69.435 E55.7371
G1 X96.438 Y68.95 E55.75371
G1 X96.242 Y68.491 E55.77031
G1 X95.975 Y68.069 E55.78692
G1 X95.644 Y67.695 E55.80353
G1 X95.258 Y67.381 E55.82008
G1 X94.825 Y67.13 E55.83672
G1 X94.359 Y66.954 E55.85329
G1 X93.869 Y66.854 E55.86992
G1 X93.371 Y66.834 E55.8865
G1 X92.876 Y66.894 E55.90309
G1 X92.396 Y67.032 E55.9197
G1 X91.945 Y67.247 E55.93631
G1 X91.533 Y67.53 E55.95294
G1 X91.173 Y67.876 E55.96955
G1 X90.874 Y68.276 E55.98616
G1 X90.642 Y68.716 E56.0027
G1 X90.483 Y69.191 E56.01936
G1 X90.404 Y69.684 E56.03597
G1 X90.404 Y70.182 E56.05253
G1 X90.483 Y70.675 E56.06914
G1 X90.642 Y71.15 E56.0858
G1 X90.874 Y71.59 E56.10234
G1 X91.173 Y71.99 E56.11895
G1 X91.533 Y72.337 E56.13558
M204 S5000
M205 X30 Y30
G0 F3600 X91.47 Y72.414
G0 X92.381 Y72.871
G0 X92.869 Y73.012
G0 X93.37 Y73.071
G0 X99.47 Y72.414
G0 X99.533 Y72.337
M204 S500
M205 X20 Y20
G1 F1800 X99.946 Y72.62 E56.15223
G1 X100.395 Y72.834 E56.16878
G1 X100.876 Y72.973 E56.18543
G1 X101.371 Y73.032 E56.20201
G1 X101.869 Y73.012 E56.21859
G1 X102.359 Y72.912 E56.23522
G1 X102.825 Y72.736 E56.25179
G1 X103.258 Y72.486 E56.26842
G1 X103.644 Y72.17 E56.28501
G1 X103.975 Y71.797 E56.3016
G1 X104.242 Y71.375 E56.31821
G1 X104.438 Y70.916 E56.33481
G1 X104.557 Y70.431 E56.35142
G1 X104.598 Y69.933 E56.36804
G1 X104.557 Y69.435 E56.38465
G1 X104.438 Y68.95 E56.40126
G1 X104.242 Y68.491 E56.41786
G1 X103.975 Y68.069 E56.43447
G1 X103.644 Y67.695 E56.45109
G1 X103.258 Y67.381 E56.46763
G1 X102.825 Y67.13 E56.48428
G1 X102.359 Y66.954 E56.50085
G1 X101.869 Y66.854 E56.51748
G1 X101.371 Y66.834 E56.53406
G1 X100.876 Y66.894 E56.55064
G1 X100.396 Y67.032 E56.56726
G1 X99.945 Y67.247 E56.58387
G1 X99.533 Y67.53 E56.6005
G1 X99.173 Y67.876 E56.6171
G1 X98.874 Y68.276 E56.63371
G1 X98.642 Y68.716 E56.65026
G1 X98.483 Y69.191 E56.66692
G1 X98.404 Y69.684 E56.68353
G1 X98.404 Y70.182 E56.70009
G1 X98.483 Y70.675 E56.7167
G1 X98.642 Y71.15 E56.73336
G1 X98.874 Y71.59 E56.7499
G1 X99.173 Y71.99 E56.76651
G1 X99.533 Y72.337 E56.78314
M204 S5000
M205 X30 Y30
G0 F3600 X99.47 Y72.414
G0 X100.381 Y72.871
G0 X100.519 Y72.91
G0 X158.304 Y83.699
G0 X158.399 Y83.729
M204 S500
M205 X20 Y20
G1 F1800 X97.496 Y127.976 E59.28694
G1 X36.592 Y83.729 E61.79077
G1 X59.855 Y12.133 E64.29461
G1 X135.137 Y12.133 E66.7985
G1 X158.399 Y83.729 E69.30233
M204 S5000
M205 X30 Y30
G0 F3600 X158.869 Y83.882
M204 S500
M205 X20 Y20
;TYPE:WALL-OUTER
G1 F1800 X97.496 Y128.471 E71.82546
G1 X36.122 Y83.882 E74.34862
G1 X59.565 Y11.733 E76.8718
G1 X135.427 Y11.733 E79.39498
G1 X158.869 Y83.882 E81.91815
M204 S5000
M205 X30 Y30
G0 F3600 X158.708 Y83.999
G0 X158.304 Y83.699
G0 X102.37 Y66.916
G0 X101.873 Y66.815
G0 X101.37 Y66.795
G0 X100.869 Y66.855
G0 X100.382 Y66.995
G0 X99.926 Y67.213
G0 X99.508 Y67.499
G0 X99.144 Y67.85
G0 X98.841 Y68.255
G0 X98.606 Y68.701
G0 X98.445 Y69.182
G0 X98.365 Y69.681
G0 X98.365 Y70.185
G0 X98.445 Y70.684
G0 X98.606 Y71.165
G0 X98.738 Y71.417
G0 X99.504 Y72.437
G0 X99.787 Y72.026
M204 S500
M205 X20 Y20
G1 F1800 X100.146 Y72.272 E81.93263
G1 X100.538 Y72.459 E81.94707
G1 X100.956 Y72.58 E81.96155
G1 X101.387 Y72.631 E81.97598
G1 X101.821 Y72.614 E81.99043
G1 X102.247 Y72.527 E82.00489
G1 X102.653 Y72.373 E82.01933
G1 X103.03 Y72.156 E82.0338
G1 X103.366 Y71.881 E82.04824
G1 X103.654 Y71.556 E82.06268
G1 X103.887 Y71.188 E82.07717
G1 X104.057 Y70.789 E82.09159
G1 X104.161 Y70.366 E82.10608
G1 X104.197 Y69.933 E82.12053
G1 X104.161 Y69.5 E82.13498
G1 X104.057 Y69.077 E82.14947
G1 X103.887 Y68.678 E82.1639
G1 X103.654 Y68.31 E82.17838
G1 X103.366 Y67.985 E82.19283
G1 X103.03 Y67.711 E82.20725
G1 X102.653 Y67.493 E82.22173
G1 X102.247 Y67.339 E82.23617
G1 X101.821 Y67.252 E82.25064
G1 X101.387 Y67.235 E82.26508
G1 X100.956 Y67.287 E82.27952
G1 X100.538 Y67.407 E82.29399
G1 X100.146 Y67.594 E82.30843
G1 X99.787 Y67.841 E82.32292
G1 X99.474 Y68.142 E82.33737
G1 X99.213 Y68.49 E82.35184
G1 X99.011 Y68.874 E82.36627
G1 X98.873 Y69.287 E82.38075
G1 X98.804 Y69.716 E82.3952
G1 X98.804 Y70.15 E82.40964
G1 X98.873 Y70.579 E82.42409
G1 X99.011 Y70.992 E82.43857
G1 X99.213 Y71.376 E82.453
G1 X99.474 Y71.724 E82.46747
G1 X99.787 Y72.026 E82.48194
M204 S5000
M205 X30 Y30
G0 F3600 X99.952 Y72.139
G0 X99.67 Y72.551
G0 X96.596 Y69.429
G0 X96.475 Y68.938
G0 X96.277 Y68.473
G0 X96.006 Y68.045
G0 X95.671 Y67.667
G0 X95.28 Y67.349
G0 X94.842 Y67.094
G0 X94.37 Y66.916
G0 X93.873 Y66.815
G0 X93.37 Y66.795
G0 X92.869 Y66.855
G0 X92.382 Y66.995
G0 X91.926 Y67.213
G0 X91.508 Y67.499
G0 X91.144 Y67.85
G0 X90.841 Y68.255
G0 X90.606 Y68.701
G0 X90.445 Y69.182
G0 X90.365 Y69.681
G0 X90.365 Y70.185
G0 X90.445 Y70.684
G0 X90.606 Y71.165
G0 X90.738 Y71.417
G0 X91.504 Y72.437
G0 X91.787 Y72.026
M204 S500
M205 X20 Y20
G1 F1800 X92.146 Y72.272 E82.49641
G1 X92.538 Y72.459 E82.51086
G1 X92.956 Y72.58 E82.52533
G1 X93.387 Y72.631 E82.53977
G1 X93.821 Y72.614 E82.55421
G1 X94.247 Y72.527 E82.56867
G1 X94.653 Y72.373 E82.58312
G1 X95.03 Y72.156 E82.59758
G1 X95.366 Y71.881 E82.61203
G1 X95.654 Y71.556 E82.62647
G1 X95.887 Y71.188 E82.64096
G1 X96.057 Y70.789 E82.65538
G1 X96.161 Y70.366 E82.66987
G1 X96.197 Y69.933 E82.68432
G1 X96.161 Y69.5 E82.69877
G1 X96.057 Y69.077 E82.71326
G1 X95.887 Y68.678 E82.72768
G1 X95.654 Y68.31 E82.74217
G1 X95.366 Y67.985 E82.75661
G1 X95.03 Y67.711 E82.77103
G1 X94.653 Y67.493 E82.78552
G1 X94.247 Y67.339 E82.79996
G1 X93.821 Y67.252 E82.81442
G1 X93.387 Y67.235 E82.82887
G1 X92.956 Y67.287 E82.84331
G1 X92.538 Y67.407 E82.85777
G1 X92.146 Y67.594 E82.87222
G1 X91.787 Y67.841 E82.88671
G1 X91.474 Y68.142 E82.90115
G1 X91.213 Y68.49 E82.91562
G1 X91.011 Y68.874 E82.93005
G1 X90.873 Y69.287 E82.94454
G1 X90.804 Y69.716 E82.95899
G1 X90.804 Y70.15 E82.97342
G1 X90.873 Y70.579 E82.98787
G1 X91.011 Y70.992 E83.00236
G1 X91.213 Y71.376 E83.01679
G1 X91.474 Y71.724 E83.03126
G1 X91.787 Y72.026 E83.04572
M204 S5000
M205 X30 Y30
G0 F3600 X91.952 Y72.139
G0 X91.67 Y72.551
G0 X91.286 Y72.641
M204 S500
M205 X20 Y20
;TYPE:SKIN
G1 F1800 X91.751 Y72.959 E83.06446
G1 X92.256 Y73.2 E83.08307
G1 X92.798 Y73.357 E83.10184
G1 X93.356 Y73.422 E83.12052
G1 X93.916 Y73.4 E83.13916
G1 X94.468 Y73.288 E83.1579
G1 X94.993 Y73.089 E83.17657
G1 X95.48 Y72.808 E83.19527
G1 X95.915 Y72.452 E83.21397
G1 X96.287 Y72.033 E83.2326
G1 X96.589 Y71.557 E83.25135
G1 X96.809 Y71.04 E83.27004
G1 X96.943 Y70.494 E83.28874
G1 X96.99 Y69.933 E83.30746
G1 X96.943 Y69.372 E83.32619
G1 X96.809 Y68.826 E83.34489
G1 X96.589 Y68.309 E83.36357
G1 X96.287 Y67.834 E83.3823
G1 X95.915 Y67.412 E83.40101
G1 X95.48 Y67.059 E83.41964
G1 X94.993 Y66.777 E83.43836
G1 X94.468 Y66.578 E83.45703
G1 X93.916 Y66.466 E83.47576
G1 X93.355 Y66.444 E83.49444
G1 X92.798 Y66.51 E83.51309
G1 X92.257 Y66.666 E83.53182
G1 X91.75 Y66.908 E83.55051
G1 X91.286 Y67.226 E83.56921
G1 X90.88 Y67.617 E83.58796
G1 X90.543 Y68.067 E83.60666
G1 X90.283 Y68.562 E83.62526
G1 X90.103 Y69.097 E83.64403
G1 X90.014 Y69.653 E83.66276
G1 X90.014 Y70.213 E83.68139
G1 X90.103 Y70.769 E83.70011
G1 X90.283 Y71.304 E83.71889
G1 X90.543 Y71.799 E83.73748
G1 X90.88 Y72.249 E83.75618
G1 X91.286 Y72.641 E83.77495
M204 S5000
M205 X30 Y30
G0 F3600 X92.869 Y73.012
G0 X93.37 Y73.071
G0 X93.873 Y73.051
G0 X94.37 Y72.95
G0 X94.751 Y72.806
G0 X98.103 Y70.769
M204 S500
M205 X20 Y20
G1 F1800 X98.283 Y71.304 E83.79373
G1 X98.543 Y71.799 E83.81233
G1 X98.88 Y72.249 E83.83102
G1 X99.286 Y72.641 E83.84979
G1 X99.751 Y72.959 E83.86853
G1 X100.256 Y73.2 E83.88714
G1 X100.798 Y73.357 E83.90591
G1 X101.356 Y73.422 E83.9246
G1 X101.916 Y73.4 E83.94324
G1 X102.468 Y73.288 E83.96197
G1 X102.993 Y73.089 E83.98064
G1 X103.48 Y72.808 E83.99934
G1 X103.915 Y72.452 E84.01804
G1 X104.287 Y72.033 E84.03667
G1 X104.589 Y71.557 E84.05542
G1 X104.809 Y71.04 E84.07411
G1 X104.943 Y70.494 E84.09281
G1 X104.99 Y69.933 E84.11154
G1 X104.943 Y69.372 E84.13026
G1 X104.809 Y68.826 E84.14896
G1 X104.589 Y68.309 E84.16765
G1 X104.287 Y67.834 E84.18637
G1 X103.915 Y67.412 E84.20508
G1 X103.48 Y67.059 E84.22371
