;FLAVOR:Marlin
;TIME:20456
;Filament used: 11.3255m
;Layer height: 0.1
;Generated with Cura_SteamEngine 3.3.1
M190 S60
M104 S220
M109 S220
M82 ;absolute extrusion mode
G28 ;Home
G1 Z15.0 F6000 ;Move the platform down 15mm
;Prime the extruder
G92 E0
G1 F200 E3
G92 E0
G92 E0
G1 F2400 E-5
;LAYER_COUNT:80
;LAYER:0
M107
M204 S5000
M205 X30 Y30
G0 F3600 X106.829 Y87.551 Z0.2
M204 S500
M205 X20 Y20
;TYPE:SKIRT
G1 F2400 E0
G1 F1800 X107.293 Y87.006 E0.02381
G1 X107.814 Y86.517 E0.04757
G1 X108.387 Y86.088 E0.07138
G1 X109.004 Y85.727 E0.09516
G1 X109.658 Y85.436 E0.11896
G1 X110.34 Y85.221 E0.14275
G1 X111.042 Y85.082 E0.16655
G1 X111.925 Y85.021 E0.19599
G1 X188.056 Y85.011 E2.72812
G1 X188.77 Y85.051 E2.7519
G1 X189.476 Y85.17 E2.77571
G1 X190.163 Y85.367 E2.79948
G1 X190.824 Y85.64 E2.82327
G1 X191.451 Y85.985 E2.84707
G1 X192.035 Y86.398 E2.87086
G1 X192.57 Y86.873 E2.89466
G1 X193.048 Y87.405 E2.91845
G1 X193.464 Y87.987 E2.94224
G1 X193.812 Y88.611 E2.966
G1 X194.143 Y89.432 E2.99545
G1 X217.68 Y161.833 E5.52757
G1 X217.863 Y162.525 E5.55137
G1 X217.968 Y163.232 E5.57515
G1 X217.993 Y163.947 E5.59894
G1 X217.938 Y164.66 E5.62273
G1 X217.803 Y165.363 E5.64654
G1 X217.591 Y166.046 E5.67032
G1 X217.305 Y166.701 E5.69409
G1 X216.947 Y167.321 E5.71791
G1 X216.522 Y167.896 E5.74169
G1 X216.035 Y168.42 E5.76548
G1 X215.357 Y168.989 E5.79492
G1 X153.772 Y213.746 E8.32704
G1 X153.17 Y214.134 E8.35086
G1 X152.53 Y214.452 E8.37463
G1 X151.857 Y214.696 E8.39844
G1 X151.162 Y214.864 E8.42222
G1 X150.453 Y214.954 E8.44599
G1 X149.737 Y214.963 E8.46981
G1 X149.026 Y214.893 E8.49357
G1 X148.326 Y214.744 E8.51738
G1 X147.648 Y214.517 E8.54116
G1 X146.999 Y214.217 E8.56494
G1 X146.248 Y213.747 E8.5944
G1 X84.651 Y169.008 E11.1265
G1 X84.097 Y168.556 E11.15028
G1 X83.596 Y168.045 E11.17408
G1 X83.156 Y167.481 E11.19787
G1 X82.781 Y166.872 E11.22166
G1 X82.477 Y166.225 E11.24543
G1 X82.247 Y165.548 E11.26921
G1 X82.094 Y164.849 E11.29301
G1 X82.019 Y164.138 E11.31679
G1 X82.025 Y163.422 E11.34061
G1 X82.11 Y162.712 E11.36439
G1 X82.325 Y161.853 E11.39384
G1 X105.839 Y89.444 E13.92598
G1 X106.098 Y88.777 E13.94978
G1 X106.429 Y88.144 E13.97354
G1 X106.829 Y87.551 E13.99733
M204 S5000
M205 X30 Y30
G0 F3600 X107.188 Y87.74
M204 S500
M205 X20 Y20
G1 F1800 X107.643 Y87.219 E14.02033
G1 X108.156 Y86.753 E14.04339
G1 X108.719 Y86.35 E14.06641
G1 X109.325 Y86.014 E14.08946
G1 X109.965 Y85.75 E14.11249
G1 X110.632 Y85.562 E14.13554
G1 X111.315 Y85.452 E14.15854
G1 X111.925 Y85.421 E14.17886
G1 X188.056 Y85.411 E16.71099
G1 X188.748 Y85.451 E16.73404
G1 X189.43 Y85.57 E16.75707
G1 X190.094 Y85.767 E16.7801
G1 X190.73 Y86.04 E16.80312
G1 X191.332 Y86.383 E16.82617
G1 X191.889 Y86.794 E16.84919
G1 X192.396 Y87.267 E16.87225
G1 X192.844 Y87.794 E16.89526
G1 X193.229 Y88.37 E16.9183
G1 X193.545 Y88.986 E16.94133
G1 X193.763 Y89.556 E16.96163
G1 X217.3 Y161.957 E19.49375
G1 X217.476 Y162.627 E19.51679
G1 X217.573 Y163.313 E19.53983
G1 X217.591 Y164.005 E19.56285
G1 X217.529 Y164.695 E19.5859
G1 X217.388 Y165.373 E19.60893
G1 X217.169 Y166.03 E19.63196
G1 X216.876 Y166.657 E19.65498
G1 X216.513 Y167.247 E19.67802
G1 X216.085 Y167.791 E19.70104
G1 X215.596 Y168.282 E19.72409
G1 X215.121 Y168.666 E19.74441
G1 X153.536 Y213.423 E22.27653
G1 X152.954 Y213.797 E22.29954
G1 X152.332 Y214.101 E22.32256
G1 X151.679 Y214.332 E22.3456
G1 X151.003 Y214.486 E22.36866
G1 X150.315 Y214.561 E22.39168
G1 X149.623 Y214.557 E22.4147
G1 X148.935 Y214.472 E22.43775
G1 X148.262 Y214.309 E22.46079
G1 X147.612 Y214.07 E22.48382
G1 X146.994 Y213.757 E22.50686
G1 X146.483 Y213.424 E22.52715
G1 X84.886 Y168.685 E25.05924
G1 X84.35 Y168.246 E25.08228
G1 X83.868 Y167.749 E25.10531
G1 X83.447 Y167.199 E25.12835
G1 X83.092 Y166.604 E25.15139
G1 X82.808 Y165.973 E25.17441
G1 X82.598 Y165.313 E25.19744
G1 X82.466 Y164.633 E25.22048
G1 X82.413 Y163.942 E25.24353
G1 X82.44 Y163.25 E25.26657
G1 X82.547 Y162.566 E25.28959
G1 X82.705 Y161.977 E25.30987
G1 X106.219 Y89.568 E27.84201
G1 X106.471 Y88.923 E27.86504
G1 X106.795 Y88.311 E27.88808
G1 X107.188 Y87.74 E27.91113
M204 S5000
M205 X30 Y30
G0 F3600 X107.546 Y87.932
M204 S500
M205 X20 Y20
G1 F1800 X107.993 Y87.435 E27.93336
G1 X108.497 Y86.994 E27.95564
G1 X109.049 Y86.617 E27.97787
G1 X109.642 Y86.308 E28.00011
G1 X110.269 Y86.072 E28.02239
G1 X110.918 Y85.912 E28.04463
G1 X111.582 Y85.832 E28.06687
G1 X111.925 Y85.821 E28.07828
G1 X188.056 Y85.811 E30.61041
G1 X188.724 Y85.851 E30.63267
G1 X189.382 Y85.97 E30.65491
G1 X190.022 Y86.167 E30.67718
G1 X190.633 Y86.439 E30.69943
G1 X191.208 Y86.781 E30.72168
G1 X191.737 Y87.19 E30.74392
G1 X192.214 Y87.659 E30.76617
G1 X192.632 Y88.182 E30.78843
G1 X192.985 Y88.751 E30.81071
G1 X193.267 Y89.357 E30.83294
G1 X193.383 Y89.68 E30.84435
G1 X216.92 Y162.081 E33.37647
G1 X217.088 Y162.728 E33.3987
G1 X217.178 Y163.391 E33.42096
G1 X217.189 Y164.06 E33.44321
G1 X217.119 Y164.725 E33.46545
G1 X216.971 Y165.378 E33.48772
G1 X216.746 Y166.008 E33.50997
G1 X216.447 Y166.607 E33.53224
G1 X216.079 Y167.165 E33.55447
G1 X215.647 Y167.676 E33.57673
G1 X215.157 Y168.132 E33.59899
G1 X214.886 Y168.342 E33.61039
G1 X153.301 Y213.099 E36.14251
G1 X152.737 Y213.459 E36.16477
G1 X152.135 Y213.75 E36.18701
G1 X151.502 Y213.966 E36.20925
G1 X150.847 Y214.106 E36.23153
G1 X150.181 Y214.166 E36.25377
G1 X149.512 Y214.147 E36.27603
G1 X148.851 Y214.048 E36.29826
G1 X148.206 Y213.871 E36.32051
G1 X147.586 Y213.618 E36.34278
G1 X147.001 Y213.293 E36.36504
G1 X146.718 Y213.1 E36.37643
G1 X85.121 Y168.361 E38.90852
G1 X84.604 Y167.936 E38.93078
G1 X84.142 Y167.453 E38.95301
G1 X83.74 Y166.918 E38.97527
G1 X83.405 Y166.338 E38.99755
G1 X83.142 Y165.723 E39.0198
G1 X82.954 Y165.081 E39.04205
G1 X82.843 Y164.422 E39.06427
G1 X82.813 Y163.753 E39.08655
G1 X82.862 Y163.086 E39.10879
G1 X82.99 Y162.429 E39.13105
G1 X83.086 Y162.1 E39.14245
G1 X106.6 Y89.691 E41.67459
G1 X106.844 Y89.069 E41.69681
G1 X107.161 Y88.479 E41.71909
G1 X107.546 Y87.932 E41.74134
M204 S5000
M205 X30 Y30
G0 F3600 X107.903 Y88.126
M204 S500
M205 X20 Y20
G1 F1800 X108.341 Y87.654 E41.76275
G1 X108.835 Y87.239 E41.78421
G1 X109.376 Y86.889 E41.80564
G1 X109.957 Y86.608 E41.82711
G1 X110.567 Y86.402 E41.84852
G1 X111.199 Y86.272 E41.86998
G1 X111.925 Y86.221 E41.89419
G1 X188.056 Y86.211 E44.42632
G1 X188.7 Y86.251 E44.44778
G1 X189.333 Y86.37 E44.4692
G1 X189.947 Y86.567 E44.49065
G1 X190.532 Y86.838 E44.51209
G1 X191.079 Y87.179 E44.53353
G1 X191.579 Y87.586 E44.55497
G1 X192.026 Y88.051 E44.57643
G1 X192.411 Y88.568 E44.59786
G1 X192.729 Y89.128 E44.61928
G1 X193.002 Y89.803 E44.6435
G1 X216.539 Y162.204 E47.17562
G1 X216.7 Y162.829 E47.19709
G1 X216.783 Y163.468 E47.21852
G1 X216.785 Y164.113 E47.23997
G1 X216.708 Y164.753 E47.26141
G1 X216.553 Y165.378 E47.28283
G1 X216.321 Y165.98 E47.30429
G1 X216.016 Y166.548 E47.32573
G1 X215.644 Y167.074 E47.34716
G1 X215.209 Y167.55 E47.36861
G1 X214.651 Y168.018 E47.39283
G1 X153.066 Y212.775 E49.92495
G1 X152.522 Y213.121 E49.94639
G1 X151.939 Y213.397 E49.96785
G1 X151.327 Y213.599 E49.98928
G1 X150.695 Y213.724 E50.01071
G1 X150.052 Y213.769 E50.03215
G1 X149.408 Y213.734 E50.0536
G1 X148.773 Y213.62 E50.07506
G1 X148.158 Y213.428 E50.09649
G1 X147.571 Y213.162 E50.11792
G1 X146.953 Y212.776 E50.14215
G1 X85.356 Y168.037 E52.67425
G1 X84.859 Y167.627 E52.69568
G1 X84.417 Y167.158 E52.71711
G1 X84.035 Y166.638 E52.73857
G1 X83.722 Y166.075 E52.76
G1 X83.48 Y165.477 E52.78145
G1 X83.314 Y164.854 E52.8029
G1 X83.226 Y164.216 E52.82432
G1 X83.218 Y163.571 E52.84577
G1 X83.29 Y162.93 E52.86723
G1 X83.466 Y162.224 E52.89143
G1 X106.98 Y89.815 E55.42356
G1 X107.217 Y89.215 E55.44502
G1 X107.526 Y88.65 E55.46644
G1 X107.903 Y88.126 E55.48791
M204 S5000
M205 X30 Y30
G1 F2400 E50.48791
G0 F3600 X111.153 Y91.621
G0 X112.37 Y92.017
G0 X155.511 Y147.913
G0 X155.783 Y148.342
G0 X155.979 Y148.806
G0 X156.101 Y149.297
G0 X156.142 Y149.801
G0 X156.12 Y150.085
G0 X155.836 Y151.288
G0 X155.748 Y151.242
M204 S500
M205 X20 Y20
;TYPE:WALL-INNER
G1 F2400 E55.48791
G1 F1800 X155.942 Y150.782 E55.50451
G1 X156.062 Y150.299 E55.52107
G1 X156.102 Y149.801 E55.53768
G1 X156.062 Y149.303 E55.5543
G1 X155.942 Y148.818 E55.57092
G1 X155.748 Y148.36 E55.58746
G1 X155.48 Y147.937 E55.60412
G1 X155.149 Y147.564 E55.6207
G1 X154.762 Y147.248 E55.63732
G1 X154.33 Y146.998 E55.65392
G1 X153.864 Y146.822 E55.67049
G1 X153.373 Y146.722 E55.68715
G1 X152.875 Y146.702 E55.70373
G1 X152.38 Y146.761 E55.72031
G1 X151.899 Y146.9 E55.73696
G1 X151.449 Y147.115 E55.75355
G1 X151.038 Y147.398 E55.77015
G1 X150.679 Y147.744 E55.78673
G1 X150.378 Y148.143 E55.80336
G1 X150.205 Y148.472 E55.81572
G1 X150.146 Y148.585 E55.81996
G1 X150.056 Y148.855 E55.82943
G1 X149.996 Y149.036 E55.83577
G1 X149.942 Y148.818
G1 X149.89 Y148.694
G1 X149.84 Y148.576 E55.83944
G1 X149.748 Y148.36 E55.84725
G1 X149.48 Y147.937 E55.86391
G1 X149.149 Y147.564 E55.88049
G1 X148.762 Y147.248 E55.89711
G1 X148.33 Y146.998 E55.91371
G1 X147.864 Y146.822 E55.93028
G1 X147.373 Y146.722 E55.94695
G1 X146.875 Y146.702 E55.96352
G1 X146.38 Y146.761 E55.9801
G1 X145.899 Y146.9 E55.99676
G1 X145.449 Y147.115 E56.01334
G1 X145.038 Y147.398 E56.02994
G1 X144.679 Y147.744 E56.04652
G1 X144.378 Y148.143 E56.06315
G1 X144.146 Y148.585 E56.07975
G1 X143.988 Y149.059 E56.09637
G1 X143.908 Y149.552 E56.11298
G1 X143.908 Y150.05 E56.12954
G1 X143.988 Y150.543 E56.14616
G1 X144.146 Y151.017 E56.16277
G1 X144.378 Y151.459 E56.17938
G1 X144.679 Y151.858 E56.196
G1 X145.038 Y152.203 E56.21256
G1 X145.449 Y152.487 E56.22918
G1 X145.9 Y152.701 E56.24578
G1 X146.38 Y152.84 E56.2624
G1 X146.875 Y152.9 E56.27898
G1 X147.373 Y152.88 E56.29556
G1 X147.864 Y152.78 E56.31223
G1 X148.33 Y152.602 E56.32882
G1 X148.762 Y152.353 E56.3454
G1 X149.149 Y152.039 E56.36198
G1 X149.48 Y151.665 E56.37859
G1 X149.748 Y151.242 E56.39525
G1 X149.839 Y151.027 E56.40301
G1 X149.888 Y150.909 E56.40726
G1 X149.942 Y150.782 E56.41185
G1 X149.996 Y150.566 E56.41926
G1 X150.055 Y150.744
G1 X150.146 Y151.017 E56.42053
G1 X150.205 Y151.13 E56.42419
G1 X150.378 Y151.459 E56.43655
G1 X150.679 Y151.858 E56.45317
G1 X151.038 Y152.203 E56.46973
G1 X151.449 Y152.487 E56.48635
G1 X151.9 Y152.701 E56.50295
G1 X152.38 Y152.84 E56.51957
G1 X152.875 Y152.9 E56.53616
G1 X153.373 Y152.88 E56.55273
G1 X153.864 Y152.78 E56.5694
G1 X154.33 Y152.602 E56.58599
G1 X154.762 Y152.353 E56.60258
G1 X155.149 Y152.039 E56.61915
G1 X155.48 Y151.665 E56.63576
G1 X155.748 Y151.242 E56.65242
M204 S5000
M205 X30 Y30
G0 F3600 X155.836 Y151.288
G0 X210.808 Y163.566
G0 X210.903 Y163.596
M204 S500
M205 X20 Y20
G1 F1800 X150 Y207.844 E59.15624
G1 X89.097 Y163.596 E61.66006
G1 X112.359 Y92.001 E64.16385
G1 X187.641 Y92.001 E66.66774
G1 X210.903 Y163.596 E69.17154
M204 S5000
M205 X30 Y30
G0 F3600 X211.373 Y163.749
M204 S500
M205 X20 Y20
;TYPE:WALL-OUTER
G1 F1800 X150 Y208.339 E71.69469
G1 X88.627 Y163.749 E74.21785
G1 X112.069 Y91.601 E76.74099
G1 X187.931 Y91.601 E79.26417
G1 X211.373 Y163.749 E81.78731
M204 S5000
M205 X30 Y30
G0 F3600 X211.212 Y163.866
G0 X210.808 Y163.566
G0 X155.852 Y151.25
G0 X155.392 Y151.056
M204 S500
M205 X20 Y20
G1 F1800 X155.561 Y150.655 E81.80178
G1 X155.666 Y150.234 E81.81621
G1 X155.701 Y149.801 E81.83066
G1 X155.666 Y149.368 E81.84511
G1 X155.561 Y148.945 E81.85961
G1 X155.392 Y148.546 E81.87402
G1 X155.159 Y148.178 E81.8885
G1 X154.871 Y147.853 E81.90295
G1 X154.534 Y147.578 E81.91741
G1 X154.158 Y147.361 E81.93185
G1 X153.752 Y147.207 E81.9463
G1 X153.325 Y147.12 E81.96079
G1 X152.891 Y147.103 E81.97524
G1 X152.46 Y147.154 E81.98967
G1 X152.042 Y147.275 E82.00414
G1 X151.65 Y147.462 E82.01859
G1 X151.292 Y147.709 E82.03306
G1 X150.979 Y148.01 E82.0475
G1 X150.717 Y148.358 E82.06199
G1 X150.515 Y148.742 E82.07642
G1 X150.378 Y149.155 E82.09089
G1 X150.308 Y149.584 E82.10535
G1 X150.308 Y150.018 E82.11978
G1 X150.378 Y150.447 E82.13424
G1 X150.515 Y150.86 E82.14871
G1 X150.717 Y151.244 E82.16314
G1 X150.979 Y151.592 E82.17763
G1 X151.292 Y151.892 E82.19205
G1 X151.65 Y152.14 E82.20654
G1 X152.042 Y152.326 E82.22097
G1 X152.46 Y152.447 E82.23544
G1 X152.891 Y152.499 E82.24988
G1 X153.325 Y152.482 E82.26433
G1 X153.752 Y152.395 E82.27882
G1 X154.158 Y152.24 E82.29327
G1 X154.534 Y152.023 E82.30771
G1 X154.871 Y151.749 E82.32216
G1 X155.159 Y151.424 E82.3366
G1 X155.392 Y151.056 E82.35109
M204 S5000
M205 X30 Y30
G0 F3600 X155.469 Y150.872
G0 X155.93 Y151.067
G0 X156.101 Y150.305
G0 X156.142 Y149.801
G0 X156.101 Y149.297
G0 X155.979 Y148.806
G0 X155.783 Y148.342
G0 X155.511 Y147.913
G0 X155.176 Y147.536
G0 X154.784 Y147.216
G0 X154.347 Y146.962
G0 X153.875 Y146.784
G0 X153.377 Y146.683
G0 X146.874 Y146.663
G0 X146.373 Y146.722
G0 X145.885 Y146.863
G0 X145.429 Y147.081
G0 X145.013 Y147.368
G0 X144.65 Y147.718
G0 X144.345 Y148.122
G0 X144.11 Y148.57
G0 X143.95 Y149.05
G0 X143.869 Y149.549
G0 X143.869 Y150.053
G0 X143.95 Y150.552
G0 X144.11 Y151.032
G0 X144.345 Y151.48
G0 X144.65 Y151.884
G0 X145.013 Y152.233
G0 X145.429 Y152.521
G0 X145.886 Y152.738
G0 X146.373 Y152.879
G0 X146.874 Y152.939
G0 X147.377 Y152.919
G0 X147.875 Y152.818
G0 X148.347 Y152.638
G0 X148.784 Y152.385
G0 X149.19 Y152.061
G0 X149.852 Y151.25
G0 X149.392 Y151.056
M204 S500
M205 X20 Y20
G1 F1800 X149.561 Y150.655 E82.36556
G1 X149.666 Y150.234 E82.37999
G1 X149.701 Y149.801 E82.39444
G1 X149.666 Y149.368 E82.40889
G1 X149.561 Y148.945 E82.42339
G1 X149.392 Y148.546 E82.4378
G1 X149.159 Y148.178 E82.45229
G1 X148.871 Y147.853 E82.46673
G1 X148.534 Y147.578 E82.4812
G1 X148.158 Y147.361 E82.49564
G1 X147.752 Y147.207 E82.51008
G1 X147.325 Y147.12 E82.52457
G1 X146.891 Y147.103 E82.53902
G1 X146.46 Y147.154 E82.55345
G1 X146.042 Y147.275 E82.56793
G1 X145.65 Y147.462 E82.58237
G1 X145.292 Y147.709 E82.59684
G1 X144.979 Y148.01 E82.61128
G1 X144.717 Y148.358 E82.62577
G1 X144.515 Y148.742 E82.6402
G1 X144.378 Y149.155 E82.65467
G1 X144.308 Y149.584 E82.66913
G1 X144.308 Y150.018 E82.68357
G1 X144.378 Y150.447 E82.69802
G1 X144.515 Y150.86 E82.7125
G1 X144.717 Y151.244 E82.72693
G1 X144.979 Y151.592 E82.74141
G1 X145.292 Y151.892 E82.75583
G1 X145.65 Y152.14 E82.77032
G1 X146.042 Y152.326 E82.78475
G1 X146.46 Y152.447 E82.79922
G1 X146.891 Y152.499 E82.81366
G1 X147.325 Y152.482 E82.82811
G1 X147.752 Y152.395 E82.8426
G1 X148.158 Y152.24 E82.85706
G1 X148.534 Y152.023 E82.8715
G1 X148.871 Y151.749 E82.88594
G1 X149.159 Y151.424 E82.90039
G1 X149.392 Y151.056 E82.91487
M204 S5000
M205 X30 Y30
G0 F3600 X149.469 Y150.872
G0 X149.93 Y151.067
G0 X149.999 Y151.575
M204 S500
M205 X20 Y20
;TYPE:SKIN
G1 F1800 X150.048 Y151.668 E82.91837
G1 X150.386 Y152.117 E82.93706
G1 X150.79 Y152.506 E82.95571
G1 X151.254 Y152.826 E82.97446
G1 X151.761 Y153.067 E82.99313
G1 X152.302 Y153.224 E83.01187
G1 X152.859 Y153.29 E83.03052
G1 X153.42 Y153.268 E83.0492
G1 X153.973 Y153.156 E83.06796
G1 X154.498 Y152.955 E83.08666
G1 X154.984 Y152.675 E83.10532
G1 X155.42 Y152.322 E83.12398
G1 X155.792 Y151.901 E83.14266
G1 X156.095 Y151.423 E83.16148
G1 X156.313 Y150.905 E83.18018
G1 X156.448 Y150.362 E83.19879
G1 X156.494 Y149.801 E83.21751
G1 X156.448 Y149.24 E83.23623
G1 X156.313 Y148.695 E83.2549
G1 X156.095 Y148.179 E83.27354
G1 X155.792 Y147.701 E83.29236
G1 X155.42 Y147.281 E83.31102
G1 X154.984 Y146.926 E83.32972
G1 X154.498 Y146.645 E83.34839
G1 X153.973 Y146.446 E83.36707
G1 X153.42 Y146.334 E83.38583
G1 X152.86 Y146.312 E83.40447
G1 X152.302 Y146.377 E83.42316
G1 X151.76 Y146.534 E83.44192
G1 X151.254 Y146.776 E83.46058
G1 X150.79 Y147.095 E83.47931
G1 X150.386 Y147.485 E83.49798
G1 X150.048 Y147.934 E83.51668
G1 X149.999 Y148.027 E83.52017
G1 X149.792 Y147.701 E83.53302
G1 X149.42 Y147.281 E83.55168
G1 X148.984 Y146.926 E83.57038
G1 X148.498 Y146.645 E83.58905
G1 X147.973 Y146.446 E83.60772
G1 X147.42 Y146.334 E83.62649
G1 X146.86 Y146.312 E83.64513
G1 X146.302 Y146.377 E83.66382
G1 X145.76 Y146.534 E83.68258
G1 X145.254 Y146.776 E83.70124
G1 X144.79 Y147.095 E83.71997
G1 X144.386 Y147.485 E83.73864
G1 X144.048 Y147.934 E83.75734
G1 X143.786 Y148.431 E83.77602
