;FLAVOR:Marlin
;TIME:1298
;Filament used: 0.616239m
;Layer height: 0.2
;Generated with Cura_SteamEngine 3.3.1
M190 S60
M104 S200
M109 S200
M82 ;absolute extrusion mode
G28 ;Home
G1 Z15.0 F6000 ;Move the platform down 15mm
;Prime the extruder
G92 E0
G1 F200 E3
G92 E0
G92 E0
G1 F2400 E-5
;LAYER_COUNT:111
;LAYER:0
M107
M204 S5000
M205 X30 Y30
G0 F3600 X37.137 Y35.838 Z0.2
M204 S500
M205 X20 Y20
;TYPE:SKIRT
G1 F2400 E0
G1 F1800 X37.669 Y35.359 E0.02381
G1 X38.251 Y34.944 E0.04758
G1 X38.876 Y34.595 E0.07139
G1 X39.536 Y34.319 E0.09519
G1 X40.222 Y34.118 E0.11896
G1 X40.927 Y33.995 E0.14277
G1 X41.662 Y33.951 E0.16726
G1 X45.946 Y33.942 E0.30974
G1 X46.503 Y33.965 E0.32828
G1 X51.952 Y34.43 E0.51018
G1 X57.29 Y34.66 E0.68788
G1 X62.575 Y34.589 E0.86368
G1 X67.92 Y34.214 E1.04189
G1 X69.991 Y33.989 E1.11118
G1 X70.683 Y33.951 E1.13423
G1 X75.657 Y33.951 E1.29967
G1 X76.371 Y33.991 E1.32345
G1 X77.076 Y34.11 E1.34723
G1 X77.764 Y34.308 E1.37104
G1 X78.425 Y34.581 E1.39483
G1 X79.052 Y34.925 E1.41862
G1 X79.636 Y35.338 E1.44241
G1 X80.17 Y35.813 E1.46618
G1 X80.649 Y36.345 E1.48999
G1 X81.064 Y36.927 E1.51376
G1 X81.413 Y37.552 E1.53757
G1 X81.689 Y38.212 E1.56136
G1 X81.89 Y38.898 E1.58514
G1 X82.013 Y39.603 E1.60894
G1 X82.057 Y40.351 E1.63386
G1 X82.057 Y54.333 E2.09891
G1 X82.017 Y55.047 E2.12269
G1 X81.898 Y55.752 E2.14647
G1 X81.7 Y56.44 E2.17028
G1 X81.427 Y57.101 E2.19407
G1 X81.083 Y57.728 E2.21786
G1 X80.67 Y58.312 E2.24165
G1 X80.195 Y58.846 E2.26542
G1 X79.663 Y59.325 E2.28923
G1 X79.081 Y59.74 E2.313
G1 X78.456 Y60.089 E2.33681
G1 X77.796 Y60.365 E2.3606
G1 X77.11 Y60.566 E2.38438
G1 X76.405 Y60.689 E2.40818
G1 X75.652 Y60.733 E2.43327
G1 X70.627 Y60.729 E2.6004
G1 X69.933 Y60.691 E2.62352
G1 X68.035 Y60.482 E2.68703
G1 X62.685 Y60.1 E2.86542
G1 X57.4 Y60.022 E3.04122
G1 X52.106 Y60.243 E3.21746
G1 X46.917 Y60.716 E3.39076
G1 X46.324 Y60.742 E3.4105
G1 X41.663 Y60.733 E3.56553
G1 X40.949 Y60.692 E3.58931
G1 X40.244 Y60.571 E3.6131
G1 X39.556 Y60.372 E3.63692
G1 X38.896 Y60.098 E3.66069
G1 X38.27 Y59.752 E3.68448
G1 X37.686 Y59.338 E3.70829
G1 X37.153 Y58.862 E3.73206
G1 X36.676 Y58.329 E3.75585
G1 X36.261 Y57.746 E3.77965
G1 X35.914 Y57.121 E3.80343
G1 X35.639 Y56.46 E3.82724
G1 X35.439 Y55.774 E3.85101
G1 X35.317 Y55.069 E3.8748
G1 X35.275 Y54.333 E3.89932
G1 X35.275 Y40.351 E4.36437
G1 X35.315 Y39.637 E4.38815
G1 X35.434 Y38.932 E4.41193
G1 X35.632 Y38.244 E4.43574
G1 X35.905 Y37.583 E4.45953
G1 X36.249 Y36.956 E4.48332
G1 X36.662 Y36.372 E4.50711
G1 X37.137 Y35.838 E4.53088
M204 S5000
M205 X30 Y30
G0 F3600 X37.531 Y36.012
M204 S500
M205 X20 Y20
G1 F1800 X38.059 Y35.563 E4.55393
G1 X38.634 Y35.178 E4.57694
G1 X39.251 Y34.863 E4.59999
G1 X39.899 Y34.62 E4.623
G1 X40.572 Y34.453 E4.64607
G1 X41.258 Y34.365 E4.66907
G1 X41.662 Y34.351 E4.68252
G1 X45.946 Y34.342 E4.825
G1 X46.469 Y34.364 E4.84241
G1 X51.925 Y34.83 E5.02454
G1 X57.278 Y35.061 E5.20275
G1 X62.59 Y34.989 E5.37944
G1 X67.939 Y34.614 E5.55779
G1 X70.034 Y34.386 E5.62788
G1 X70.683 Y34.351 E5.6495
G1 X75.657 Y34.351 E5.81493
G1 X76.348 Y34.391 E5.83795
G1 X77.031 Y34.51 E5.86101
G1 X77.694 Y34.708 E5.88403
G1 X78.331 Y34.98 E5.90706
G1 X78.932 Y35.324 E5.9301
G1 X79.49 Y35.735 E5.95315
G1 X79.996 Y36.207 E5.97616
G1 X80.445 Y36.735 E5.99921
G1 X80.83 Y37.31 E6.02223
G1 X81.145 Y37.927 E6.04527
G1 X81.388 Y38.575 E6.06829
G1 X81.555 Y39.248 E6.09135
G1 X81.643 Y39.934 E6.11435
G1 X81.657 Y40.351 E6.12823
G1 X81.657 Y54.333 E6.59327
G1 X81.617 Y55.024 E6.6163
G1 X81.498 Y55.707 E6.63935
G1 X81.3 Y56.37 E6.66237
G1 X81.028 Y57.007 E6.68541
G1 X80.684 Y57.608 E6.70844
G1 X80.273 Y58.166 E6.73149
G1 X79.801 Y58.672 E6.7545
G1 X79.273 Y59.121 E6.77756
G1 X78.698 Y59.506 E6.80057
G1 X78.081 Y59.821 E6.82361
G1 X77.433 Y60.064 E6.84663
G1 X76.76 Y60.231 E6.86969
G1 X76.074 Y60.319 E6.8927
G1 X75.652 Y60.333 E6.90674
G1 X70.627 Y60.329 E7.07387
G1 X69.976 Y60.293 E7.09556
G1 X68.078 Y60.084 E7.15907
G1 X62.703 Y59.7 E7.3383
G1 X57.406 Y59.622 E7.51449
G1 X52.054 Y59.845 E7.69266
G1 X46.881 Y60.317 E7.86543
G1 X46.324 Y60.342 E7.88397
G1 X41.663 Y60.333 E8.039
G1 X40.972 Y60.292 E8.06202
G1 X40.29 Y60.171 E8.08506
G1 X39.627 Y59.973 E8.10807
G1 X38.99 Y59.699 E8.13114
G1 X38.39 Y59.354 E8.15416
G1 X37.833 Y58.942 E8.1772
G1 X37.328 Y58.469 E8.20021
G1 X36.88 Y57.94 E8.22327
G1 X36.497 Y57.364 E8.24627
G1 X36.182 Y56.747 E8.26932
G1 X35.94 Y56.098 E8.29235
G1 X35.775 Y55.425 E8.3154
G1 X35.689 Y54.738 E8.33843
G1 X35.675 Y54.333 E8.35191
G1 X35.675 Y40.351 E8.81695
G1 X35.715 Y39.66 E8.83997
G1 X35.834 Y38.977 E8.86303
G1 X36.032 Y38.314 E8.88604
G1 X36.304 Y37.677 E8.90908
G1 X36.648 Y37.076 E8.93211
G1 X37.059 Y36.518 E8.95516
G1 X37.531 Y36.012 E8.97818
M204 S5000
M205 X30 Y30
G0 F3600 X37.924 Y36.193
M204 S500
M205 X20 Y20
G1 F1800 X38.446 Y35.775 E9.00042
G1 X39.015 Y35.423 E9.02267
G1 X39.622 Y35.141 E9.04494
G1 X40.258 Y34.933 E9.06719
G1 X40.914 Y34.803 E9.08943
G1 X41.663 Y34.751 E9.11441
G1 X45.947 Y34.742 E9.25689
G1 X46.435 Y34.762 E9.27314
G1 X51.897 Y35.228 E9.45546
G1 X57.284 Y35.461 E9.6348
G1 X62.606 Y35.389 E9.81183
G1 X67.983 Y35.012 E9.99111
G1 X70.077 Y34.784 E10.06117
G1 X70.683 Y34.751 E10.08135
G1 X75.657 Y34.751 E10.24679
G1 X76.325 Y34.791 E10.26905
G1 X76.983 Y34.91 E10.29129
G1 X77.623 Y35.107 E10.31356
G1 X78.234 Y35.379 E10.3358
G1 X78.808 Y35.722 E10.35804
G1 X79.338 Y36.131 E10.38031
G1 X79.815 Y36.6 E10.40256
G1 X80.233 Y37.122 E10.4248
G1 X80.585 Y37.691 E10.44706
G1 X80.867 Y38.298 E10.46932
G1 X81.075 Y38.934 E10.49157
G1 X81.205 Y39.59 E10.51382
G1 X81.257 Y40.351 E10.53919
G1 X81.257 Y54.333 E11.00423
G1 X81.217 Y55.001 E11.02649
G1 X81.098 Y55.659 E11.04873
G1 X80.901 Y56.299 E11.071
G1 X80.629 Y56.91 E11.09324
G1 X80.286 Y57.484 E11.11548
G1 X79.877 Y58.014 E11.13775
G1 X79.408 Y58.491 E11.16
G1 X78.886 Y58.909 E11.18224
G1 X78.317 Y59.261 E11.2045
G1 X77.71 Y59.543 E11.22676
G1 X77.074 Y59.751 E11.24901
G1 X76.418 Y59.881 E11.27126
G1 X75.653 Y59.933 E11.29676
G1 X70.628 Y59.929 E11.46389
G1 X70.02 Y59.895 E11.48414
G1 X68.125 Y59.687 E11.54755
G1 X62.719 Y59.3 E11.72782
G1 X57.396 Y59.221 E11.90488
G1 X52.041 Y59.445 E12.08314
G1 X46.845 Y59.919 E12.25668
G1 X46.325 Y59.942 E12.27399
G1 X41.664 Y59.933 E12.42902
G1 X40.996 Y59.892 E12.45128
G1 X40.338 Y59.771 E12.47353
G1 X39.699 Y59.573 E12.49578
G1 X39.089 Y59.3 E12.51801
G1 X38.515 Y58.956 E12.54026
G1 X37.986 Y58.546 E12.56252
G1 X37.51 Y58.076 E12.58477
G1 X37.093 Y57.553 E12.60702
G1 X36.742 Y56.983 E12.62929
G1 X36.461 Y56.376 E12.65153
G1 X36.255 Y55.74 E12.67377
G1 X36.125 Y55.083 E12.69604
G1 X36.075 Y54.333 E12.72104
G1 X36.075 Y40.351 E13.18609
G1 X36.115 Y39.683 E13.20835
G1 X36.234 Y39.025 E13.23059
G1 X36.431 Y38.385 E13.25286
G1 X36.703 Y37.774 E13.2751
G1 X37.046 Y37.2 E13.29734
G1 X37.455 Y36.67 E13.31961
G1 X37.924 Y36.193 E13.34186
M204 S5000
M205 X30 Y30
G0 F3600 X37.85 Y36.828
M204 S500
M205 X20 Y20
G1 F1800 X38.315 Y36.382 E13.36329
G1 X38.832 Y35.997 E13.38473
G1 X39.393 Y35.678 E13.40619
G1 X39.989 Y35.432 E13.42764
G1 X40.61 Y35.261 E13.44906
G1 X41.248 Y35.169 E13.4705
G1 X41.664 Y35.151 E13.48435
G1 X45.948 Y35.142 E13.62684
G1 X46.401 Y35.161 E13.64192
G1 X51.87 Y35.628 E13.82448
G1 X57.254 Y35.86 E14.00372
G1 X62.639 Y35.788 E14.18284
G1 X68.004 Y35.411 E14.36172
G1 X70.121 Y35.181 E14.43255
G1 X70.683 Y35.151 E14.45126
G1 X75.657 Y35.151 E14.6167
G1 X76.3 Y35.191 E14.63813
G1 X76.934 Y35.31 E14.65958
G1 X77.548 Y35.507 E14.68103
G1 X78.133 Y35.778 E14.70247
G1 X78.68 Y36.12 E14.72393
G1 X79.18 Y36.526 E14.74535
G1 X79.626 Y36.991 E14.76678
G1 X80.011 Y37.508 E14.78822
G1 X80.33 Y38.069 E14.80969
G1 X80.576 Y38.665 E14.83113
G1 X80.747 Y39.286 E14.85255
G1 X80.839 Y39.924 E14.87399
G1 X80.857 Y40.351 E14.88821
G1 X80.857 Y54.333 E15.35325
G1 X80.817 Y54.976 E15.37468
G1 X80.698 Y55.61 E15.39613
G1 X80.501 Y56.224 E15.41758
G1 X80.23 Y56.809 E15.43903
G1 X79.888 Y57.356 E15.46048
G1 X79.482 Y57.856 E15.4819
G1 X79.017 Y58.302 E15.50333
G1 X78.5 Y58.687 E15.52477
G1 X77.939 Y59.006 E15.54624
G1 X77.343 Y59.252 E15.56768
G1 X76.722 Y59.423 E15.58911
G1 X76.084 Y59.515 E15.61055
G1 X75.653 Y59.533 E15.62489
G1 X70.628 Y59.529 E15.79203
G1 X70.064 Y59.498 E15.81081
G1 X68.145 Y59.287 E15.87502
G1 X62.736 Y58.901 E16.05539
G1 X57.385 Y58.821 E16.23338
G1 X52.028 Y59.045 E16.41171
G1 X46.808 Y59.521 E16.58605
G1 X46.326 Y59.542 E16.6021
G1 X41.665 Y59.533 E16.75712
G1 X41.022 Y59.492 E16.77855
G1 X40.388 Y59.371 E16.80002
G1 X39.775 Y59.173 E16.82144
G1 X39.19 Y58.901 E16.8429
G1 X38.644 Y58.558 E16.86435
G1 X38.145 Y58.151 E16.88577
G1 X37.699 Y57.685 E16.90722
G1 X37.315 Y57.167 E16.92867
G1 X36.998 Y56.606 E16.9501
G1 X36.753 Y56.01 E16.97153
G1 X36.583 Y55.388 E16.99298
G1 X36.492 Y54.75 E17.01441
G1 X36.475 Y54.333 E17.02829
G1 X36.475 Y40.351 E17.49334
G1 X36.515 Y39.708 E17.51476
G1 X36.634 Y39.074 E17.53622
G1 X36.831 Y38.46 E17.55767
G1 X37.102 Y37.875 E17.57911
G1 X37.444 Y37.328 E17.60057
G1 X37.85 Y36.828 E17.62199
M204 S5000
M205 X30 Y30
G1 F2400 E12.62199
G0 F3600 X47.319 Y39.689
G0 X47.319 Y41.689
G0 X46.052 Y42.956
G0 X71.336 Y51.672
G0 X71.266 Y51.742
M204 S500
M205 X20 Y20
;TYPE:WALL-INNER
G1 F2400 E17.62199
G1 F1800 X46.066 Y51.742 E18.46014
G1 X46.066 Y53.742 E18.52666
G1 X42.266 Y53.742 E18.65305
G1 X42.266 Y40.942 E19.07878
G1 X46.066 Y40.942 E19.20517
G1 X46.066 Y42.942 E19.27169
G1 X71.266 Y42.942 E20.10985
G1 X71.266 Y40.942 E20.17637
G1 X75.066 Y40.942 E20.30275
G1 X75.066 Y53.742 E20.72848
G1 X71.266 Y53.742 E20.85487
G1 X71.266 Y51.742 E20.92139
M204 S5000
M205 X30 Y30
G0 F3600 X70.866 Y52.142
M204 S500
M205 X20 Y20
;TYPE:WALL-OUTER
G1 F1800 X46.466 Y52.142 E21.73294
G1 X46.466 Y54.142 E21.79946
G1 X41.866 Y54.142 E21.95246
G1 X41.866 Y40.542 E22.40479
G1 X46.466 Y40.542 E22.55779
G1 X46.466 Y42.542 E22.62431
G1 X70.866 Y42.542 E23.43586
G1 X70.866 Y40.542 E23.50238
G1 X75.466 Y40.542 E23.65538
G1 X75.466 Y54.142 E24.10771
G1 X70.866 Y54.142 E24.26071
G1 X70.866 Y52.142 E24.32723
M204 S5000
M205 X30 Y30
G0 F3600 X70.666 Y52.142
G0 X70.666 Y51.642
G0 X71.656 Y51.352
M204 S500
M205 X20 Y20
;TYPE:SKIN
G1 F1800 X45.676 Y51.352 E25.19133
G1 X45.676 Y53.352 E25.25785
G1 X42.656 Y53.352 E25.35829
G1 X42.656 Y41.332 E25.75808
G1 X45.676 Y41.332 E25.85853
G1 X45.676 Y43.332 E25.92505
G1 X71.656 Y43.332 E26.78915
G1 X71.656 Y41.332 E26.85567
G1 X74.676 Y41.332 E26.95611
G1 X74.676 Y53.352 E27.3559
G1 X71.656 Y53.352 E27.45634
G1 X71.656 Y51.352 E27.52286
M204 S5000
M205 X30 Y30
G0 F3600 X70.676 Y47.352
M204 S500
M205 X20 Y20
G1 F1800 X46.656 Y47.352 E28.32177
G1 X46.656 Y47.332 E28.32244
G1 X70.676 Y47.332 E29.12135
G1 X70.676 Y47.352 E29.12201
M204 S5000
M205 X30 Y30
G0 F3600 X71.076 Y47.752
M204 S500
M205 X20 Y20
G1 F1800 X46.256 Y47.752 E29.94753
G1 X46.256 Y46.932 E29.9748
G1 X71.076 Y46.932 E30.80032
G1 X71.076 Y47.752 E30.82759
M204 S5000
M205 X30 Y30
G0 F3600 X71.476 Y48.152
M204 S500
M205 X20 Y20
G1 F1800 X45.856 Y48.152 E31.67972
G1 X45.856 Y46.532 E31.7336
G1 X71.476 Y46.532 E32.58572
G1 X71.476 Y48.152 E32.6396
M204 S5000
M205 X30 Y30
G0 F3600 X71.876 Y48.552
M204 S500
M205 X20 Y20
G1 F1800 X45.456 Y48.552 E33.51834
G1 X45.456 Y46.132 E33.59883
G1 X71.876 Y46.132 E34.47756
G1 X71.876 Y48.552 E34.55805
M204 S5000
M205 X30 Y30
G0 F3600 X72.276 Y48.952
M204 S500
M205 X20 Y20
G1 F1800 X45.056 Y48.952 E35.46339
G1 X45.056 Y45.732 E35.57049
G1 X72.276 Y45.732 E36.47583
G1 X72.276 Y48.952 E36.58293
M204 S5000
M205 X30 Y30
G0 F3600 X72.676 Y49.352
M204 S500
M205 X20 Y20
G1 F1800 X44.656 Y49.352 E37.51487
G1 X44.656 Y45.332 E37.64858
G1 X72.676 Y45.332 E38.58053
G1 X72.676 Y49.352 E38.71423
M204 S5000
M205 X30 Y30
G0 F3600 X73.076 Y49.752
M204 S500
M205 X20 Y20
G1 F1800 X44.256 Y49.752 E39.67279
G1 X44.256 Y44.932 E39.83311
G1 X73.076 Y44.932 E40.79166
G1 X73.076 Y49.752 E40.95198
M204 S5000
M205 X30 Y30
G0 F3600 X72.856 Y50.152
M204 S500
M205 X20 Y20
G1 F1800 X44.476 Y50.152 E41.8959
G1 X44.476 Y52.152 E41.96242
G1 X43.856 Y52.152 E41.98304
G1 X43.856 Y42.532 E42.303
G1 X44.476 Y42.532 E42.32362
G1 X44.476 Y44.532 E42.39014
G1 X72.856 Y44.532 E43.33407
G1 X72.856 Y42.532 E43.40059
G1 X73.476 Y42.532 E43.42121
G1 X73.476 Y52.152 E43.74117
G1 X72.856 Y52.152 E43.76179
G1 X72.856 Y50.152 E43.82831
M204 S5000
M205 X30 Y30
G0 F3600 X72.456 Y50.552
M204 S500
M205 X20 Y20
G1 F1800 X44.876 Y50.552 E44.74563
G1 X44.876 Y52.552 E44.81215
G1 X43.456 Y52.552 E44.85938
G1 X43.456 Y42.132 E45.20595
G1 X44.876 Y42.132 E45.25318
G1 X44.876 Y44.132 E45.3197
G1 X72.456 Y44.132 E46.23701
G1 X72.456 Y42.132 E46.30353
G1 X73.876 Y42.132 E46.35076
G1 X73.876 Y52.552 E46.69733
G1 X72.456 Y52.552 E46.74456
G1 X72.456 Y50.552 E46.81108
M204 S5000
M205 X30 Y30
G0 F3600 X72.056 Y50.952
M204 S500
M205 X20 Y20
G1 F1800 X45.276 Y50.952 E47.70179
G1 X45.276 Y52.952 E47.76831
G1 X43.056 Y52.952 E47.84215
G1 X43.056 Y41.732 E48.21532
G1 X45.276 Y41.732 E48.28916
G1 X45.276 Y43.732 E48.35568
G1 X72.056 Y43.732 E49.24639
G1 X72.056 Y41.732 E49.31291
G1 X74.276 Y41.732 E49.38675
G1 X74.276 Y52.952 E49.75993
G1 X72.056 Y52.952 E49.83376
G1 X72.056 Y50.952 E49.90028
M204 S5000
M205 X30 Y30
G0 F3600 X71.336 Y51.672
G0 X71.266 Y51.742
;TIME_ELAPSED:61.315631
;LAYER:1
M140 S60
M106 S255
G0 F5400 X71.266 Y51.742 Z0.4
M204 S500
M205 X20 Y20
;TYPE:WALL-INNER
G1 F2700 X46.066 Y51.742 E50.73844
G1 X46.066 Y53.742 E50.80496
G1 X42.266 Y53.742 E50.93135
G1 X42.266 Y40.942 E51.35708
G1 X46.066 Y40.942 E51.48347
G1 X46.066 Y42.942 E51.54999
G1 X71.266 Y42.942 E52.38814
G1 X71.266 Y40.942 E52.45466
G1 X75.066 Y40.942 E52.58105
G1 X75.066 Y53.742 E53.00678
G1 X71.266 Y53.742 E53.13317
G1 X71.266 Y51.742 E53.19969
M204 S5000
M205 X30 Y30
G0 F5400 X70.866 Y52.142
M204 S500
M205 X20 Y20
;TYPE:WALL-OUTER
G1 F1800 X46.466 Y52.142 E54.01124
G1 X46.466 Y54.142 E54.07776
G1 X41.866 Y54.142 E54.23075
G1 X41.866 Y40.542 E54.68309
G1 X46.466 Y40.542 E54.83609
G1 X46.466 Y42.542 E54.90261
G1 X70.866 Y42.542 E55.71415
G1 X70.866 Y40.542 E55.78068
G1 X75.466 Y40.542 E55.93367
G1 X75.466 Y54.142 E56.38601
G1 X70.866 Y54.142 E56.53901
G1 X70.866 Y52.142 E56.60553
M204 S5000
M205 X30 Y30
G0 F5400 X70.666 Y52.142
G0 X70.666 Y51.642
G0 X71.656 Y51.352
M204 S500
M205 X20 Y20
;TYPE:SKIN
G1 F1800 X45.676 Y51.352 E57.46962
G1 X45.676 Y53.352 E57.53615
G1 X42.656 Y53.352 E57.63659
G1 X42.656 Y41.332 E58.03638
G1 X45.676 Y41.332 E58.13682
G1 X45.676 Y43.332 E58.20334
G1 X71.656 Y43.332 E59.06744
G1 X71.656 Y41.332 E59.13396
G1 X74.676 Y41.332 E59.23441
G1 X74.676 Y53.352 E59.63419
G1 X71.656 Y53.352 E59.73464
G1 X71.656 Y51.352 E59.80116
M204 S5000
M205 X30 Y30
G0 F5400 X70.676 Y47.352
M204 S500
M205 X20 Y20
G1 F1800 X46.656 Y47.352 E60.60007
G1 X46.656 Y47.332 E60.60073
G1 X70.676 Y47.332 E61.39964
G1 X70.676 Y47.352 E61.40031
M204 S5000
M205 X30 Y30
G0 F5400 X71.076 Y47.752
M204 S500
M205 X20 Y20
G1 F1800 X46.256 Y47.752 E62.22582
G1 X46.256 Y46.932 E62.2531
G1 X71.076 Y46.932 E63.07861
G1 X71.076 Y47.752 E63.10589
M204 S5000
M205 X30 Y30
G0 F5400 X71.476 Y48.152
M204 S500
M205 X20 Y20
G1 F1800 X45.856 Y48.152 E63.95801
G1 X45.856 Y46.532 E64.01189
G1 X71.476 Y46.532 E64.86402
G1 X71.476 Y48.152 E64.9179
M204 S5000
M205 X30 Y30
G0 F5400 X71.876 Y48.552
M204 S500
M205 X20 Y20
G1 F1800 X45.456 Y48.552 E65.79663
G1 X45.456 Y46.132 E65.87712
G1 X71.876 Y46.132 E66.75585
G1 X71.876 Y48.552 E66.83634
M204 S5000
M205 X30 Y30
G0 F5400 X72.276 Y48.952
M204 S500
M205 X20 Y20
G1 F1800 X45.056 Y48.952 E67.74169
G1 X45.056 Y45.732 E67.84878
G1 X72.276 Y45.732 E68.75412
G1 X72.276 Y48.952 E68.86122
M204 S5000
M205 X30 Y30
G0 F5400 X72.676 Y49.352
M204 S500
M205 X20 Y20
G1 F1800 X44.656 Y49.352 E69.79317
G1 X44.656 Y45.332 E69.92688
G1 X72.676 Y45.332 E70.85882
G1 X72.676 Y49.352 E70.99253
M204 S5000
M205 X30 Y30
G0 F5400 X73.076 Y49.752
M204 S500
M205 X20 Y20
G1 F1800 X44.256 Y49.752 E71.95109
G1 X44.256 Y44.932 E72.1114
G1 X73.076 Y44.932 E73.06996
G1 X73.076 Y49.752 E73.23027
M204 S5000
M205 X30 Y30
G0 F5400 X72.856 Y50.152
M204 S500
M205 X20 Y20
G1 F1800 X44.476 Y50.152 E74.1742
