;FLAVOR:Marlin
;TIME:464
;Filament used: 0.265715m
;Layer height: 0.1
;Generated with Cura_SteamEngine 3.3.1
M190 S60
M104 S220
M109 S220
M82 ;absolute extrusion mode
G28 ;Home
G1 Z15.0 F6000 ;Move the platform down 15mm
;Prime the extruder
G92 E0
G1 F200 E3
G92 E0
G92 E0
G1 F2400 E-5
;LAYER_COUNT:50
;LAYER:0
M107
M204 S5000
M205 X30 Y30
G0 F3600 X116.503 Y144.017 Z0.2
M204 S500
M205 X20 Y20
;TYPE:SKIRT
G1 F2400 E0
G1 F1800 X117.085 Y143.602 E0.02377
G1 X117.71 Y143.253 E0.04758
G1 X118.37 Y142.977 E0.07138
G1 X119.056 Y142.776 E0.09515
G1 X119.761 Y142.653 E0.11896
G1 X120.509 Y142.609 E0.14388
G1 X179.491 Y142.61 E2.10563
G1 X180.205 Y142.65 E2.12941
G1 X180.91 Y142.769 E2.15319
G1 X181.598 Y142.967 E2.177
G1 X182.259 Y143.24 E2.20079
G1 X182.886 Y143.585 E2.22459
G1 X183.47 Y143.997 E2.24836
G1 X184.004 Y144.473 E2.27216
G1 X184.483 Y145.004 E2.29594
G1 X184.898 Y145.586 E2.31972
G1 X185.247 Y146.211 E2.34352
G1 X185.523 Y146.871 E2.36732
G1 X185.724 Y147.557 E2.39109
G1 X185.847 Y148.262 E2.4149
G1 X185.891 Y149.01 E2.43982
G1 X185.891 Y150.991 E2.50571
G1 X185.851 Y151.705 E2.52949
G1 X185.732 Y152.41 E2.55327
G1 X185.534 Y153.098 E2.57708
G1 X185.261 Y153.759 E2.60087
G1 X184.917 Y154.386 E2.62466
G1 X184.504 Y154.97 E2.64845
G1 X184.029 Y155.504 E2.67222
G1 X183.497 Y155.983 E2.69603
G1 X182.915 Y156.398 E2.7198
G1 X182.29 Y156.747 E2.74361
G1 X181.63 Y157.023 E2.7674
G1 X180.944 Y157.224 E2.79118
G1 X180.239 Y157.347 E2.81498
G1 X179.491 Y157.391 E2.8399
G1 X120.509 Y157.391 E4.80165
G1 X119.795 Y157.351 E4.82544
G1 X119.09 Y157.232 E4.84922
G1 X118.402 Y157.034 E4.87303
G1 X117.741 Y156.761 E4.89682
G1 X117.114 Y156.417 E4.9206
G1 X116.53 Y156.004 E4.94439
G1 X115.996 Y155.529 E4.96816
G1 X115.517 Y154.997 E4.99197
G1 X115.102 Y154.415 E5.01575
G1 X114.753 Y153.79 E5.03956
G1 X114.477 Y153.13 E5.06335
G1 X114.276 Y152.444 E5.08713
G1 X114.153 Y151.739 E5.11093
G1 X114.109 Y150.991 E5.13585
G1 X114.109 Y149.009 E5.20177
G1 X114.149 Y148.295 E5.22556
G1 X114.268 Y147.59 E5.24934
G1 X114.466 Y146.902 E5.27315
G1 X114.739 Y146.241 E5.29694
G1 X115.083 Y145.614 E5.32072
G1 X115.496 Y145.03 E5.34451
G1 X115.971 Y144.496 E5.36828
G1 X116.503 Y144.017 E5.39209
M204 S5000
M205 X30 Y30
G0 F3600 X116.893 Y144.221
M204 S500
M205 X20 Y20
G1 F1800 X117.468 Y143.836 E5.41511
G1 X118.085 Y143.521 E5.43815
G1 X118.733 Y143.278 E5.46117
G1 X119.406 Y143.111 E5.48423
G1 X120.092 Y143.023 E5.50723
G1 X120.509 Y143.009 E5.52111
G1 X179.491 Y143.01 E7.48286
G1 X180.182 Y143.05 E7.50588
G1 X180.865 Y143.169 E7.52894
G1 X181.529 Y143.367 E7.55199
G1 X182.165 Y143.639 E7.57499
G1 X182.766 Y143.983 E7.59803
G1 X183.324 Y144.394 E7.62108
G1 X183.83 Y144.866 E7.64409
G1 X184.279 Y145.394 E7.66714
G1 X184.664 Y145.97 E7.69019
G1 X184.979 Y146.586 E7.7132
G1 X185.222 Y147.234 E7.73622
G1 X185.389 Y147.907 E7.75928
G1 X185.477 Y148.594 E7.78232
G1 X185.491 Y149.01 E7.79616
G1 X185.491 Y150.991 E7.86205
G1 X185.451 Y151.682 E7.88507
G1 X185.332 Y152.365 E7.90813
G1 X185.134 Y153.028 E7.93114
G1 X184.862 Y153.665 E7.95418
G1 X184.518 Y154.266 E7.97721
G1 X184.107 Y154.824 E8.00026
G1 X183.635 Y155.33 E8.02328
G1 X183.107 Y155.779 E8.04633
G1 X182.532 Y156.164 E8.06935
G1 X181.915 Y156.479 E8.09239
G1 X181.267 Y156.722 E8.1154
G1 X180.594 Y156.889 E8.13847
G1 X179.908 Y156.977 E8.16147
G1 X179.491 Y156.991 E8.17535
G1 X120.509 Y156.991 E10.1371
G1 X119.818 Y156.951 E10.16012
G1 X119.135 Y156.832 E10.18318
G1 X118.472 Y156.634 E10.20619
G1 X117.835 Y156.362 E10.22923
G1 X117.234 Y156.018 E10.25226
G1 X116.676 Y155.607 E10.27531
G1 X116.17 Y155.135 E10.29833
G1 X115.721 Y154.607 E10.32138
G1 X115.336 Y154.032 E10.34439
G1 X115.021 Y153.415 E10.36744
G1 X114.778 Y152.767 E10.39045
G1 X114.611 Y152.094 E10.41352
G1 X114.523 Y151.408 E10.43652
G1 X114.509 Y150.991 E10.4504
G1 X114.509 Y149.009 E10.51632
G1 X114.549 Y148.318 E10.53934
G1 X114.668 Y147.635 E10.5624
G1 X114.866 Y146.972 E10.58541
G1 X115.138 Y146.335 E10.60845
G1 X115.482 Y145.734 E10.63148
G1 X115.893 Y145.176 E10.65453
G1 X116.365 Y144.67 E10.67755
G1 X116.893 Y144.221 E10.7006
M204 S5000
M205 X30 Y30
G0 F3600 X116.758 Y144.851
M204 S500
M205 X20 Y20
G1 F1800 X117.28 Y144.433 E10.72284
G1 X117.849 Y144.081 E10.7451
G1 X118.456 Y143.799 E10.76736
G1 X119.092 Y143.591 E10.78961
G1 X119.748 Y143.461 E10.81186
G1 X120.509 Y143.409 E10.83723
G1 X179.491 Y143.41 E12.79898
G1 X180.159 Y143.45 E12.82123
G1 X180.817 Y143.569 E12.84347
G1 X181.457 Y143.766 E12.86575
G1 X182.068 Y144.038 E12.88799
G1 X182.642 Y144.381 E12.91023
G1 X183.172 Y144.79 E12.9325
G1 X183.649 Y145.259 E12.95475
G1 X184.067 Y145.782 E12.97701
G1 X184.419 Y146.35 E12.99924
G1 X184.701 Y146.957 E13.0215
G1 X184.909 Y147.593 E13.04376
G1 X185.039 Y148.249 E13.066
G1 X185.091 Y149.01 E13.09137
G1 X185.091 Y150.991 E13.15726
G1 X185.051 Y151.659 E13.17952
G1 X184.932 Y152.317 E13.20176
G1 X184.735 Y152.957 E13.22403
G1 X184.463 Y153.568 E13.24627
G1 X184.12 Y154.142 E13.26851
G1 X183.711 Y154.672 E13.29078
G1 X183.242 Y155.149 E13.31303
G1 X182.72 Y155.567 E13.33527
G1 X182.151 Y155.919 E13.35752
G1 X181.544 Y156.201 E13.37979
G1 X180.908 Y156.409 E13.40204
G1 X180.252 Y156.539 E13.42428
G1 X179.491 Y156.591 E13.44965
G1 X120.509 Y156.591 E15.4114
G1 X119.841 Y156.551 E15.43366
G1 X119.183 Y156.432 E15.4559
G1 X118.543 Y156.235 E15.47817
G1 X117.932 Y155.963 E15.50042
G1 X117.358 Y155.62 E15.52266
G1 X116.828 Y155.211 E15.54492
G1 X116.351 Y154.742 E15.56717
G1 X115.933 Y154.22 E15.58942
G1 X115.581 Y153.651 E15.61167
G1 X115.299 Y153.044 E15.63393
G1 X115.091 Y152.408 E15.65619
G1 X114.961 Y151.752 E15.67843
G1 X114.909 Y150.991 E15.7038
G1 X114.909 Y149.009 E15.76972
G1 X114.949 Y148.341 E15.79198
G1 X115.068 Y147.683 E15.81422
G1 X115.265 Y147.043 E15.83649
G1 X115.537 Y146.432 E15.85874
G1 X115.88 Y145.858 E15.88098
G1 X116.289 Y145.328 E15.90324
G1 X116.758 Y144.851 E15.92549
M204 S5000
M205 X30 Y30
G0 F3600 X117.149 Y145.04
M204 S500
M205 X20 Y20
G1 F1800 X117.666 Y144.655 E15.94693
G1 X118.227 Y144.336 E15.9684
G1 X118.823 Y144.09 E15.98984
G1 X119.444 Y143.919 E16.01126
G1 X120.082 Y143.827 E16.0327
G1 X120.509 Y143.809 E16.04692
G1 X179.491 Y143.81 E18.00867
G1 X180.135 Y143.85 E18.03013
G1 X180.768 Y143.969 E18.05155
G1 X181.382 Y144.166 E18.073
G1 X181.967 Y144.437 E18.09444
G1 X182.514 Y144.779 E18.1159
G1 X183.014 Y145.185 E18.13732
G1 X183.46 Y145.651 E18.15877
G1 X183.845 Y146.167 E18.18019
G1 X184.164 Y146.728 E18.20165
G1 X184.41 Y147.324 E18.2231
G1 X184.581 Y147.945 E18.24452
G1 X184.673 Y148.583 E18.26596
G1 X184.691 Y149.01 E18.28017
G1 X184.691 Y150.991 E18.34606
G1 X184.651 Y151.634 E18.36749
G1 X184.532 Y152.268 E18.38895
G1 X184.335 Y152.882 E18.41039
G1 X184.064 Y153.467 E18.43184
G1 X183.722 Y154.014 E18.45329
G1 X183.316 Y154.514 E18.47472
G1 X182.851 Y154.96 E18.49615
G1 X182.334 Y155.345 E18.51758
G1 X181.773 Y155.664 E18.53905
G1 X181.177 Y155.91 E18.56049
G1 X180.556 Y156.081 E18.58192
G1 X179.918 Y156.173 E18.60336
G1 X179.491 Y156.191 E18.61757
G1 X120.509 Y156.191 E20.57932
G1 X119.866 Y156.151 E20.60075
G1 X119.232 Y156.032 E20.6222
G1 X118.618 Y155.835 E20.64365
G1 X118.033 Y155.564 E20.66509
G1 X117.486 Y155.222 E20.68655
G1 X116.986 Y154.816 E20.70797
G1 X116.54 Y154.351 E20.7294
G1 X116.155 Y153.834 E20.75084
G1 X115.836 Y153.273 E20.77231
G1 X115.59 Y152.677 E20.79375
G1 X115.419 Y152.056 E20.81518
G1 X115.327 Y151.418 E20.83662
G1 X115.309 Y150.991 E20.85083
G1 X115.309 Y149.009 E20.91675
G1 X115.349 Y148.366 E20.93818
G1 X115.468 Y147.732 E20.95963
G1 X115.665 Y147.118 E20.98108
G1 X115.936 Y146.533 E21.00253
G1 X116.278 Y145.986 E21.02398
G1 X116.684 Y145.486 E21.0454
G1 X117.149 Y145.04 E21.06683
M204 S5000
M205 X30 Y30
G1 F2400 E16.06683
G0 F3600 X121.114 Y148.335
G0 X121.114 Y149.614
G0 X178.83 Y150.33
G0 X178.9 Y150.4
M204 S500
M205 X20 Y20
;TYPE:WALL-INNER
G1 F2400 E21.06683
G1 F1800 X121.1 Y150.4 E22.98927
G1 X121.1 Y149.6 E23.01588
G1 X178.9 Y149.6 E24.93831
G1 X178.9 Y150.4 E24.96492
M204 S5000
M205 X30 Y30
G0 F3600 X179.3 Y150.8
M204 S500
M205 X20 Y20
;TYPE:WALL-OUTER
G1 F1800 X120.7 Y150.8 E26.91397
G1 X120.7 Y149.2 E26.96718
G1 X179.3 Y149.2 E28.91623
G1 X179.3 Y150.8 E28.96944
M204 S5000
M205 X30 Y30
G0 F3600 X179.1 Y150.8
G0 X178.83 Y150.33
G0 X178.51 Y150.01
M204 S500
M205 X20 Y20
;TYPE:SKIN
G1 F1800 X121.49 Y150.01 E30.86594
G1 X121.49 Y149.99 E30.8666
G1 X178.51 Y149.99 E32.76309
G1 X178.51 Y150.01 E32.76376
M204 S5000
M205 X30 Y30
G0 F3600 X178.5 Y150
G0 X178.9 Y150.4
;TIME_ELAPSED:43.148044
;LAYER:1
M140 S60
M106 S255
G0 F5400 X178.9 Y150.4 Z0.3
M204 S500
M205 X20 Y20
;TYPE:WALL-INNER
G1 F2700 X121.1 Y150.4 E33.72498
G1 X121.1 Y149.6 E33.73828
G1 X178.9 Y149.6 E34.6995
G1 X178.9 Y150.4 E34.7128
M204 S5000
M205 X30 Y30
G0 F5400 X179.3 Y150.8
M204 S500
M205 X20 Y20
;TYPE:WALL-OUTER
G1 F1800 X120.7 Y150.8 E35.68732
G1 X120.7 Y149.2 E35.71393
G1 X179.3 Y149.2 E36.68845
G1 X179.3 Y150.8 E36.71506
M204 S5000
M205 X30 Y30
G0 F5400 X179.1 Y150.8
G0 X178.83 Y150.33
G0 X178.477 Y150.185
G0 X178.58 Y150.081
G1 F1800 X178.38 Y149.999 E36.71845
G1 X178.097 Y149.999 E36.72282
G1 X177.814 Y149.999 E36.72718
G1 X177.531 Y149.999 E36.73155
G1 X177.249 Y149.999 E36.7359
G1 X176.966 Y149.999 E36.74026
G1 X176.683 Y149.999 E36.74463
G1 X176.4 Y149.999 E36.74899
G1 X176.117 Y149.999 E36.75336
G1 X175.834 Y149.999 E36.75772
G1 X175.551 Y149.999 E36.76209
G1 X175.269 Y149.999 E36.76644
G1 X174.986 Y149.999 E36.7708
G1 X174.703 Y149.999 E36.77517
G1 X174.42 Y149.999 E36.77953
G1 X174.137 Y149.999 E36.7839
G1 X173.854 Y149.999 E36.78826
G1 X173.572 Y149.999 E36.79261
G1 X173.289 Y149.999 E36.79698
G1 X173.006 Y149.999 E36.80134
G1 X172.723 Y149.999 E36.80571
G1 X172.44 Y149.999 E36.81007
G1 X172.157 Y149.999 E36.81444
G1 X171.875 Y149.999 E36.81879
G1 X171.592 Y149.999 E36.82315
G1 X171.309 Y149.999 E36.82752
G1 X171.026 Y149.999 E36.83188
G1 X170.743 Y149.999 E36.83625
G1 X170.46 Y149.999 E36.84061
G1 X170.177 Y149.999 E36.84498
G1 X169.895 Y149.999 E36.84933
G1 X169.612 Y149.999 E36.85369
G1 X169.329 Y149.999 E36.85806
G1 X169.046 Y149.999 E36.86242
G1 X168.763 Y149.999 E36.86679
G1 X168.48 Y149.999 E36.87115
G1 X168.198 Y149.999 E36.8755
G1 X167.915 Y149.999 E36.87987
G1 X167.632 Y149.999 E36.88423
G1 X167.349 Y149.999 E36.8886
G1 X167.066 Y149.999 E36.89296
G1 X166.783 Y149.999 E36.89733
G1 X166.5 Y149.999 E36.90169
G1 X166.218 Y149.999 E36.90604
G1 X165.935 Y149.999 E36.91041
G1 X165.652 Y149.999 E36.91477
G1 X165.369 Y149.999 E36.91914
G1 X165.086 Y149.999 E36.9235
G1 X164.803 Y149.999 E36.92787
G1 X164.521 Y149.999 E36.93222
G1 X164.238 Y149.999 E36.93658
G1 X163.955 Y149.999 E36.94095
G1 X163.672 Y149.999 E36.94531
G1 X163.389 Y149.999 E36.94968
G1 X163.106 Y149.999 E36.95404
G1 X162.824 Y149.999 E36.95839
G1 X162.541 Y149.999 E36.96276
G1 X162.258 Y149.999 E36.96712
G1 X161.975 Y149.999 E36.97149
G1 X161.692 Y149.999 E36.97585
G1 X161.409 Y149.999 E36.98022
G1 X161.126 Y149.999 E36.98458
G1 X160.844 Y149.999 E36.98893
G1 X160.561 Y149.999 E36.9933
G1 X160.278 Y149.999 E36.99766
G1 X159.995 Y149.999 E37.00203
G1 X159.712 Y149.999 E37.00639
G1 X159.429 Y149.999 E37.01076
G1 X159.147 Y149.999 E37.01511
G1 X158.864 Y149.999 E37.01947
G1 X158.581 Y149.999 E37.02384
G1 X158.298 Y149.999 E37.0282
G1 X158.015 Y149.999 E37.03257
G1 X157.732 Y149.999 E37.03693
G1 X157.45 Y149.999 E37.04128
G1 X157.167 Y149.999 E37.04565
G1 X156.884 Y149.999 E37.05001
G1 X156.601 Y149.999 E37.05438
G1 X156.318 Y149.999 E37.05874
G1 X156.035 Y149.999 E37.06311
G1 X155.752 Y149.999 E37.06747
G1 X155.47 Y149.999 E37.07182
G1 X155.187 Y149.999 E37.07619
G1 X154.904 Y149.999 E37.08055
G1 X154.621 Y149.999 E37.08492
G1 X154.338 Y149.999 E37.08928
G1 X154.055 Y149.999 E37.09365
G1 X153.773 Y149.999 E37.098
G1 X153.49 Y149.999 E37.10236
G1 X153.207 Y149.999 E37.10673
G1 X152.924 Y149.999 E37.11109
G1 X152.641 Y149.999 E37.11546
G1 X152.358 Y149.999 E37.11982
G1 X152.076 Y149.999 E37.12417
G1 X151.793 Y149.999 E37.12854
G1 X151.51 Y149.999 E37.1329
G1 X151.227 Y149.999 E37.13727
G1 X150.944 Y149.999 E37.14163
G1 X150.661 Y149.999 E37.146
G1 X150.378 Y149.999 E37.15036
G1 X150.096 Y149.999 E37.15471
G1 X149.813 Y149.999 E37.15908
G1 X149.53 Y149.999 E37.16344
G1 X149.247 Y149.999 E37.16781
G1 X148.964 Y149.999 E37.17217
G1 X148.681 Y149.999 E37.17654
G1 X148.399 Y149.999 E37.18089
G1 X148.116 Y149.999 E37.18525
G1 X147.833 Y149.999 E37.18962
G1 X147.55 Y149.999 E37.19398
G1 X147.267 Y149.999 E37.19835
G1 X146.984 Y149.999 E37.20271
G1 X146.701 Y149.999 E37.20708
G1 X146.419 Y149.999 E37.21143
G1 X146.136 Y149.999 E37.21579
G1 X145.853 Y149.999 E37.22016
G1 X145.57 Y149.999 E37.22452
G1 X145.287 Y149.999 E37.22889
G1 X145.004 Y149.999 E37.23325
G1 X144.722 Y149.999 E37.2376
G1 X144.439 Y149.999 E37.24197
G1 X144.156 Y149.999 E37.24633
G1 X143.873 Y149.999 E37.2507
G1 X143.59 Y149.999 E37.25506
G1 X143.307 Y149.999 E37.25943
G1 X143.025 Y149.999 E37.26378
G1 X142.742 Y149.999 E37.26814
G1 X142.459 Y149.999 E37.27251
G1 X142.176 Y149.999 E37.27687
G1 X141.893 Y149.999 E37.28124
G1 X141.61 Y149.999 E37.28561
G1 X141.327 Y149.999 E37.28997
G1 X141.045 Y149.999 E37.29432
G1 X140.762 Y149.999 E37.29869
G1 X140.479 Y149.999 E37.30305
G1 X140.196 Y149.999 E37.30742
G1 X139.913 Y149.999 E37.31178
G1 X139.63 Y149.999 E37.31615
G1 X139.348 Y149.999 E37.3205
G1 X139.065 Y149.999 E37.32486
G1 X138.782 Y149.999 E37.32923
G1 X138.499 Y149.999 E37.33359
G1 X138.216 Y149.999 E37.33796
G1 X137.933 Y149.999 E37.34232
G1 X137.651 Y149.999 E37.34667
G1 X137.368 Y149.999 E37.35104
G1 X137.085 Y149.999 E37.3554
G1 X136.802 Y149.999 E37.35977
G1 X136.519 Y149.999 E37.36413
G1 X136.236 Y149.999 E37.3685
G1 X135.953 Y149.999 E37.37286
G1 X135.671 Y149.999 E37.37721
G1 X135.388 Y149.999 E37.38158
G1 X135.105 Y149.999 E37.38594
G1 X134.822 Y149.999 E37.39031
G1 X134.539 Y149.999 E37.39467
G1 X134.256 Y149.999 E37.39904
G1 X133.974 Y149.999 E37.40339
G1 X133.691 Y149.999 E37.40775
G1 X133.408 Y149.999 E37.41212
G1 X133.125 Y149.999 E37.41648
G1 X132.842 Y149.999 E37.42085
G1 X132.559 Y149.999 E37.42521
G1 X132.277 Y149.999 E37.42956
G1 X131.994 Y149.999 E37.43393
G1 X131.711 Y149.999 E37.43829
G1 X131.428 Y149.999 E37.44266
G1 X131.145 Y149.999 E37.44702
G1 X130.862 Y149.999 E37.45139
G1 X130.579 Y149.999 E37.45575
G1 X130.297 Y149.999 E37.4601
G1 X130.014 Y149.999 E37.46447
G1 X129.731 Y149.999 E37.46883
G1 X129.448 Y149.999 E37.4732
G1 X129.165 Y149.999 E37.47756
G1 X128.882 Y149.999 E37.48193
G1 X128.6 Y149.999 E37.48628
G1 X128.317 Y149.999 E37.49064
G1 X128.034 Y149.999 E37.49501
G1 X127.751 Y149.999 E37.49937
G1 X127.468 Y149.999 E37.50374
G1 X127.185 Y149.999 E37.5081
G1 X126.903 Y149.999 E37.51245
G1 X126.62 Y149.999 E37.51682
G1 X126.337 Y149.999 E37.52118
G1 X126.054 Y149.999 E37.52555
G1 X125.771 Y149.999 E37.52991
G1 X125.488 Y149.999 E37.53428
G1 X125.205 Y149.999 E37.53864
G1 X124.923 Y149.999 E37.54299
G1 X124.64 Y149.999 E37.54736
G1 X124.357 Y149.999 E37.55172
G1 X124.074 Y149.999 E37.55609
G1 X123.791 Y149.999 E37.56045
G1 X123.508 Y149.999 E37.56482
G1 X123.226 Y149.999 E37.56917
G1 X122.943 Y149.999 E37.57353
G1 X122.66 Y149.999 E37.5779
G1 X122.377 Y149.999 E37.58226
G1 X122.094 Y149.999 E37.58663
G1 X121.811 Y149.999 E37.59099
G1 X121.528 Y149.999 E37.59536
G1 X121.373 Y149.872 E37.59822
G0 F5400 X121.5 Y150
G0 X178.83 Y150.33
G0 X178.9 Y150.4
;TIME_ELAPSED:52.636470
;LAYER:2
G0 F7200 X178.9 Y150.4 Z0.4
M204 S500
M205 X20 Y20
;TYPE:WALL-INNER
G1 F3600 X121.1 Y150.4 E38.55944
G1 X121.1 Y149.6 E38.57275
G1 X178.9 Y149.6 E39.53396
G1 X178.9 Y150.4 E39.54727
M204 S5000
M205 X30 Y30
G0 F7200 X179.3 Y150.8
M204 S500
M205 X20 Y20
;TYPE:WALL-OUTER
G1 F1800 X120.7 Y150.8 E40.52179
G1 X120.7 Y149.2 E40.5484
G1 X179.3 Y149.2 E41.52292
G1 X179.3 Y150.8 E41.54953
M204 S5000
M205 X30 Y30
G0 F7200 X179.1 Y150.8
G0 X178.532 Y149.965
G1 F1800 X178.283 Y149.999 E41.55348
G1 X178 Y149.999 E41.55783
G1 X177.718 Y149.999 E41.56217
G1 X177.435 Y149.999 E41.56652
G1 X177.152 Y149.999 E41.57088
