;FLAVOR:Marlin
;TIME:1930
;Filament used: 1.94172m
;Layer height: 0.2
;Generated with Cura_SteamEngine 3.3.1
M190 S70
M104 S240
M109 S240
M82 ;absolute extrusion mode
G28 ;Home
G1 Z15.0 F6000 ;Move the platform down 15mm
;Prime the extruder
G92 E0
G1 F200 E3
G92 E0
G92 E0
G1 F2400 E-5
;LAYER_COUNT:9
;LAYER:0
M107
M204 S5000
M205 X30 Y30
G0 F3600 X115.488 Y95.541 Z0.2
M204 S500
M205 X20 Y20
;TYPE:SKIRT
G1 F2400 E0
G1 F1800 X115.962 Y95.006 E0.02377
G1 X116.493 Y94.526 E0.04758
G1 X117.074 Y94.109 E0.07137
G1 X117.698 Y93.76 E0.09515
G1 X118.357 Y93.482 E0.11894
G1 X119.043 Y93.279 E0.14273
G1 X119.748 Y93.155 E0.16654
G1 X120.51 Y93.109 E0.19193
G1 X179.491 Y93.11 E2.15365
G1 X180.205 Y93.15 E2.17743
G1 X180.91 Y93.269 E2.20121
G1 X181.598 Y93.467 E2.22502
G1 X182.259 Y93.74 E2.24881
G1 X182.886 Y94.085 E2.27261
G1 X183.47 Y94.497 E2.29638
G1 X184.004 Y94.973 E2.32017
G1 X184.483 Y95.504 E2.34396
G1 X184.898 Y96.086 E2.36773
G1 X185.247 Y96.711 E2.39154
G1 X185.523 Y97.371 E2.41534
G1 X185.724 Y98.057 E2.43911
G1 X185.847 Y98.762 E2.46292
G1 X185.891 Y99.555 E2.48933
G1 X185.842 Y106.561 E2.72236
G1 X185.874 Y122.823 E3.26323
G1 X186.022 Y126.606 E3.38915
G1 X186.483 Y131.941 E3.56726
G1 X186.837 Y134.677 E3.65902
G1 X186.89 Y135.533 E3.68754
G1 X186.861 Y140.937 E3.86728
G1 X186.846 Y141.34 E3.8807
G1 X186.526 Y146.011 E4.03642
G1 X186.452 Y151.305 E4.21251
G1 X186.678 Y156.644 E4.39025
G1 X186.87 Y158.997 E4.46877
G1 X186.891 Y159.52 E4.48618
G1 X186.889 Y164.513 E4.65225
G1 X186.852 Y165.193 E4.6749
G1 X186.115 Y172.062 E4.90467
G1 X185.841 Y178.725 E5.12647
G1 X185.89 Y212.482 E6.24924
G1 X185.851 Y213.196 E6.27302
G1 X185.733 Y213.901 E6.29679
G1 X185.536 Y214.589 E6.3206
G1 X185.264 Y215.251 E6.3444
G1 X184.92 Y215.878 E6.36819
G1 X184.509 Y216.463 E6.39197
G1 X184.034 Y216.998 E6.41576
G1 X183.503 Y217.477 E6.43955
G1 X182.921 Y217.893 E6.46334
G1 X182.297 Y218.243 E6.48714
G1 X181.638 Y218.52 E6.51091
G1 X180.952 Y218.722 E6.5347
G1 X180.247 Y218.846 E6.55851
G1 X179.49 Y218.891 E6.58373
G1 X120.509 Y218.891 E8.54544
G1 X119.795 Y218.851 E8.56923
G1 X119.09 Y218.732 E8.59301
G1 X118.402 Y218.534 E8.61682
G1 X117.741 Y218.261 E8.64061
G1 X117.114 Y217.917 E8.66439
G1 X116.53 Y217.504 E8.68818
G1 X115.996 Y217.029 E8.71195
G1 X115.517 Y216.497 E8.73576
G1 X115.102 Y215.915 E8.75954
G1 X114.753 Y215.29 E8.78335
G1 X114.477 Y214.63 E8.80714
G1 X114.276 Y213.944 E8.83092
G1 X114.153 Y213.239 E8.85472
G1 X114.109 Y212.446 E8.88114
G1 X114.159 Y205.366 E9.11662
G1 X114.1 Y172.218 E10.21913
G1 X114.112 Y171.81 E10.23271
G1 X114.473 Y166 E10.42632
G1 X114.548 Y160.695 E10.60278
G1 X114.322 Y155.356 E10.78052
G1 X114.13 Y153.003 E10.85904
G1 X114.109 Y152.447 E10.87755
G1 X114.139 Y147.061 E11.05669
G1 X114.154 Y146.66 E11.07004
G1 X114.474 Y141.989 E11.22576
G1 X114.548 Y136.695 E11.40185
G1 X114.322 Y131.356 E11.57959
G1 X114.13 Y129.003 E11.65811
G1 X114.109 Y128.438 E11.67692
G1 X114.159 Y121.366 E11.91214
G1 X114.11 Y99.523 E12.63864
G1 X114.148 Y98.809 E12.66242
G1 X114.266 Y98.104 E12.6862
G1 X114.462 Y97.416 E12.70999
G1 X114.733 Y96.754 E12.73378
G1 X115.077 Y96.126 E12.7576
G1 X115.488 Y95.541 E12.78138
M204 S5000
M205 X30 Y30
G0 F3600 X115.885 Y95.687
M204 S500
M205 X20 Y20
G1 F1800 X116.356 Y95.179 E12.80442
G1 X116.883 Y94.729 E12.82747
G1 X117.458 Y94.343 E12.8505
G1 X118.073 Y94.026 E12.87351
G1 X118.721 Y93.782 E12.89654
G1 X119.393 Y93.614 E12.91958
G1 X120.08 Y93.524 E12.94263
G1 X120.51 Y93.509 E12.95694
G1 X179.491 Y93.51 E14.91865
G1 X180.182 Y93.55 E14.94167
G1 X180.865 Y93.669 E14.96473
G1 X181.529 Y93.867 E14.98778
G1 X182.165 Y94.139 E15.01078
G1 X182.766 Y94.483 E15.03382
G1 X183.324 Y94.894 E15.05687
G1 X183.83 Y95.366 E15.07988
G1 X184.279 Y95.894 E15.10293
G1 X184.664 Y96.47 E15.12598
G1 X184.979 Y97.086 E15.14899
G1 X185.222 Y97.734 E15.17201
G1 X185.389 Y98.407 E15.19507
G1 X185.477 Y99.094 E15.21811
G1 X185.491 Y99.552 E15.23335
G1 X185.442 Y106.558 E15.46637
G1 X185.474 Y122.839 E16.00788
G1 X185.622 Y126.613 E16.1335
G1 X186.087 Y132.003 E16.31344
G1 X186.44 Y134.728 E16.40483
G1 X186.49 Y135.531 E16.43159
G1 X186.461 Y140.935 E16.61133
G1 X186.447 Y141.312 E16.62388
G1 X186.127 Y145.996 E16.78003
G1 X186.052 Y151.299 E16.95643
G1 X186.281 Y156.694 E17.13603
G1 X186.471 Y159.03 E17.21398
G1 X186.491 Y159.519 E17.23026
G1 X186.489 Y164.512 E17.39633
G1 X186.455 Y165.15 E17.41758
G1 X185.715 Y172.048 E17.64832
G1 X185.441 Y178.709 E17.87006
G1 X185.49 Y212.482 E18.99335
G1 X185.451 Y213.174 E19.0164
G1 X185.333 Y213.856 E19.03942
G1 X185.136 Y214.52 E19.06246
G1 X184.865 Y215.157 E19.08548
G1 X184.522 Y215.759 E19.10853
G1 X184.112 Y216.317 E19.13156
G1 X183.64 Y216.824 E19.1546
G1 X183.113 Y217.273 E19.17763
G1 X182.538 Y217.659 E19.20066
G1 X181.922 Y217.976 E19.2237
G1 X181.274 Y218.22 E19.24673
G1 X180.602 Y218.387 E19.26976
G1 X179.915 Y218.476 E19.2928
G1 X179.49 Y218.491 E19.30695
G1 X120.509 Y218.491 E21.26866
G1 X119.818 Y218.451 E21.29169
G1 X119.135 Y218.332 E21.31474
G1 X118.472 Y218.134 E21.33776
G1 X117.835 Y217.862 E21.3608
G1 X117.234 Y217.518 E21.38383
G1 X116.676 Y217.107 E21.40688
G1 X116.17 Y216.635 E21.42989
G1 X115.721 Y216.107 E21.45294
G1 X115.336 Y215.532 E21.47596
G1 X115.021 Y214.915 E21.499
G1 X114.778 Y214.267 E21.52202
G1 X114.611 Y213.594 E21.54508
G1 X114.523 Y212.908 E21.56809
G1 X114.509 Y212.449 E21.58336
G1 X114.559 Y205.369 E21.81885
G1 X114.5 Y172.218 E22.92146
G1 X114.512 Y171.835 E22.9342
G1 X114.873 Y166.03 E23.12765
G1 X114.948 Y160.701 E23.30491
G1 X114.719 Y155.306 E23.48451
G1 X114.529 Y152.97 E23.56246
G1 X114.509 Y152.45 E23.57977
G1 X114.539 Y147.064 E23.75891
G1 X114.553 Y146.688 E23.77143
G1 X114.873 Y142.004 E23.92758
G1 X114.948 Y136.701 E24.10398
G1 X114.719 Y131.306 E24.28358
G1 X114.529 Y128.97 E24.36153
G1 X114.509 Y128.441 E24.37914
G1 X114.559 Y121.369 E24.61436
G1 X114.51 Y99.522 E25.34099
G1 X114.548 Y98.831 E25.36401
G1 X114.666 Y98.149 E25.38703
G1 X114.862 Y97.484 E25.41009
G1 X115.133 Y96.847 E25.43311
G1 X115.475 Y96.245 E25.45614
G1 X115.885 Y95.687 E25.47917
M204 S5000
M205 X30 Y30
G0 F3600 X116.282 Y95.838
M204 S500
M205 X20 Y20
G1 F1800 X116.75 Y95.359 E25.50145
G1 X117.271 Y94.941 E25.52366
G1 X117.839 Y94.587 E25.54592
G1 X118.445 Y94.304 E25.56817
G1 X119.081 Y94.094 E25.59044
G1 X119.737 Y93.963 E25.61269
G1 X120.51 Y93.909 E25.63847
G1 X179.491 Y93.91 E27.60018
G1 X180.159 Y93.95 E27.62244
G1 X180.817 Y94.069 E27.64468
G1 X181.457 Y94.266 E27.66695
G1 X182.068 Y94.538 E27.6892
G1 X182.642 Y94.881 E27.71144
G1 X183.172 Y95.29 E27.7337
G1 X183.649 Y95.759 E27.75595
G1 X184.067 Y96.282 E27.77822
G1 X184.419 Y96.85 E27.80045
G1 X184.701 Y97.457 E27.82271
G1 X184.909 Y98.093 E27.84496
G1 X185.039 Y98.749 E27.86721
G1 X185.091 Y99.549 E27.89387
G1 X185.042 Y106.555 E28.1269
G1 X185.074 Y122.828 E28.66814
G1 X185.224 Y126.665 E28.79586
G1 X185.686 Y132.019 E28.97459
G1 X186.044 Y134.78 E29.06719
G1 X186.09 Y135.529 E29.09215
G1 X186.061 Y140.933 E29.27189
G1 X186.048 Y141.285 E29.28361
G1 X185.727 Y145.982 E29.4402
G1 X185.651 Y151.31 E29.61742
G1 X185.88 Y156.691 E29.79656
G1 X186.073 Y159.062 E29.87568
G1 X186.091 Y159.519 E29.89089
G1 X186.089 Y164.512 E30.05696
G1 X186.057 Y165.107 E30.07678
G1 X185.315 Y172.019 E30.30799
G1 X185.041 Y178.693 E30.53016
G1 X185.09 Y212.483 E31.65402
G1 X185.051 Y213.151 E31.67627
G1 X184.933 Y213.809 E31.69851
G1 X184.737 Y214.449 E31.72077
G1 X184.466 Y215.061 E31.74303
G1 X184.124 Y215.636 E31.76528
G1 X183.716 Y216.166 E31.78753
G1 X183.247 Y216.644 E31.8098
G1 X182.725 Y217.062 E31.83205
G1 X182.157 Y217.415 E31.85429
G1 X181.551 Y217.698 E31.87653
G1 X180.915 Y217.907 E31.8988
G1 X180.259 Y218.038 E31.92105
G1 X179.49 Y218.091 E31.94669
G1 X120.509 Y218.091 E33.9084
G1 X119.841 Y218.051 E33.93066
G1 X119.183 Y217.932 E33.9529
G1 X118.543 Y217.735 E33.97517
G1 X117.932 Y217.463 E33.99742
G1 X117.358 Y217.12 E34.01966
G1 X116.828 Y216.711 E34.04192
G1 X116.351 Y216.242 E34.06417
G1 X115.933 Y215.72 E34.08642
G1 X115.581 Y215.151 E34.10867
G1 X115.299 Y214.544 E34.13093
G1 X115.091 Y213.908 E34.15319
G1 X114.961 Y213.252 E34.17543
G1 X114.909 Y212.451 E34.20213
G1 X114.959 Y205.371 E34.43761
G1 X114.9 Y172.217 E35.54032
G1 X114.911 Y171.859 E35.55224
G1 X115.273 Y166.039 E35.74618
G1 X115.349 Y160.69 E35.92411
G1 X115.12 Y155.309 E36.10324
G1 X114.927 Y152.938 E36.18237
G1 X114.909 Y152.452 E36.19854
G1 X114.939 Y147.066 E36.37768
G1 X114.952 Y146.715 E36.38936
G1 X115.273 Y142.018 E36.54595
G1 X115.349 Y136.69 E36.72318
G1 X115.12 Y131.309 E36.90232
G1 X114.927 Y128.938 E36.98144
G1 X114.909 Y128.443 E36.99791
G1 X114.959 Y121.371 E37.23313
G1 X114.91 Y99.522 E37.95983
G1 X114.948 Y98.854 E37.98209
G1 X115.066 Y98.195 E38.00436
G1 X115.262 Y97.555 E38.02662
G1 X115.532 Y96.943 E38.04887
G1 X115.874 Y96.368 E38.07112
G1 X116.282 Y95.838 E38.09336
M204 S5000
M205 X30 Y30
G0 F3600 X116.272 Y96.496
M204 S500
M205 X20 Y20
G1 F1800 X116.677 Y95.995 E38.11479
G1 X117.142 Y95.547 E38.13627
G1 X117.658 Y95.161 E38.1577
G1 X118.218 Y94.842 E38.17914
G1 X118.813 Y94.594 E38.20058
G1 X119.434 Y94.422 E38.22201
G1 X120.072 Y94.328 E38.24346
G1 X120.51 Y94.309 E38.25804
G1 X179.491 Y94.31 E40.21975
G1 X180.135 Y94.35 E40.24121
G1 X180.768 Y94.469 E40.26264
G1 X181.382 Y94.666 E40.28408
G1 X181.967 Y94.937 E40.30553
G1 X182.514 Y95.279 E40.32698
G1 X183.014 Y95.685 E40.34841
G1 X183.46 Y96.151 E40.36986
G1 X183.845 Y96.667 E40.39127
G1 X184.164 Y97.228 E40.41274
G1 X184.41 Y97.824 E40.43418
G1 X184.581 Y98.445 E40.45561
G1 X184.673 Y99.083 E40.47705
G1 X184.691 Y99.546 E40.49246
G1 X184.642 Y106.552 E40.72548
G1 X184.674 Y122.845 E41.26739
G1 X184.824 Y126.671 E41.39474
G1 X185.291 Y132.081 E41.57535
G1 X185.647 Y134.831 E41.66758
G1 X185.69 Y135.527 E41.69077
G1 X185.661 Y140.931 E41.87051
G1 X185.649 Y141.258 E41.88139
G1 X185.327 Y145.968 E42.03842
G1 X185.251 Y151.321 E42.21648
G1 X185.48 Y156.716 E42.39608
G1 X185.674 Y159.095 E42.47546
G1 X185.691 Y159.519 E42.48958
G1 X185.689 Y164.512 E42.65565
G1 X185.659 Y165.065 E42.67407
G1 X184.917 Y171.977 E42.90528
G1 X184.641 Y178.7 E43.12908
G1 X184.69 Y212.483 E44.2527
G1 X184.651 Y213.127 E44.27416
G1 X184.533 Y213.761 E44.29561
G1 X184.337 Y214.375 E44.31705
G1 X184.066 Y214.96 E44.33849
G1 X183.726 Y215.507 E44.35991
G1 X183.32 Y216.008 E44.38136
G1 X182.855 Y216.455 E44.40282
G1 X182.339 Y216.841 E44.42425
G1 X181.779 Y217.16 E44.44568
G1 X181.183 Y217.408 E44.46715
G1 X180.562 Y217.579 E44.48858
G1 X179.924 Y217.673 E44.51003
G1 X179.49 Y217.691 E44.52447
G1 X120.509 Y217.691 E46.48619
G1 X119.866 Y217.651 E46.50762
G1 X119.232 Y217.532 E46.52907
G1 X118.618 Y217.335 E46.55052
G1 X118.033 Y217.064 E46.57196
G1 X117.486 Y216.722 E46.59342
G1 X116.986 Y216.316 E46.61484
G1 X116.54 Y215.851 E46.63627
G1 X116.155 Y215.334 E46.65771
G1 X115.836 Y214.773 E46.67918
G1 X115.59 Y214.177 E46.70062
G1 X115.419 Y213.556 E46.72204
G1 X115.327 Y212.918 E46.74348
G1 X115.309 Y212.454 E46.75893
G1 X115.359 Y205.374 E46.99442
G1 X115.3 Y172.216 E48.09726
G1 X115.31 Y171.884 E48.1083
G1 X115.673 Y166.049 E48.30275
G1 X115.749 Y160.679 E48.48138
G1 X115.52 Y155.284 E48.66098
G1 X115.326 Y152.905 E48.74037
G1 X115.309 Y152.454 E48.75538
G1 X115.339 Y147.068 E48.93452
G1 X115.351 Y146.742 E48.94537
G1 X115.673 Y142.032 E49.10239
G1 X115.749 Y136.679 E49.28045
G1 X115.52 Y131.284 E49.46005
G1 X115.326 Y128.905 E49.53944
G1 X115.309 Y128.446 E49.55472
G1 X115.359 Y121.374 E49.78994
G1 X115.31 Y99.521 E50.51677
G1 X115.349 Y98.877 E50.53823
G1 X115.466 Y98.243 E50.55967
G1 X115.662 Y97.629 E50.58111
G1 X115.932 Y97.043 E50.60257
G1 X116.272 Y96.496 E50.62399
M204 S5000
M205 X30 Y30
G1 F2400 E45.62399
G0 F3600 X119.835 Y100.114
G0 X121.114 Y100.114
G0 X178.83 Y103.83
G0 X178.9 Y103.9
M204 S500
M205 X20 Y20
;TYPE:WALL-INNER
G1 F2400 E50.62399
G1 F1800 X121.1 Y103.9 E52.54643
G1 X121.1 Y100.1 E52.67282
G1 X178.9 Y100.1 E54.59525
G1 X178.9 Y103.9 E54.72164
M204 S5000
M205 X30 Y30
G0 F3600 X179.3 Y104.3
M204 S500
M205 X20 Y20
;TYPE:WALL-OUTER
G1 F1800 X120.7 Y104.3 E56.67068
G1 X120.7 Y99.7 E56.82368
G1 X179.3 Y99.7 E58.77273
G1 X179.3 Y104.3 E58.92572
M204 S5000
M205 X30 Y30
G0 F3600 X179.1 Y104.3
G0 X178.83 Y103.83
G0 X178.51 Y103.51
M204 S500
M205 X20 Y20
;TYPE:SKIN
G1 F1800 X121.49 Y103.51 E60.82221
G1 X121.49 Y100.49 E60.92266
G1 X178.51 Y100.49 E62.81915
G1 X178.51 Y103.51 E62.9196
M204 S5000
M205 X30 Y30
G0 F3600 X177.31 Y102.31
M204 S500
M205 X20 Y20
G1 F1800 X122.69 Y102.31 E64.73627
G1 X122.69 Y101.69 E64.75689
G1 X177.31 Y101.69 E66.57356
G1 X177.31 Y102.31 E66.59418
M204 S5000
M205 X30 Y30
G0 F3600 X177.71 Y102.71
M204 S500
M205 X20 Y20
G1 F1800 X122.29 Y102.71 E68.43746
G1 X122.29 Y101.29 E68.48468
G1 X177.71 Y101.29 E70.32796
G1 X177.71 Y102.71 E70.37519
M204 S5000
M205 X30 Y30
G0 F3600 X178.11 Y103.11
M204 S500
M205 X20 Y20
G1 F1800 X121.89 Y103.11 E72.24508
G1 X121.89 Y100.89 E72.31891
G1 X178.11 Y100.89 E74.1888
G1 X178.11 Y103.11 E74.26264
M204 S5000
M205 X30 Y30
G1 F2400 E69.26264
G0 F3600 X178.83 Y103.88
G0 X178.83 Y105.165
G0 X178.83 Y110.835
G0 X178.83 Y112.12
G0 X178.83 Y115.83
G0 X178.9 Y115.9
M204 S500
M205 X20 Y20
;TYPE:WALL-INNER
G1 F2400 E74.26264
G1 F1800 X121.1 Y115.9 E76.18507
G1 X121.1 Y112.1 E76.31146
G1 X178.9 Y112.1 E78.2339
G1 X178.9 Y115.9 E78.36028
M204 S5000
M205 X30 Y30
G0 F3600 X179.3 Y116.3
M204 S500
M205 X20 Y20
;TYPE:WALL-OUTER
G1 F1800 X120.7 Y116.3 E80.30933
G1 X120.7 Y111.7 E80.46232
G1 X179.3 Y111.7 E82.41137
G1 X179.3 Y116.3 E82.56436
M204 S5000
M205 X30 Y30
G0 F3600 X179.1 Y116.3
G0 X178.83 Y115.83
G0 X178.51 Y115.51
M204 S500
M205 X20 Y20
;TYPE:SKIN
G1 F1800 X121.49 Y115.51 E84.46086
G1 X121.49 Y112.49 E84.5613
G1 X178.51 Y112.49 E86.4578
G1 X178.51 Y115.51 E86.55824
M204 S5000
M205 X30 Y30
G0 F3600 X177.31 Y114.31
M204 S500
M205 X20 Y20
G1 F1800 X122.69 Y114.31 E88.37491
G1 X122.69 Y113.69 E88.39553
G1 X177.31 Y113.69 E90.2122
G1 X177.31 Y114.31 E90.23282
M204 S5000
M205 X30 Y30
G0 F3600 X177.71 Y114.71
M204 S500
M205 X20 Y20
G1 F1800 X122.29 Y114.71 E92.0761
G1 X122.29 Y113.29 E92.12333
G1 X177.71 Y113.29 E93.9666
G1 X177.71 Y114.71 E94.01383
M204 S5000
M205 X30 Y30
G0 F3600 X178.11 Y115.11
M204 S500
M205 X20 Y20
G1 F1800 X121.89 Y115.11 E95.88372
G1 X121.89 Y112.89 E95.95756
G1 X178.11 Y112.89 E97.82744
G1 X178.11 Y115.11 E97.90128
M204 S5000
M205 X30 Y30
G1 F2400 E92.90128
G0 F3600 X178.83 Y115.88
G0 X178.83 Y117.165
G0 X178.83 Y122.835
G0 X178.83 Y124.12
G0 X178.83 Y127.83
G0 X178.9 Y127.9
M204 S500
M205 X20 Y20
;TYPE:WALL-INNER
G1 F2400 E97.90128
G1 F1800 X121.1 Y127.9 E99.82371
G1 X121.1 Y124.1 E99.9501
G1 X178.9 Y124.1 E101.87254
G1 X178.9 Y127.9 E101.99893
M204 S5000
M205 X30 Y30
G0 F3600 X179.3 Y128.3
M204 S500
M205 X20 Y20
;TYPE:WALL-OUTER
G1 F1800 X120.7 Y128.3 E103.94797
G1 X120.7 Y123.7 E104.10097
G1 X179.3 Y123.7 E106.05001
G1 X179.3 Y128.3 E106.20301
M204 S5000
M205 X30 Y30
G0 F3600 X179.1 Y128.3
G0 X178.83 Y127.83
G0 X178.51 Y127.51
M204 S500
M205 X20 Y20
;TYPE:SKIN
G1 F1800 X121.49 Y127.51 E108.0995
G1 X121.49 Y124.49 E108.19995
G1 X178.51 Y124.49 E110.09644
G1 X178.51 Y127.51 E110.19689
M204 S5000
M205 X30 Y30
G0 F3600 X177.31 Y126.31
M204 S500
M205 X20 Y20
G1 F1800 X122.69 Y126.31 E112.01355
G1 X122.69 Y125.69 E112.03418
G1 X177.31 Y125.69 E113.85084
G1 X177.31 Y126.31 E113.87146
M204 S5000
M205 X30 Y30
G0 F3600 X177.71 Y126.71
M204 S500
M205 X20 Y20
G1 F1800 X122.29 Y126.71 E115.71474
G1 X122.29 Y125.29 E115.76197
G1 X177.71 Y125.29 E117.60525
G1 X177.71 Y126.71 E117.65248
M204 S5000
M205 X30 Y30
G0 F3600 X178.11 Y127.11
M204 S500
M205 X20 Y20
G1 F1800 X121.89 Y127.11 E119.52236
G1 X121.89 Y124.89 E119.5962
G1 X178.11 Y124.89 E121.46608
G1 X178.11 Y127.11 E121.53992
M204 S5000
M205 X30 Y30
G1 F2400 E116.53992
G0 F3600 X178.83 Y127.88
G0 X178.83 Y129.165
G0 X120.847 Y134.847
G0 X120.847 Y141.153
G0 X178.83 Y146.835
G0 X178.83 Y148.12
G0 X178.83 Y151.83
G0 X178.9 Y151.9
M204 S500
M205 X20 Y20
;TYPE:WALL-INNER
G1 F2400 E121.53992
G1 F1800 X121.1 Y151.9 E123.46236
